;FLAVOR:Marlin
;TIME:1379
;Filament used: 1.40513m
;Layer height: 0.28
;MINX:89
;MINY:91
;MINZ:0.28
;MAXX:146
;MAXY:144
;MAXZ:14.84
;Generated with Cura_SteamEngine 4.5.0
M140 S50
M105
M190 S50
M104 S200
M105
M109 S200
M82 ;absolute extrusion mode
; Ender 3 Custom Start G-code
G92 E0 ; Reset Extruder
G28 ; Home all axes
G1 Z2.0 F3000 ; Move Z Axis up little to prevent scratching of Heat Bed
G1 X0.1 Y20 Z0.3 F5000.0 ; Move to start position
G1 X0.1 Y200.0 Z0.3 F1500.0 E15 ; Draw the first line
G1 X0.4 Y200.0 Z0.3 F5000.0 ; Move to side a little
G1 X0.4 Y20 Z0.3 F1500.0 E30 ; Draw the second line
G92 E0 ; Reset Extruder
G1 Z2.0 F3000 ; Move Z Axis up little to prevent scratching of Heat Bed
G1 X5 Y20 Z0.3 F5000.0 ; Move over to prevent blob squish
G92 E0
G92 E0
G1 F2700 E-5
;LAYER_COUNT:53
;LAYER:0
M107
G0 F6000 X92.198 Y94.264 Z0.28
;TYPE:SKIRT
G1 F2700 E0
G1 F1200 X92.886 Y93.627 E0.04366
G1 X93.626 Y93.051 E0.08732
G1 X94.412 Y92.539 E0.131
G1 X95.239 Y92.097 E0.17467
G1 X96.101 Y91.727 E0.21835
G1 X96.991 Y91.431 E0.26202
G1 X97.903 Y91.213 E0.30568
G1 X98.83 Y91.072 E0.34935
G1 X99.701 Y91.013 E0.39
G1 X100.33 Y91 E0.41929
G1 X134.451 Y91.001 E2.00811
G1 X135.149 Y91.011 E2.04061
G1 X136.085 Y91.065 E2.08427
G1 X137.013 Y91.197 E2.12792
G1 X137.927 Y91.409 E2.17161
G1 X138.819 Y91.698 E2.21527
G1 X139.684 Y92.061 E2.25895
G1 X140.514 Y92.497 E2.3026
G1 X141.305 Y93.002 E2.3463
G1 X142.049 Y93.573 E2.38997
G1 X142.742 Y94.205 E2.43365
G1 X143.379 Y94.893 E2.4773
G1 X143.954 Y95.634 E2.52098
G1 X144.465 Y96.42 E2.56463
G1 X144.907 Y97.248 E2.60834
G1 X145.276 Y98.11 E2.652
G1 X145.571 Y99 E2.69566
G1 X145.789 Y99.912 E2.73932
G1 X145.929 Y100.84 E2.78302
G1 X145.987 Y101.701 E2.8232
G1 X146 Y102.33 E2.8525
G1 X145.999 Y132.4 E4.25268
G1 X145.99 Y133.127 E4.28654
G1 X145.939 Y134.064 E4.33023
G1 X145.807 Y134.992 E4.37388
G1 X145.598 Y135.906 E4.41754
G1 X145.311 Y136.799 E4.46122
G1 X144.949 Y137.665 E4.50492
G1 X144.515 Y138.496 E4.54858
G1 X144.011 Y139.287 E4.59225
G1 X143.442 Y140.032 E4.6359
G1 X142.811 Y140.727 E4.67961
G1 X142.124 Y141.365 E4.72327
G1 X141.385 Y141.942 E4.76692
G1 X140.599 Y142.454 E4.8106
G1 X139.773 Y142.897 E4.85425
G1 X138.911 Y143.269 E4.89797
G1 X138.022 Y143.565 E4.9416
G1 X137.11 Y143.785 E4.98528
G1 X136.183 Y143.926 E5.02894
G1 X135.299 Y143.987 E5.0702
G1 X134.67 Y144 E5.0995
G1 X100.565 Y143.999 E6.68757
G1 X99.867 Y143.99 E6.72007
G1 X98.931 Y143.938 E6.76372
G1 X98.002 Y143.806 E6.80742
G1 X97.088 Y143.596 E6.85109
G1 X96.195 Y143.309 E6.89476
G1 X95.33 Y142.946 E6.93844
G1 X94.499 Y142.512 E6.9821
G1 X93.708 Y142.008 E7.02577
G1 X92.963 Y141.438 E7.06945
G1 X92.269 Y140.807 E7.11313
G1 X91.632 Y140.12 E7.15675
G1 X91.055 Y139.38 E7.20045
G1 X90.543 Y138.594 E7.24413
G1 X90.1 Y137.767 E7.28781
G1 X89.729 Y136.906 E7.33147
G1 X89.433 Y136.016 E7.37514
G1 X89.214 Y135.104 E7.41881
G1 X89.073 Y134.177 E7.46248
G1 X89.013 Y133.288 E7.50396
G1 X89 Y132.658 E7.53331
G1 X89.001 Y102.525 E8.93643
G1 X89.01 Y101.86 E8.96739
G1 X89.063 Y100.924 E9.01105
G1 X89.195 Y99.995 E9.05474
G1 X89.406 Y99.081 E9.09842
G1 X89.694 Y98.189 E9.14207
G1 X90.057 Y97.324 E9.18575
G1 X90.492 Y96.493 E9.22942
G1 X90.996 Y95.703 E9.27306
G1 X91.566 Y94.958 E9.31674
G1 X92.198 Y94.264 E9.36044
G0 F6000 X92.589 Y94.439
G1 F1200 X93.274 Y93.823 E9.40334
G1 X94.01 Y93.27 E9.44621
G1 X94.791 Y92.782 E9.48909
G1 X95.611 Y92.364 E9.53195
G1 X96.465 Y92.019 E9.57483
G1 X97.345 Y91.749 E9.6177
G1 X98.245 Y91.557 E9.66055
G1 X99.159 Y91.443 E9.70344
G1 X99.712 Y91.413 E9.72922
G1 X100.33 Y91.4 E9.75801
G1 X134.445 Y91.401 E11.34654
G1 X135.143 Y91.411 E11.37905
G1 X136.062 Y91.464 E11.42191
G1 X136.973 Y91.597 E11.46478
G1 X137.869 Y91.808 E11.50765
G1 X138.743 Y92.096 E11.5505
G1 X139.59 Y92.459 E11.5934
G1 X140.401 Y92.894 E11.63626
G1 X141.171 Y93.398 E11.67911
G1 X141.895 Y93.967 E11.72199
G1 X142.567 Y94.597 E11.76488
G1 X143.182 Y95.282 E11.80775
G1 X143.735 Y96.018 E11.85061
G1 X144.222 Y96.799 E11.89347
G1 X144.639 Y97.62 E11.93635
G1 X144.984 Y98.474 E11.97924
G1 X145.253 Y99.354 E12.02208
G1 X145.445 Y100.255 E12.06498
G1 X145.558 Y101.168 E12.10782
G1 X145.587 Y101.712 E12.13318
G1 X145.6 Y102.33 E12.16197
G1 X145.599 Y132.395 E13.56192
G1 X145.59 Y133.122 E13.59577
G1 X145.539 Y134.041 E13.63863
G1 X145.408 Y134.953 E13.68154
G1 X145.198 Y135.849 E13.72439
G1 X144.912 Y136.724 E13.76725
G1 X144.551 Y137.571 E13.81013
G1 X144.117 Y138.383 E13.853
G1 X143.615 Y139.155 E13.89588
G1 X143.047 Y139.88 E13.93876
G1 X142.419 Y140.553 E13.98162
G1 X141.735 Y141.169 E14.02449
G1 X141 Y141.723 E14.06734
G1 X140.22 Y142.212 E14.11021
G1 X139.4 Y142.631 E14.15309
G1 X138.547 Y142.977 E14.19595
G1 X137.667 Y143.248 E14.23883
G1 X136.767 Y143.441 E14.28169
G1 X135.853 Y143.556 E14.32458
G1 X135.288 Y143.587 E14.35093
G1 X134.67 Y143.6 E14.37972
G1 X100.57 Y143.599 E15.96755
G1 X99.872 Y143.59 E16.00006
G1 X98.953 Y143.538 E16.04292
G1 X98.042 Y143.407 E16.08578
G1 X97.146 Y143.197 E16.12863
G1 X96.271 Y142.91 E16.17151
G1 X95.424 Y142.548 E16.2144
G1 X94.612 Y142.114 E16.25727
G1 X93.841 Y141.612 E16.30011
G1 X93.116 Y141.044 E16.343
G1 X92.443 Y140.415 E16.38589
G1 X91.828 Y139.731 E16.42872
G1 X91.274 Y138.996 E16.47158
G1 X90.786 Y138.215 E16.51446
G1 X90.367 Y137.395 E16.55734
G1 X90.021 Y136.542 E16.6002
G1 X89.751 Y135.662 E16.64306
G1 X89.558 Y134.761 E16.68597
G1 X89.444 Y133.848 E16.72881
G1 X89.413 Y133.277 E16.75544
G1 X89.4 Y132.658 E16.78427
G1 X89.401 Y102.531 E18.18711
G1 X89.41 Y101.866 E18.21808
G1 X89.462 Y100.946 E18.26098
G1 X89.594 Y100.035 E18.30385
G1 X89.805 Y99.139 E18.34671
G1 X90.092 Y98.264 E18.38959
G1 X90.455 Y97.418 E18.43246
G1 X90.889 Y96.606 E18.47533
G1 X91.392 Y95.835 E18.51819
G1 X91.961 Y95.111 E18.56107
G1 X92.589 Y94.439 E18.6039
G0 F6000 X92.981 Y94.617
G1 F1200 X93.662 Y94.024 E18.64595
G1 X94.394 Y93.494 E18.68803
G1 X95.169 Y93.031 E18.73007
G1 X95.982 Y92.638 E18.77211
G1 X96.827 Y92.318 E18.81419
G1 X97.696 Y92.075 E18.8562
G1 X98.584 Y91.909 E18.89827
G1 X99.723 Y91.813 E18.95149
G1 X100.33 Y91.8 E18.97976
G1 X134.439 Y91.801 E20.56802
G1 X135.137 Y91.811 E20.60053
G1 X136.039 Y91.864 E20.6426
G1 X136.932 Y91.996 E20.68463
G1 X137.81 Y92.207 E20.72668
G1 X138.666 Y92.495 E20.76874
G1 X139.493 Y92.857 E20.81077
G1 X140.285 Y93.292 E20.85285
G1 X141.036 Y93.794 E20.89491
G1 X141.739 Y94.361 E20.93697
G1 X142.389 Y94.988 E20.97902
G1 X142.981 Y95.67 E21.02107
G1 X143.511 Y96.401 E21.06311
G1 X143.973 Y97.177 E21.10517
G1 X144.366 Y97.99 E21.14722
G1 X144.684 Y98.835 E21.18926
G1 X144.927 Y99.705 E21.23132
G1 X145.092 Y100.593 E21.27337
G1 X145.187 Y101.723 E21.32618
G1 X145.2 Y102.33 E21.35445
G1 X145.199 Y132.39 E22.75417
G1 X145.19 Y133.117 E22.78802
G1 X145.139 Y134.019 E22.83009
G1 X145.008 Y134.913 E22.87216
G1 X144.799 Y135.791 E22.91419
G1 X144.513 Y136.648 E22.95626
G1 X144.152 Y137.476 E22.99832
G1 X143.72 Y138.268 E23.04033
G1 X143.219 Y139.02 E23.0824
G1 X142.653 Y139.724 E23.12446
G1 X142.028 Y140.375 E23.16649
G1 X141.347 Y140.969 E23.20856
G1 X140.616 Y141.5 E23.25064
G1 X139.842 Y141.964 E23.29266
G1 X139.029 Y142.358 E23.33472
G1 X138.185 Y142.678 E23.37675
G1 X137.315 Y142.923 E23.41884
G1 X136.428 Y143.089 E23.46086
G1 X135.277 Y143.187 E23.51465
G1 X134.67 Y143.2 E23.54292
G1 X100.575 Y143.199 E25.13053
G1 X99.877 Y143.19 E25.16303
G1 X98.976 Y143.139 E25.20505
G1 X98.082 Y143.007 E25.24713
G1 X97.204 Y142.798 E25.28916
G1 X96.347 Y142.511 E25.33124
G1 X95.52 Y142.15 E25.37326
G1 X94.727 Y141.717 E25.41533
G1 X93.976 Y141.216 E25.45737
G1 X93.272 Y140.65 E25.49943
G1 X92.621 Y140.024 E25.54148
G1 X92.028 Y139.343 E25.58353
G1 X91.498 Y138.612 E25.62557
G1 X91.034 Y137.837 E25.66764
G1 X90.64 Y137.024 E25.7097
G1 X90.32 Y136.18 E25.75173
G1 X90.076 Y135.31 E25.79381
G1 X89.91 Y134.422 E25.83587
G1 X89.813 Y133.267 E25.88984
G1 X89.8 Y132.658 E25.91821
G1 X89.801 Y102.536 E27.32081
G1 X89.81 Y101.871 E27.35178
G1 X89.862 Y100.969 E27.39385
G1 X89.994 Y100.076 E27.43589
G1 X90.204 Y99.198 E27.47792
G1 X90.491 Y98.341 E27.52001
G1 X90.853 Y97.514 E27.56204
G1 X91.286 Y96.722 E27.60407
G1 X91.788 Y95.971 E27.64614
G1 X92.355 Y95.267 E27.68823
G1 X92.981 Y94.617 E27.73025
G1 F2700 E22.73025
;MESH:caixa_31x35x15_1.5_0.6.stl
G0 F6000 X100.414 Y101.335
G0 X100.414 Y102.414
G0 X100.6 Y132.4
;TYPE:WALL-INNER
G1 F2700 E27.73025
G1 F1200 X100.6 Y102.6 E29.11786
G1 X134.4 Y102.6 E30.69173
G1 X134.4 Y132.4 E32.07934
G1 X100.6 Y132.4 E33.65321
G0 F6000 X100.2 Y132.8
;TYPE:WALL-OUTER
G1 F1200 X100.2 Y102.2 E35.07808
G1 X134.8 Y102.2 E36.6892
G1 X134.8 Y132.8 E38.11406
G1 X100.2 Y132.8 E39.72518
G0 F6000 X100.47 Y132.53
G0 X100.71 Y132.01
G0 X100.99 Y132.01
;TYPE:SKIN
G1 F1200 X100.99 Y102.99 E41.07648
G1 X134.01 Y102.99 E42.61403
G1 X134.01 Y132.01 E43.96532
G1 X100.99 Y132.01 E45.50287
G0 F6000 X101.302 Y131.849
G1 F1200 X101.149 Y131.696 E45.51294
G0 F6000 X101.149 Y131.13
G1 F1200 X101.867 Y131.849 E45.56026
G0 F6000 X102.433 Y131.849
G1 F1200 X101.149 Y130.565 E45.64481
G0 F6000 X101.149 Y129.999
G1 F1200 X102.999 Y131.849 E45.76664
G0 F6000 X103.564 Y131.849
G1 F1200 X101.149 Y129.433 E45.9257
G0 F6000 X101.149 Y128.868
G1 F1200 X104.13 Y131.849 E46.12201
G0 F6000 X104.696 Y131.849
G1 F1200 X101.149 Y128.302 E46.35558
G0 F6000 X101.149 Y127.736
G1 F1200 X105.262 Y131.849 E46.62643
G0 F6000 X105.827 Y131.849
G1 F1200 X101.149 Y127.171 E46.93448
G0 F6000 X101.149 Y126.605
G1 F1200 X106.393 Y131.849 E47.27981
G0 F6000 X106.959 Y131.849
G1 F1200 X101.149 Y126.039 E47.66241
G0 F6000 X101.149 Y125.473
G1 F1200 X107.524 Y131.849 E48.08225
G0 F6000 X108.09 Y131.849
G1 F1200 X101.149 Y124.908 E48.53932
G0 F6000 X101.149 Y124.342
G1 F1200 X108.656 Y131.849 E49.03367
G0 F6000 X109.221 Y131.849
G1 F1200 X101.149 Y123.776 E49.56526
G0 F6000 X101.149 Y123.211
G1 F1200 X109.787 Y131.849 E50.13409
G0 F6000 X110.353 Y131.849
G1 F1200 X101.149 Y122.645 E50.74019
G0 F6000 X101.149 Y122.079
G1 F1200 X110.918 Y131.849 E51.38352
G0 F6000 X111.484 Y131.849
G1 F1200 X101.149 Y121.514 E52.0641
G0 F6000 X101.149 Y120.948
G1 F1200 X112.05 Y131.849 E52.78195
G0 F6000 X112.615 Y131.849
G1 F1200 X101.149 Y120.382 E53.53704
G0 F6000 X101.149 Y119.817
G1 F1200 X113.181 Y131.849 E54.32937
G0 F6000 X113.747 Y131.849
G1 F1200 X101.149 Y119.251 E55.15897
G0 F6000 X101.149 Y118.685
G1 F1200 X114.313 Y131.849 E56.02584
G0 F6000 X114.878 Y131.849
G1 F1200 X101.149 Y118.12 E56.92992
G0 F6000 X101.149 Y117.554
G1 F1200 X115.444 Y131.849 E57.87127
G0 F6000 X116.01 Y131.849
G1 F1200 X101.149 Y116.988 E58.84989
G0 F6000 X101.149 Y116.423
G1 F1200 X116.575 Y131.849 E59.86572
G0 F6000 X117.141 Y131.849
G1 F1200 X101.149 Y115.857 E60.91882
G0 F6000 X101.149 Y115.291
G1 F1200 X117.707 Y131.849 E62.00919
G0 F6000 X118.272 Y131.849
G1 F1200 X101.149 Y114.725 E63.1368
G0 F6000 X101.149 Y114.16
G1 F1200 X118.838 Y131.849 E64.30165
G0 F6000 X119.404 Y131.849
G1 F1200 X101.149 Y113.594 E65.50378
G0 F6000 X101.149 Y113.028
G1 F1200 X119.969 Y131.849 E66.74314
G0 F6000 X120.535 Y131.849
G1 F1200 X101.149 Y112.463 E68.01974
G0 F6000 X101.149 Y111.897
G1 F1200 X121.101 Y131.849 E69.33361
G0 F6000 X121.666 Y131.849
G1 F1200 X101.149 Y111.331 E70.68473
G0 F6000 X101.149 Y110.766
G1 F1200 X122.232 Y131.849 E72.07308
G0 F6000 X122.798 Y131.849
G1 F1200 X101.149 Y110.2 E73.4987
G0 F6000 X101.149 Y109.634
G1 F1200 X123.363 Y131.849 E74.96156
G0 F6000 X123.929 Y131.849
G1 F1200 X101.149 Y109.069 E76.46167
G0 F6000 X101.149 Y108.503
G1 F1200 X124.495 Y131.849 E77.99904
G0 F6000 X125.061 Y131.849
G1 F1200 X101.149 Y107.937 E79.57369
G0 F6000 X101.149 Y107.372
G1 F1200 X125.626 Y131.849 E81.18554
G0 F6000 X126.192 Y131.849
G1 F1200 X101.149 Y106.806 E82.83466
G0 F6000 X101.149 Y106.24
G1 F1200 X126.758 Y131.849 E84.52106
G0 F6000 X127.323 Y131.849
G1 F1200 X101.149 Y105.674 E86.24469
G0 F6000 X101.149 Y105.109
G1 F1200 X127.889 Y131.849 E88.00557
G0 F6000 X128.455 Y131.849
G1 F1200 X101.149 Y104.543 E89.80372
G0 F6000 X101.149 Y103.977
G1 F1200 X129.02 Y131.849 E91.6391
G0 F6000 X129.586 Y131.849
G1 F1200 X101.149 Y103.412 E93.51173
G0 F6000 X101.452 Y103.149
G1 F1200 X130.152 Y131.849 E95.40167
G0 F6000 X130.717 Y131.849
G1 F1200 X102.018 Y103.149 E97.29158
G0 F6000 X102.584 Y103.149
G1 F1200 X131.283 Y131.849 E99.18149
G0 F6000 X131.849 Y131.849
G1 F1200 X103.149 Y103.149 E101.07144
G0 F6000 X103.715 Y103.149
G1 F1200 X132.414 Y131.849 E102.96135
G0 F6000 X132.98 Y131.849
G1 F1200 X104.281 Y103.149 E104.85126
G0 F6000 X104.846 Y103.149
G1 F1200 X133.546 Y131.849 E106.7412
G0 F6000 X133.849 Y131.586
G1 F1200 X105.412 Y103.149 E108.61383
G0 F6000 X105.978 Y103.149
G1 F1200 X133.849 Y131.021 E110.44921
G0 F6000 X133.849 Y130.455
G1 F1200 X106.544 Y103.149 E112.24733
G0 F6000 X107.109 Y103.149
G1 F1200 X133.849 Y129.889 E114.0082
G0 F6000 X133.849 Y129.324
G1 F1200 X107.675 Y103.149 E115.73184
G0 F6000 X108.241 Y103.149
G1 F1200 X133.849 Y128.758 E117.4182
G0 F6000 X133.849 Y128.192
G1 F1200 X108.806 Y103.149 E119.06733
G0 F6000 X109.372 Y103.149
G1 F1200 X133.849 Y127.627 E120.67921
G0 F6000 X133.849 Y127.061
G1 F1200 X109.938 Y103.149 E122.25382
G0 F6000 X110.503 Y103.149
G1 F1200 X133.849 Y126.495 E123.7912
G0 F6000 X133.849 Y125.93
G1 F1200 X111.069 Y103.149 E125.29133
G0 F6000 X111.635 Y103.149
G1 F1200 X133.849 Y125.364 E126.7542
G0 F6000 X133.849 Y124.798
G1 F1200 X112.2 Y103.149 E128.17982
G0 F6000 X112.766 Y103.149
G1 F1200 X133.849 Y124.233 E129.5682
G0 F6000 X133.849 Y123.667
G1 F1200 X113.332 Y103.149 E130.91932
G0 F6000 X113.897 Y103.149
G1 F1200 X133.849 Y123.101 E132.23319
G0 F6000 X133.849 Y122.535
G1 F1200 X114.463 Y103.149 E133.50979
G0 F6000 X115.029 Y103.149
G1 F1200 X133.849 Y121.97 E134.74915
G0 F6000 X133.849 Y121.404
G1 F1200 X115.594 Y103.149 E135.95128
G0 F6000 X116.16 Y103.149
G1 F1200 X133.849 Y120.838 E137.11613
G0 F6000 X133.849 Y120.273
G1 F1200 X116.726 Y103.149 E138.24374
G0 F6000 X117.292 Y103.149
G1 F1200 X133.849 Y119.707 E139.33408
G0 F6000 X133.849 Y119.141
G1 F1200 X117.857 Y103.149 E140.38718
G0 F6000 X118.423 Y103.149
G1 F1200 X133.849 Y118.576 E141.40304
G0 F6000 X133.849 Y118.01
G1 F1200 X118.989 Y103.149 E142.38163
G0 F6000 X119.554 Y103.149
G1 F1200 X133.849 Y117.444 E143.32298
G0 F6000 X133.849 Y116.879
G1 F1200 X120.12 Y103.149 E144.22709
G0 F6000 X120.686 Y103.149
G1 F1200 X133.849 Y116.313 E145.09393
G0 F6000 X133.849 Y115.747
G1 F1200 X121.251 Y103.149 E145.92353
G0 F6000 X121.817 Y103.149
G1 F1200 X133.849 Y115.182 E146.71589
G0 F6000 X133.849 Y114.616
G1 F1200 X122.383 Y103.149 E147.47098
G0 F6000 X122.948 Y103.149
G1 F1200 X133.849 Y114.05 E148.18883
G0 F6000 X133.849 Y113.484
G1 F1200 X123.514 Y103.149 E148.8694
G0 F6000 X124.08 Y103.149
G1 F1200 X133.849 Y112.919 E149.51274
G0 F6000 X133.849 Y112.353
G1 F1200 X124.645 Y103.149 E150.11884
G0 F6000 X125.211 Y103.149
G1 F1200 X133.849 Y111.787 E150.68767
G0 F6000 X133.849 Y111.222
G1 F1200 X125.777 Y103.149 E151.21926
G0 F6000 X126.343 Y103.149
G1 F1200 X133.849 Y110.656 E151.71357
G0 F6000 X133.849 Y110.09
G1 F1200 X126.908 Y103.149 E152.17065
G0 F6000 X127.474 Y103.149
G1 F1200 X133.849 Y109.525 E152.59049
G0 F6000 X133.849 Y108.959
G1 F1200 X128.04 Y103.149 E152.97305
G0 F6000 X128.605 Y103.149
G1 F1200 X133.849 Y108.393 E153.31838
G0 F6000 X133.849 Y107.828
G1 F1200 X129.171 Y103.149 E153.62647
G0 F6000 X129.737 Y103.149
G1 F1200 X133.849 Y107.262 E153.89728
G0 F6000 X133.849 Y106.696
G1 F1200 X130.302 Y103.149 E154.13086
G0 F6000 X130.868 Y103.149
G1 F1200 X133.849 Y106.131 E154.32719
G0 F6000 X133.849 Y105.565
G1 F1200 X131.434 Y103.149 E154.48626
G0 F6000 X131.999 Y103.149
G1 F1200 X133.849 Y104.999 E154.60808
G0 F6000 X133.849 Y104.434
G1 F1200 X132.565 Y103.149 E154.69267
G0 F6000 X133.131 Y103.149
G1 F1200 X133.849 Y103.868 E154.73999
G0 F6000 X133.849 Y103.302
G1 F1200 X133.696 Y103.149 E154.75006
G0 F6000 X133.696 Y102.8
G1 F2700 E149.75006
;MESH:NONMESH
G0 F300 X133.696 Y102.8 Z0.56
G0 F6000 X133.696 Y102.71
G0 X100.782 Y102.782
G0 X100.6 Y132.4
;TIME_ELAPSED:181.056309
;LAYER:1
M140 S50
M106 S85
