;FLAVOR:Marlin
;TIME:1103
;Filament used: 1.11614m
;Layer height: 0.28
;MINX:96.5
;MINY:89
;MINZ:0.28
;MAXX:138.5
;MAXY:146
;MAXZ:14.84
;Generated with Cura_SteamEngine 4.5.0
M140 S50
M105
M190 S50
M104 S200
M105
M109 S200
M82 ;absolute extrusion mode
; Ender 3 Custom Start G-code
G92 E0 ; Reset Extruder
G28 ; Home all axes
G1 Z2.0 F3000 ; Move Z Axis up little to prevent scratching of Heat Bed
G1 X0.1 Y20 Z0.3 F5000.0 ; Move to start position
G1 X0.1 Y200.0 Z0.3 F1500.0 E15 ; Draw the first line
G1 X0.4 Y200.0 Z0.3 F5000.0 ; Move to side a little
G1 X0.4 Y20 Z0.3 F1500.0 E30 ; Draw the second line
G92 E0 ; Reset Extruder
G1 Z2.0 F3000 ; Move Z Axis up little to prevent scratching of Heat Bed
G1 X5 Y20 Z0.3 F5000.0 ; Move over to prevent blob squish
G92 E0
G92 E0
G1 F2700 E-5
;LAYER_COUNT:53
;LAYER:0
M107
G0 F6000 X99.698 Y92.264 Z0.28
;TYPE:SKIRT
G1 F2700 E0
G1 F1200 X100.386 Y91.627 E0.04366
G1 X101.126 Y91.051 E0.08732
G1 X101.912 Y90.539 E0.131
G1 X102.739 Y90.097 E0.17467
G1 X103.601 Y89.727 E0.21835
G1 X104.491 Y89.431 E0.26202
G1 X105.403 Y89.213 E0.30568
G1 X106.33 Y89.072 E0.34935
G1 X107.201 Y89.013 E0.39
G1 X107.83 Y89 E0.41929
G1 X126.951 Y89.001 E1.30965
G1 X127.649 Y89.011 E1.34215
G1 X128.585 Y89.065 E1.38581
G1 X129.513 Y89.197 E1.42945
G1 X130.427 Y89.409 E1.47314
G1 X131.319 Y89.698 E1.5168
G1 X132.184 Y90.061 E1.56048
G1 X133.014 Y90.497 E1.60414
G1 X133.805 Y91.002 E1.64784
G1 X134.549 Y91.573 E1.69151
G1 X135.242 Y92.205 E1.73518
G1 X135.879 Y92.893 E1.77884
G1 X136.454 Y93.634 E1.82252
G1 X136.965 Y94.42 E1.86617
G1 X137.407 Y95.248 E1.90987
G1 X137.776 Y96.11 E1.95354
G1 X138.071 Y97 E1.9972
G1 X138.289 Y97.912 E2.04086
G1 X138.429 Y98.84 E2.08456
G1 X138.487 Y99.701 E2.12474
G1 X138.5 Y100.33 E2.15404
G1 X138.499 Y134.4 E3.74048
G1 X138.49 Y135.127 E3.77433
G1 X138.439 Y136.064 E3.81803
G1 X138.307 Y136.992 E3.86168
G1 X138.098 Y137.906 E3.90533
G1 X137.811 Y138.799 E3.94901
G1 X137.449 Y139.665 E3.99272
G1 X137.015 Y140.496 E4.03637
G1 X136.511 Y141.287 E4.08004
G1 X135.942 Y142.032 E4.12369
G1 X135.311 Y142.727 E4.1674
G1 X134.624 Y143.365 E4.21106
G1 X133.885 Y143.942 E4.25472
G1 X133.099 Y144.454 E4.2984
G1 X132.273 Y144.897 E4.34204
G1 X131.411 Y145.269 E4.38576
G1 X130.522 Y145.565 E4.42939
G1 X129.61 Y145.785 E4.47307
G1 X128.683 Y145.926 E4.51674
G1 X127.799 Y145.987 E4.558
G1 X127.17 Y146 E4.58729
G1 X108.065 Y145.999 E5.4769
G1 X107.367 Y145.99 E5.5094
G1 X106.431 Y145.938 E5.55306
G1 X105.502 Y145.806 E5.59675
G1 X104.588 Y145.596 E5.64042
G1 X103.695 Y145.309 E5.68409
G1 X102.83 Y144.946 E5.72777
G1 X101.999 Y144.512 E5.77143
G1 X101.208 Y144.008 E5.8151
G1 X100.463 Y143.438 E5.85878
G1 X99.769 Y142.807 E5.90246
G1 X99.132 Y142.12 E5.94608
G1 X98.555 Y141.38 E5.98978
G1 X98.043 Y140.594 E6.03346
G1 X97.6 Y139.767 E6.07714
G1 X97.229 Y138.906 E6.1208
G1 X96.933 Y138.016 E6.16447
G1 X96.714 Y137.104 E6.20814
G1 X96.573 Y136.177 E6.25181
G1 X96.513 Y135.288 E6.2933
G1 X96.5 Y134.658 E6.32264
G1 X96.501 Y100.525 E7.91201
G1 X96.51 Y99.86 E7.94298
G1 X96.563 Y98.924 E7.98664
G1 X96.695 Y97.995 E8.03033
G1 X96.906 Y97.081 E8.07401
G1 X97.194 Y96.189 E8.11765
G1 X97.557 Y95.324 E8.16133
G1 X97.992 Y94.493 E8.20501
G1 X98.496 Y93.703 E8.24864
G1 X99.066 Y92.958 E8.29232
G1 X99.698 Y92.264 E8.33603
G0 F6000 X100.089 Y92.439
G1 F1200 X100.774 Y91.823 E8.37893
G1 X101.51 Y91.27 E8.42179
G1 X102.291 Y90.782 E8.46468
G1 X103.111 Y90.364 E8.50753
G1 X103.965 Y90.019 E8.55042
G1 X104.845 Y89.749 E8.59328
G1 X105.745 Y89.557 E8.63613
G1 X106.659 Y89.443 E8.67902
G1 X107.212 Y89.413 E8.70481
G1 X107.83 Y89.4 E8.7336
G1 X126.945 Y89.401 E9.62367
G1 X127.643 Y89.411 E9.65617
G1 X128.562 Y89.464 E9.69904
G1 X129.473 Y89.597 E9.74191
G1 X130.369 Y89.808 E9.78477
G1 X131.243 Y90.096 E9.82762
G1 X132.09 Y90.459 E9.87053
G1 X132.901 Y90.894 E9.91338
G1 X133.671 Y91.398 E9.95623
G1 X134.395 Y91.967 E9.99911
G1 X135.067 Y92.597 E10.042
G1 X135.682 Y93.282 E10.08487
G1 X136.235 Y94.018 E10.12774
G1 X136.722 Y94.799 E10.17059
G1 X137.139 Y95.62 E10.21347
G1 X137.484 Y96.474 E10.25636
G1 X137.753 Y97.354 E10.29921
G1 X137.945 Y98.255 E10.34211
G1 X138.058 Y99.168 E10.38494
G1 X138.087 Y99.712 E10.41031
G1 X138.1 Y100.33 E10.43909
G1 X138.099 Y134.395 E12.0253
G1 X138.09 Y135.122 E12.05916
G1 X138.039 Y136.041 E12.10201
G1 X137.908 Y136.953 E12.14492
G1 X137.698 Y137.849 E12.18777
G1 X137.412 Y138.724 E12.23063
G1 X137.051 Y139.571 E12.27351
G1 X136.617 Y140.383 E12.31638
G1 X136.115 Y141.155 E12.35926
G1 X135.547 Y141.88 E12.40214
G1 X134.919 Y142.553 E12.44501
G1 X134.235 Y143.169 E12.48787
G1 X133.5 Y143.723 E12.53073
G1 X132.72 Y144.212 E12.57359
G1 X131.9 Y144.631 E12.61647
G1 X131.047 Y144.977 E12.65933
G1 X130.167 Y145.248 E12.70221
G1 X129.267 Y145.441 E12.74507
G1 X128.353 Y145.556 E12.78797
G1 X127.788 Y145.587 E12.81431
G1 X127.17 Y145.6 E12.8431
G1 X108.07 Y145.599 E13.73247
G1 X107.372 Y145.59 E13.76498
G1 X106.453 Y145.538 E13.80784
G1 X105.542 Y145.407 E13.85069
G1 X104.646 Y145.197 E13.89355
G1 X103.771 Y144.91 E13.93643
G1 X102.924 Y144.548 E13.97932
G1 X102.112 Y144.114 E14.02219
G1 X101.341 Y143.612 E14.06503
G1 X100.616 Y143.044 E14.10792
G1 X99.943 Y142.415 E14.15081
G1 X99.328 Y141.731 E14.19364
G1 X98.774 Y140.996 E14.2365
G1 X98.286 Y140.215 E14.27938
G1 X97.867 Y139.395 E14.32226
G1 X97.521 Y138.542 E14.36512
G1 X97.251 Y137.662 E14.40798
G1 X97.058 Y136.761 E14.45089
G1 X96.944 Y135.848 E14.49373
G1 X96.913 Y135.277 E14.52036
G1 X96.9 Y134.658 E14.54919
G1 X96.901 Y100.531 E16.13829
G1 X96.91 Y99.866 E16.16925
G1 X96.962 Y98.946 E16.21216
G1 X97.094 Y98.035 E16.25502
G1 X97.305 Y97.139 E16.29789
G1 X97.592 Y96.264 E16.34077
G1 X97.955 Y95.418 E16.38363
G1 X98.389 Y94.606 E16.4265
G1 X98.892 Y93.835 E16.46937
G1 X99.461 Y93.111 E16.51225
G1 X100.089 Y92.439 E16.55508
G0 F6000 X100.481 Y92.617
G1 F1200 X101.162 Y92.024 E16.59712
G1 X101.894 Y91.494 E16.6392
G1 X102.669 Y91.031 E16.68124
G1 X103.482 Y90.638 E16.72329
G1 X104.327 Y90.318 E16.76536
G1 X105.196 Y90.075 E16.80738
G1 X106.084 Y89.909 E16.84944
G1 X107.223 Y89.813 E16.90267
G1 X107.83 Y89.8 E16.93094
G1 X126.939 Y89.801 E17.82074
G1 X127.637 Y89.811 E17.85324
G1 X128.539 Y89.864 E17.89531
G1 X129.432 Y89.996 E17.93735
G1 X130.31 Y90.207 E17.97939
G1 X131.166 Y90.495 E18.02145
G1 X131.993 Y90.857 E18.06349
G1 X132.785 Y91.292 E18.10556
G1 X133.536 Y91.794 E18.14762
G1 X134.239 Y92.361 E18.18968
G1 X134.889 Y92.988 E18.23173
G1 X135.481 Y93.67 E18.27378
G1 X136.011 Y94.401 E18.31583
G1 X136.473 Y95.177 E18.35788
G1 X136.866 Y95.99 E18.39993
G1 X137.184 Y96.835 E18.44197
G1 X137.427 Y97.705 E18.48403
G1 X137.592 Y98.593 E18.52609
G1 X137.687 Y99.723 E18.57889
G1 X137.7 Y100.33 E18.60716
G1 X137.699 Y134.39 E20.19314
G1 X137.69 Y135.117 E20.22699
G1 X137.639 Y136.019 E20.26906
G1 X137.508 Y136.913 E20.31113
G1 X137.299 Y137.791 E20.35316
G1 X137.013 Y138.648 E20.39523
G1 X136.652 Y139.476 E20.43729
G1 X136.22 Y140.268 E20.4793
G1 X135.719 Y141.02 E20.52137
G1 X135.153 Y141.724 E20.56343
G1 X134.528 Y142.375 E20.60546
G1 X133.847 Y142.969 E20.64753
G1 X133.116 Y143.5 E20.6896
G1 X132.342 Y143.964 E20.73163
G1 X131.529 Y144.358 E20.77369
G1 X130.685 Y144.678 E20.81572
G1 X129.815 Y144.923 E20.85781
G1 X128.928 Y145.089 E20.89983
G1 X127.777 Y145.187 E20.95362
G1 X127.17 Y145.2 E20.98189
G1 X108.075 Y145.199 E21.87103
G1 X107.377 Y145.19 E21.90354
G1 X106.476 Y145.139 E21.94556
G1 X105.582 Y145.007 E21.98764
G1 X104.704 Y144.798 E22.02966
G1 X103.847 Y144.511 E22.07175
G1 X103.02 Y144.15 E22.11377
G1 X102.227 Y143.717 E22.15584
G1 X101.476 Y143.216 E22.19787
G1 X100.772 Y142.65 E22.23994
G1 X100.121 Y142.024 E22.28199
G1 X99.528 Y141.343 E22.32404
G1 X98.998 Y140.612 E22.36608
G1 X98.534 Y139.837 E22.40814
G1 X98.14 Y139.024 E22.45021
G1 X97.82 Y138.18 E22.49224
G1 X97.576 Y137.31 E22.53431
G1 X97.41 Y136.422 E22.57638
G1 X97.313 Y135.267 E22.63035
G1 X97.3 Y134.658 E22.65871
G1 X97.301 Y100.536 E24.24758
G1 X97.31 Y99.871 E24.27855
G1 X97.362 Y98.969 E24.32062
G1 X97.494 Y98.076 E24.36265
G1 X97.704 Y97.198 E24.40469
G1 X97.991 Y96.341 E24.44677
G1 X98.353 Y95.514 E24.48881
G1 X98.786 Y94.722 E24.53084
G1 X99.288 Y93.971 E24.5729
G1 X99.855 Y93.267 E24.61499
G1 X100.481 Y92.617 E24.65701
G1 F2700 E19.65701
;MESH:caixa_35x20x15_1.5_0.6.stl
G0 F6000 X107.914 Y99.335
G0 X107.914 Y100.414
G0 X108.1 Y134.4
;TYPE:WALL-INNER
G1 F2700 E24.65701
G1 F1200 X108.1 Y100.6 E26.23088
G1 X126.9 Y100.6 E27.10629
G1 X126.9 Y134.4 E28.68016
G1 X108.1 Y134.4 E29.55556
G0 F6000 X107.7 Y134.8
;TYPE:WALL-OUTER
G1 F1200 X107.7 Y100.2 E31.16669
G1 X127.3 Y100.2 E32.07934
G1 X127.3 Y134.8 E33.69046
G1 X107.7 Y134.8 E34.60312
G0 F6000 X107.97 Y134.53
G0 X108.21 Y134.01
G0 X108.49 Y134.01
;TYPE:SKIN
G1 F1200 X108.49 Y100.99 E36.14067
G1 X126.51 Y100.99 E36.97976
G1 X126.51 Y134.01 E38.51731
G1 X108.49 Y134.01 E39.3564
G0 F6000 X108.959 Y133.849
G1 F1200 X108.649 Y133.539 E39.37681
G0 F6000 X108.649 Y132.974
G1 F1200 X109.525 Y133.849 E39.43446
G0 F6000 X110.09 Y133.849
G1 F1200 X108.649 Y132.408 E39.52935
G0 F6000 X108.649 Y131.842
G1 F1200 X110.656 Y133.849 E39.66152
G0 F6000 X111.222 Y133.849
G1 F1200 X108.649 Y131.277 E39.83092
G0 F6000 X108.649 Y130.711
G1 F1200 X111.787 Y133.849 E40.03757
G0 F6000 X112.353 Y133.849
G1 F1200 X108.649 Y130.145 E40.28148
G0 F6000 X108.649 Y129.58
G1 F1200 X112.919 Y133.849 E40.56263
G0 F6000 X113.484 Y133.849
G1 F1200 X108.649 Y129.014 E40.88103
G0 F6000 X108.649 Y128.448
G1 F1200 X114.05 Y133.849 E41.23669
G0 F6000 X114.616 Y133.849
G1 F1200 X108.649 Y127.883 E41.6296
G0 F6000 X108.649 Y127.317
G1 F1200 X115.182 Y133.849 E42.05977
G0 F6000 X115.747 Y133.849
G1 F1200 X108.649 Y126.751 E42.52719
G0 F6000 X108.649 Y126.186
G1 F1200 X116.313 Y133.849 E43.03184
G0 F6000 X116.879 Y133.849
G1 F1200 X108.649 Y125.62 E43.57377
G0 F6000 X108.649 Y125.054
G1 F1200 X117.444 Y133.849 E44.15293
G0 F6000 X118.01 Y133.849
G1 F1200 X108.649 Y124.488 E44.76937
G0 F6000 X108.649 Y123.923
G1 F1200 X118.576 Y133.849 E45.42305
G0 F6000 X119.141 Y133.849
G1 F1200 X108.649 Y123.357 E46.11397
G0 F6000 X108.649 Y122.791
G1 F1200 X119.707 Y133.849 E46.84215
G0 F6000 X120.273 Y133.849
G1 F1200 X108.649 Y122.226 E47.60758
G0 F6000 X108.649 Y121.66
G1 F1200 X120.838 Y133.849 E48.41025
G0 F6000 X121.404 Y133.849
G1 F1200 X108.649 Y121.094 E49.25019
G0 F6000 X108.649 Y120.529
G1 F1200 X121.97 Y133.849 E50.12736
G0 F6000 X122.535 Y133.849
G1 F1200 X108.649 Y119.963 E51.04178
G0 F6000 X108.649 Y119.397
G1 F1200 X123.101 Y133.849 E51.99347
G0 F6000 X123.667 Y133.849
G1 F1200 X108.649 Y118.832 E52.9824
G0 F6000 X108.649 Y118.266
G1 F1200 X124.233 Y133.849 E54.0086
G0 F6000 X124.798 Y133.849
G1 F1200 X108.649 Y117.7 E55.07204
G0 F6000 X108.649 Y117.135
G1 F1200 X125.364 Y133.849 E56.17272
G0 F6000 X125.93 Y133.849
G1 F1200 X108.649 Y116.569 E57.31067
G0 F6000 X108.649 Y116.003
G1 F1200 X126.35 Y133.703 E58.47627
G0 F6000 X126.35 Y133.138
G1 F1200 X108.649 Y115.438 E59.64188
G0 F6000 X108.649 Y114.872
G1 F1200 X126.35 Y132.572 E60.80749
G0 F6000 X126.35 Y132.006
G1 F1200 X108.649 Y114.306 E61.9731
G0 F6000 X108.649 Y113.74
G1 F1200 X126.35 Y131.441 E63.13874
G0 F6000 X126.35 Y130.875
G1 F1200 X108.649 Y113.175 E64.30435
G0 F6000 X108.649 Y112.609
G1 F1200 X126.35 Y130.309 E65.46996
G0 F6000 X126.35 Y129.744
G1 F1200 X108.649 Y112.043 E66.6356
G0 F6000 X108.649 Y111.478
G1 F1200 X126.35 Y129.178 E67.80121
G0 F6000 X126.35 Y128.612
G1 F1200 X108.649 Y110.912 E68.96681
G0 F6000 X108.649 Y110.346
G1 F1200 X126.35 Y128.047 E70.13245
G0 F6000 X126.35 Y127.481
G1 F1200 X108.649 Y109.781 E71.29806
G0 F6000 X108.649 Y109.215
G1 F1200 X126.35 Y126.915 E72.46367
G0 F6000 X126.35 Y126.35
G1 F1200 X108.649 Y108.649 E73.62931
G0 F6000 X108.649 Y108.084
G1 F1200 X126.35 Y125.784 E74.79492
G0 F6000 X126.35 Y125.218
G1 F1200 X108.649 Y107.518 E75.96053
G0 F6000 X108.649 Y106.952
G1 F1200 X126.35 Y124.653 E77.12617
G0 F6000 X126.35 Y124.087
G1 F1200 X108.649 Y106.387 E78.29178
G0 F6000 X108.649 Y105.821
G1 F1200 X126.35 Y123.521 E79.45739
G0 F6000 X126.35 Y122.955
G1 F1200 X108.649 Y105.255 E80.62299
G0 F6000 X108.649 Y104.689
G1 F1200 X126.35 Y122.39 E81.78863
G0 F6000 X126.35 Y121.824
G1 F1200 X108.649 Y104.124 E82.95424
G0 F6000 X108.649 Y103.558
G1 F1200 X126.35 Y121.258 E84.11985
G0 F6000 X126.35 Y120.693
G1 F1200 X108.649 Y102.992 E85.28549
G0 F6000 X108.649 Y102.427
G1 F1200 X126.35 Y120.127 E86.4511
G0 F6000 X126.35 Y119.561
G1 F1200 X108.649 Y101.861 E87.61671
G0 F6000 X108.649 Y101.295
G1 F1200 X126.35 Y118.996 E88.78235
G0 F6000 X126.35 Y118.43
G1 F1200 X109.069 Y101.15 E89.9203
G0 F6000 X109.635 Y101.15
G1 F1200 X126.35 Y117.864 E91.02098
G0 F6000 X126.35 Y117.299
G1 F1200 X110.201 Y101.15 E92.08442
G0 F6000 X110.766 Y101.15
G1 F1200 X126.35 Y116.733 E93.11062
G0 F6000 X126.35 Y116.167
G1 F1200 X111.332 Y101.15 E94.09955
G0 F6000 X111.898 Y101.15
G1 F1200 X126.35 Y115.602 E95.05123
G0 F6000 X126.35 Y115.036
G1 F1200 X112.463 Y101.15 E95.96568
G0 F6000 X113.029 Y101.15
G1 F1200 X126.35 Y114.47 E96.84286
G0 F6000 X126.35 Y113.905
G1 F1200 X113.595 Y101.15 E97.6828
G0 F6000 X114.16 Y101.15
G1 F1200 X126.35 Y113.339 E98.4855
G0 F6000 X126.35 Y112.773
G1 F1200 X114.726 Y101.15 E99.25093
G0 F6000 X115.292 Y101.15
G1 F1200 X126.35 Y112.207 E99.97908
G0 F6000 X126.35 Y111.642
G1 F1200 X115.858 Y101.15 E100.67
G0 F6000 X116.423 Y101.15
G1 F1200 X126.35 Y111.076 E101.32368
G0 F6000 X126.35 Y110.51
G1 F1200 X116.989 Y101.15 E101.94008
G0 F6000 X117.555 Y101.15
G1 F1200 X126.35 Y109.945 E102.51925
G0 F6000 X126.35 Y109.379
G1 F1200 X118.12 Y101.15 E103.06117
G0 F6000 X118.686 Y101.15
G1 F1200 X126.35 Y108.813 E103.56583
G0 F6000 X126.35 Y108.248
G1 F1200 X119.252 Y101.15 E104.03324
G0 F6000 X119.817 Y101.15
G1 F1200 X126.35 Y107.682 E104.46342
G0 F6000 X126.35 Y107.116
G1 F1200 X120.383 Y101.15 E104.85632
G0 F6000 X120.949 Y101.15
G1 F1200 X126.35 Y106.551 E105.21199
G0 F6000 X126.35 Y105.985
G1 F1200 X121.514 Y101.15 E105.53041
G0 F6000 X122.08 Y101.15
G1 F1200 X126.35 Y105.419 E105.81157
G0 F6000 X126.35 Y104.854
G1 F1200 X122.646 Y101.15 E106.05548
G0 F6000 X123.211 Y101.15
G1 F1200 X126.35 Y104.288 E106.26216
G0 F6000 X126.35 Y103.722
G1 F1200 X123.777 Y101.15 E106.43156
G0 F6000 X124.343 Y101.15
G1 F1200 X126.35 Y103.156 E106.56369
G0 F6000 X126.35 Y102.591
G1 F1200 X124.908 Y101.15 E106.65862
G0 F6000 X125.474 Y101.15
G1 F1200 X126.35 Y102.025 E106.71627
G0 F6000 X126.35 Y101.459
G1 F1200 X126.04 Y101.15 E106.73665
G0 F6000 X126.04 Y100.8
G1 F2700 E101.73665
;MESH:NONMESH
G0 F300 X126.04 Y100.8 Z0.56
G0 F6000 X126.04 Y100.71
G0 X108.282 Y100.782
G0 X108.1 Y134.4
;TIME_ELAPSED:128.059304
;LAYER:1
M140 S50
M106 S85
;TYPE:WALL-INNER
;MESH:caixa_35x20x15_1.5_0.6.stl
G1 F2700 E106.73665
G1 F1350 X108.1 Y100.6 E108.31052
G1 X126.9 Y100.6 E109.18593
G1 X126.9 Y134.4 E110.7598
G1 X108.1 Y134.4 E111.63521
G0 F7500 X107.7 Y134.8
;TYPE:WALL-OUTER
G1 F1350 X107.7 Y100.2 E113.24633
G1 X127.3 Y100.2 E114.15898
G1 X127.3 Y134.8 E115.77011
G1 X107.7 Y134.8 E116.68276
G0 F7500 X107.97 Y134.53
G0 X108.21 Y134.01
G0 X108.49 Y134.01
;TYPE:SKIN
G1 F1350 X108.49 Y100.99 E118.22031
G1 X126.51 Y100.99 E119.0594
G1 X126.51 Y134.01 E120.59695
G1 X108.49 Y134.01 E121.43604
G0 F7500 X108.21 Y134.01
G0 X108.282 Y134.218
G0 X126.718 Y134.218
G0 X126.79 Y133.3
G0 X126.349 Y133.3
G1 F1350 X125.799 Y133.849 E121.47222
G0 F7500 X125.234 Y133.849
G1 F1350 X126.349 Y132.734 E121.54565
G0 F7500 X126.349 Y132.168
G1 F1350 X124.668 Y133.849 E121.65634
G0 F7500 X124.102 Y133.849
G1 F1350 X126.349 Y131.603 E121.80428
G0 F7500 X126.349 Y131.037
G1 F1350 X123.537 Y133.849 E121.98945
G0 F7500 X122.971 Y133.849
G1 F1350 X126.349 Y130.471 E122.2119
G0 F7500 X126.349 Y129.906
G1 F1350 X122.405 Y133.849 E122.47159
G0 F7500 X121.84 Y133.849
G1 F1350 X126.349 Y129.34 E122.76851
G0 F7500 X126.349 Y128.774
G1 F1350 X121.274 Y133.849 E123.10271
G0 F7500 X120.708 Y133.849
G1 F1350 X126.349 Y128.209 E123.47415
G0 F7500 X126.349 Y127.643
G1 F1350 X120.143 Y133.849 E123.88282
G0 F7500 X119.577 Y133.849
