;FLAVOR:Marlin
;TIME:1985
;Filament used: 2.03862m
;Layer height: 0.28
;MINX:76.5
;MINY:91
;MINZ:0.28
;MAXX:158.5
;MAXY:144
;MAXZ:14.84
;Generated with Cura_SteamEngine 4.5.0
M140 S50
M105
M190 S50
M104 S200
M105
M109 S200
M82 ;absolute extrusion mode
; Ender 3 Custom Start G-code
G92 E0 ; Reset Extruder
G28 ; Home all axes
G1 Z2.0 F3000 ; Move Z Axis up little to prevent scratching of Heat Bed
G1 X0.1 Y20 Z0.3 F5000.0 ; Move to start position
G1 X0.1 Y200.0 Z0.3 F1500.0 E15 ; Draw the first line
G1 X0.4 Y200.0 Z0.3 F5000.0 ; Move to side a little
G1 X0.4 Y20 Z0.3 F1500.0 E30 ; Draw the second line
G92 E0 ; Reset Extruder
G1 Z2.0 F3000 ; Move Z Axis up little to prevent scratching of Heat Bed
G1 X5 Y20 Z0.3 F5000.0 ; Move over to prevent blob squish
G92 E0
G92 E0
G1 F2700 E-5
;LAYER_COUNT:53
;LAYER:0
M107
G0 F6000 X80.386 Y93.627 Z0.28
;TYPE:SKIRT
G1 F2700 E0
G1 F1200 X81.126 Y93.051 E0.04367
G1 X81.912 Y92.539 E0.08735
G1 X82.739 Y92.097 E0.13101
G1 X83.601 Y91.727 E0.17469
G1 X84.491 Y91.431 E0.21836
G1 X85.403 Y91.213 E0.26203
G1 X86.33 Y91.072 E0.30569
G1 X87.201 Y91.013 E0.34634
G1 X87.83 Y91 E0.37563
G1 X146.793 Y91 E3.1212
G1 X146.951 Y91.001 E3.12855
G1 X147.649 Y91.011 E3.16106
G1 X148.585 Y91.065 E3.20472
G1 X149.513 Y91.197 E3.24836
G1 X150.427 Y91.409 E3.29205
G1 X151.319 Y91.698 E3.33571
G1 X152.184 Y92.061 E3.37939
G1 X153.014 Y92.497 E3.42305
G1 X153.805 Y93.002 E3.46675
G1 X154.549 Y93.573 E3.51042
G1 X155.242 Y94.205 E3.55409
G1 X155.879 Y94.893 E3.59775
G1 X156.454 Y95.634 E3.64142
G1 X156.965 Y96.42 E3.68508
G1 X157.407 Y97.248 E3.72878
G1 X157.776 Y98.11 E3.77244
G1 X158.071 Y99 E3.8161
G1 X158.289 Y99.912 E3.85977
G1 X158.429 Y100.84 E3.90347
G1 X158.487 Y101.701 E3.94365
G1 X158.5 Y102.33 E3.97295
G1 X158.499 Y132.4 E5.37313
G1 X158.49 Y133.127 E5.40699
G1 X158.439 Y134.064 E5.45068
G1 X158.307 Y134.992 E5.49433
G1 X158.098 Y135.906 E5.53799
G1 X157.811 Y136.799 E5.58166
G1 X157.449 Y137.665 E5.62537
G1 X157.015 Y138.496 E5.66902
G1 X156.511 Y139.287 E5.7127
G1 X155.942 Y140.032 E5.75635
G1 X155.311 Y140.727 E5.80006
G1 X154.624 Y141.365 E5.84371
G1 X153.885 Y141.942 E5.88737
G1 X153.099 Y142.454 E5.93105
G1 X152.273 Y142.897 E5.97469
G1 X151.411 Y143.269 E6.01841
G1 X150.522 Y143.565 E6.06204
G1 X149.61 Y143.785 E6.10573
G1 X148.683 Y143.926 E6.14939
G1 X147.799 Y143.987 E6.19065
G1 X147.17 Y144 E6.21994
G1 X88.207 Y144 E8.96551
G1 X87.367 Y143.99 E9.00462
G1 X86.431 Y143.938 E9.04828
G1 X85.502 Y143.806 E9.09197
G1 X84.588 Y143.596 E9.13564
G1 X83.695 Y143.309 E9.17931
G1 X82.83 Y142.946 E9.22299
G1 X81.999 Y142.512 E9.26665
G1 X81.208 Y142.008 E9.31032
G1 X80.463 Y141.438 E9.354
G1 X79.769 Y140.807 E9.39768
G1 X79.132 Y140.12 E9.4413
G1 X78.555 Y139.38 E9.485
G1 X78.043 Y138.594 E9.52868
G1 X77.6 Y137.767 E9.57236
G1 X77.229 Y136.906 E9.61602
G1 X76.933 Y136.016 E9.65969
G1 X76.714 Y135.104 E9.70336
G1 X76.573 Y134.177 E9.74703
G1 X76.513 Y133.288 E9.78852
G1 X76.5 Y132.658 E9.81786
G1 X76.501 Y102.525 E11.22098
G1 X76.51 Y101.86 E11.25194
G1 X76.563 Y100.924 E11.2956
G1 X76.695 Y99.995 E11.33929
G1 X76.906 Y99.081 E11.38297
G1 X77.194 Y98.189 E11.42662
G1 X77.557 Y97.324 E11.4703
G1 X77.992 Y96.493 E11.51397
G1 X78.496 Y95.703 E11.55761
G1 X79.066 Y94.958 E11.60129
G1 X79.698 Y94.264 E11.64499
G1 X80.386 Y93.627 E11.68865
G0 F6000 X80.774 Y93.823
G1 F1200 X81.51 Y93.27 E11.73152
G1 X82.291 Y92.782 E11.7744
G1 X83.111 Y92.364 E11.81726
G1 X83.965 Y92.019 E11.86015
G1 X84.845 Y91.749 E11.90301
G1 X85.745 Y91.557 E11.94586
G1 X86.659 Y91.443 E11.98875
G1 X87.212 Y91.413 E12.01454
G1 X87.83 Y91.4 E12.04332
G1 X146.793 Y91.4 E14.78888
G1 X146.945 Y91.401 E14.79596
G1 X147.643 Y91.411 E14.82847
G1 X148.562 Y91.464 E14.87133
G1 X149.473 Y91.597 E14.9142
G1 X150.369 Y91.808 E14.95706
G1 X151.243 Y92.096 E14.99991
G1 X152.09 Y92.459 E15.04282
G1 X152.901 Y92.894 E15.08568
G1 X153.671 Y93.398 E15.12853
G1 X154.395 Y93.967 E15.17141
G1 X155.067 Y94.597 E15.2143
G1 X155.682 Y95.282 E15.25716
G1 X156.235 Y96.018 E15.30003
G1 X156.722 Y96.799 E15.34289
G1 X157.139 Y97.62 E15.38577
G1 X157.484 Y98.474 E15.42865
G1 X157.753 Y99.354 E15.4715
G1 X157.945 Y100.255 E15.5144
G1 X158.058 Y101.168 E15.55724
G1 X158.087 Y101.712 E15.5826
G1 X158.1 Y102.33 E15.61139
G1 X158.099 Y132.395 E17.01134
G1 X158.09 Y133.122 E17.04519
G1 X158.039 Y134.041 E17.08805
G1 X157.908 Y134.953 E17.13095
G1 X157.698 Y135.849 E17.17381
G1 X157.412 Y136.724 E17.21667
G1 X157.051 Y137.571 E17.25954
G1 X156.617 Y138.383 E17.30241
G1 X156.115 Y139.155 E17.34529
G1 X155.547 Y139.88 E17.38818
G1 X154.919 Y140.553 E17.43104
G1 X154.235 Y141.169 E17.4739
G1 X153.5 Y141.723 E17.51676
G1 X152.72 Y142.212 E17.55963
G1 X151.9 Y142.631 E17.60251
G1 X151.047 Y142.977 E17.64537
G1 X150.167 Y143.248 E17.68825
G1 X149.267 Y143.441 E17.73111
G1 X148.353 Y143.556 E17.774
G1 X147.788 Y143.587 E17.80035
G1 X147.17 Y143.6 E17.82913
G1 X88.207 Y143.6 E20.5747
G1 X87.372 Y143.59 E20.61358
G1 X86.453 Y143.538 E20.65644
G1 X85.542 Y143.407 E20.6993
G1 X84.646 Y143.197 E20.74215
G1 X83.771 Y142.91 E20.78503
G1 X82.924 Y142.548 E20.82792
G1 X82.112 Y142.114 E20.87079
G1 X81.341 Y141.612 E20.91363
G1 X80.616 Y141.044 E20.95652
G1 X79.943 Y140.415 E20.99941
G1 X79.328 Y139.731 E21.04224
G1 X78.774 Y138.996 E21.0851
G1 X78.286 Y138.215 E21.12798
G1 X77.867 Y137.395 E21.17086
G1 X77.521 Y136.542 E21.21372
G1 X77.251 Y135.662 E21.25659
G1 X77.058 Y134.761 E21.29949
G1 X76.944 Y133.848 E21.34234
G1 X76.913 Y133.277 E21.36896
G1 X76.9 Y132.658 E21.39779
G1 X76.901 Y102.531 E22.80063
G1 X76.91 Y101.866 E22.8316
G1 X76.962 Y100.946 E22.87451
G1 X77.094 Y100.035 E22.91737
G1 X77.305 Y99.139 E22.96023
G1 X77.592 Y98.264 E23.00311
G1 X77.955 Y97.418 E23.04598
G1 X78.389 Y96.606 E23.08885
G1 X78.892 Y95.835 E23.13172
G1 X79.461 Y95.111 E23.17459
G1 X80.089 Y94.439 E23.21742
G1 X80.774 Y93.823 E23.26032
G0 F6000 X81.162 Y94.024
G1 F1200 X81.894 Y93.494 E23.3024
G1 X82.669 Y93.031 E23.34444
G1 X83.482 Y92.638 E23.38649
G1 X84.327 Y92.318 E23.42856
G1 X85.196 Y92.075 E23.47058
G1 X86.084 Y91.909 E23.51264
G1 X87.223 Y91.813 E23.56587
G1 X87.83 Y91.8 E23.59414
G1 X146.793 Y91.8 E26.3397
G1 X146.939 Y91.801 E26.3465
G1 X147.637 Y91.811 E26.379
G1 X148.539 Y91.864 E26.42108
G1 X149.432 Y91.996 E26.46311
G1 X150.31 Y92.207 E26.50516
G1 X151.166 Y92.495 E26.54721
G1 X151.993 Y92.857 E26.58925
G1 X152.785 Y93.292 E26.63132
G1 X153.536 Y93.794 E26.67339
G1 X154.239 Y94.361 E26.71544
G1 X154.889 Y94.988 E26.7575
G1 X155.481 Y95.67 E26.79955
G1 X156.011 Y96.401 E26.84159
G1 X156.473 Y97.177 E26.88364
G1 X156.866 Y97.99 E26.92569
G1 X157.184 Y98.835 E26.96773
G1 X157.427 Y99.705 E27.00979
G1 X157.592 Y100.593 E27.05185
G1 X157.687 Y101.723 E27.10465
G1 X157.7 Y102.33 E27.13292
G1 X157.699 Y132.39 E28.53264
G1 X157.69 Y133.117 E28.5665
G1 X157.639 Y134.019 E28.60857
G1 X157.508 Y134.913 E28.65064
G1 X157.299 Y135.791 E28.69267
G1 X157.013 Y136.648 E28.73473
G1 X156.652 Y137.476 E28.77679
G1 X156.22 Y138.268 E28.8188
G1 X155.719 Y139.02 E28.86088
G1 X155.153 Y139.724 E28.90294
G1 X154.528 Y140.375 E28.94496
G1 X153.847 Y140.969 E28.98704
G1 X153.116 Y141.5 E29.02911
G1 X152.342 Y141.964 E29.07113
G1 X151.529 Y142.358 E29.1132
G1 X150.685 Y142.678 E29.15523
G1 X149.815 Y142.923 E29.19732
G1 X148.928 Y143.089 E29.23934
G1 X147.777 Y143.187 E29.29313
G1 X147.17 Y143.2 E29.3214
G1 X88.207 Y143.2 E32.06696
G1 X87.377 Y143.19 E32.10561
G1 X86.476 Y143.139 E32.14763
G1 X85.582 Y143.007 E32.18971
G1 X84.704 Y142.798 E32.23174
G1 X83.847 Y142.511 E32.27382
G1 X83.02 Y142.15 E32.31584
G1 X82.227 Y141.717 E32.35791
G1 X81.476 Y141.216 E32.39995
G1 X80.772 Y140.65 E32.44201
G1 X80.121 Y140.024 E32.48407
G1 X79.528 Y139.343 E32.52611
G1 X78.998 Y138.612 E32.56816
G1 X78.534 Y137.837 E32.61022
G1 X78.14 Y137.024 E32.65229
G1 X77.82 Y136.18 E32.69432
G1 X77.576 Y135.31 E32.73639
G1 X77.41 Y134.422 E32.77845
G1 X77.313 Y133.267 E32.83243
G1 X77.3 Y132.658 E32.86079
G1 X77.301 Y102.536 E34.2634
G1 X77.31 Y101.871 E34.29436
G1 X77.362 Y100.969 E34.33643
G1 X77.494 Y100.076 E34.37847
G1 X77.704 Y99.198 E34.4205
G1 X77.991 Y98.341 E34.46259
G1 X78.353 Y97.514 E34.50462
G1 X78.786 Y96.722 E34.54666
G1 X79.288 Y95.971 E34.58872
G1 X79.855 Y95.267 E34.63081
G1 X80.481 Y94.617 E34.67283
G1 X81.162 Y94.024 E34.71488
G1 F2700 E29.71488
;MESH:caixa_31x60x15_1.5_0.6.stl
G0 F6000 X87.914 Y101.335
G0 X87.914 Y102.414
G0 X88.1 Y132.4
;TYPE:WALL-INNER
G1 F2700 E34.71488
G1 F1200 X88.1 Y102.6 E36.10249
G1 X146.9 Y102.6 E38.84046
G1 X146.9 Y132.4 E40.22808
G1 X88.1 Y132.4 E42.96605
G0 F6000 X87.7 Y132.8
;TYPE:WALL-OUTER
G1 F1200 X87.7 Y102.2 E44.39092
G1 X147.3 Y102.2 E47.16614
G1 X147.3 Y132.8 E48.59101
G1 X87.7 Y132.8 E51.36623
G0 F6000 X87.97 Y132.53
G0 X88.21 Y132.01
G0 X88.49 Y132.01
;TYPE:SKIN
G1 F1200 X88.49 Y102.99 E52.71752
G1 X146.51 Y102.99 E55.41918
G1 X146.51 Y132.01 E56.77047
G1 X88.49 Y132.01 E59.47213
G0 F6000 X88.857 Y131.849
G1 F1200 X88.649 Y131.642 E59.48579
G0 F6000 X88.649 Y131.076
G1 F1200 X89.423 Y131.849 E59.53673
G0 F6000 X89.989 Y131.849
G1 F1200 X88.649 Y130.51 E59.62493
G0 F6000 X88.649 Y129.945
G1 F1200 X90.554 Y131.849 E59.75035
G0 F6000 X91.12 Y131.849
G1 F1200 X88.649 Y129.379 E59.91304
G0 F6000 X88.649 Y128.813
G1 F1200 X91.686 Y131.849 E60.11299
G0 F6000 X92.251 Y131.849
G1 F1200 X88.649 Y128.247 E60.35019
G0 F6000 X88.649 Y127.682
G1 F1200 X92.817 Y131.849 E60.62463
G0 F6000 X93.383 Y131.849
G1 F1200 X88.649 Y127.116 E60.93634
G0 F6000 X88.649 Y126.55
G1 F1200 X93.949 Y131.849 E61.28532
G0 F6000 X94.514 Y131.849
G1 F1200 X88.649 Y125.985 E61.67151
G0 F6000 X88.649 Y125.419
G1 F1200 X95.08 Y131.849 E62.09497
G0 F6000 X95.646 Y131.849
G1 F1200 X88.649 Y124.853 E62.5557
G0 F6000 X88.649 Y124.288
G1 F1200 X96.211 Y131.849 E63.05364
G0 F6000 X96.777 Y131.849
G1 F1200 X88.649 Y123.722 E63.58885
G0 F6000 X88.649 Y123.156
G1 F1200 X97.343 Y131.849 E64.16133
G0 F6000 X97.908 Y131.849
G1 F1200 X88.649 Y122.591 E64.77102
G0 F6000 X88.649 Y122.025
G1 F1200 X98.474 Y131.849 E65.41798
G0 F6000 X99.04 Y131.849
G1 F1200 X88.649 Y121.459 E66.10221
G0 F6000 X88.649 Y120.894
G1 F1200 X99.605 Y131.849 E66.82365
G0 F6000 X100.171 Y131.849
G1 F1200 X88.649 Y120.328 E67.58236
G0 F6000 X88.649 Y119.762
G1 F1200 X100.737 Y131.849 E68.37834
G0 F6000 X101.302 Y131.849
G1 F1200 X88.649 Y119.196 E69.21156
G0 F6000 X88.649 Y118.631
G1 F1200 X101.868 Y131.849 E70.08202
G0 F6000 X102.434 Y131.849
G1 F1200 X88.649 Y118.065 E70.98975
G0 F6000 X88.649 Y117.499
G1 F1200 X103 Y131.849 E71.93476
G0 F6000 X103.565 Y131.849
G1 F1200 X88.649 Y116.934 E72.91697
G0 F6000 X88.649 Y116.368
G1 F1200 X104.131 Y131.849 E73.93645
G0 F6000 X104.697 Y131.849
G1 F1200 X88.649 Y115.802 E74.99321
G0 F6000 X88.649 Y115.237
G1 F1200 X105.262 Y131.849 E76.08717
G0 F6000 X105.828 Y131.849
G1 F1200 X88.649 Y114.671 E77.2184
G0 F6000 X88.649 Y114.105
G1 F1200 X106.394 Y131.849 E78.38691
G0 F6000 X106.959 Y131.849
G1 F1200 X88.649 Y113.54 E79.59262
G0 F6000 X88.649 Y112.974
G1 F1200 X107.525 Y131.849 E80.83561
G0 F6000 X108.091 Y131.849
G1 F1200 X88.649 Y112.408 E82.11586
G0 F6000 X88.649 Y111.843
G1 F1200 X108.656 Y131.849 E83.43332
G0 F6000 X109.222 Y131.849
G1 F1200 X88.649 Y111.277 E84.78806
G0 F6000 X88.649 Y110.711
G1 F1200 X109.788 Y131.849 E86.18006
G0 F6000 X110.353 Y131.849
G1 F1200 X88.649 Y110.146 E87.60928
G0 F6000 X88.649 Y109.58
G1 F1200 X110.919 Y131.849 E89.07576
G0 F6000 X111.485 Y131.849
G1 F1200 X88.649 Y109.014 E90.57952
G0 F6000 X88.649 Y108.448
G1 F1200 X112.05 Y131.849 E92.12051
G0 F6000 X112.616 Y131.849
G1 F1200 X88.649 Y107.883 E93.69875
G0 F6000 X88.649 Y107.317
G1 F1200 X113.182 Y131.849 E95.31426
G0 F6000 X113.748 Y131.849
G1 F1200 X88.649 Y106.751 E96.96703
G0 F6000 X88.649 Y106.186
G1 F1200 X114.313 Y131.849 E98.65702
G0 F6000 X114.879 Y131.849
G1 F1200 X88.649 Y105.62 E100.38428
G0 F6000 X88.649 Y105.054
G1 F1200 X115.445 Y131.849 E102.14881
G0 F6000 X116.01 Y131.849
G1 F1200 X88.649 Y104.489 E103.95054
G0 F6000 X88.649 Y103.923
G1 F1200 X116.576 Y131.849 E105.78955
G0 F6000 X117.142 Y131.849
G1 F1200 X88.649 Y103.357 E107.66583
G0 F6000 X89.007 Y103.149
G1 F1200 X117.707 Y131.849 E109.55577
G0 F6000 X118.273 Y131.849
G1 F1200 X89.573 Y103.149 E111.44572
G0 F6000 X90.139 Y103.149
G1 F1200 X118.839 Y131.849 E113.33566
G0 F6000 X119.404 Y131.849
G1 F1200 X90.704 Y103.149 E115.22561
G0 F6000 X91.27 Y103.149
G1 F1200 X119.97 Y131.849 E117.11555
G0 F6000 X120.536 Y131.849
G1 F1200 X91.836 Y103.149 E119.00549
G0 F6000 X92.401 Y103.149
G1 F1200 X121.101 Y131.849 E120.89544
G0 F6000 X121.667 Y131.849
G1 F1200 X92.967 Y103.149 E122.78538
G0 F6000 X93.533 Y103.149
G1 F1200 X122.233 Y131.849 E124.67533
G0 F6000 X122.798 Y131.849
G1 F1200 X94.098 Y103.149 E126.56527
G0 F6000 X94.664 Y103.149
G1 F1200 X123.364 Y131.849 E128.45521
G0 F6000 X123.93 Y131.849
G1 F1200 X95.23 Y103.149 E130.34516
G0 F6000 X95.795 Y103.149
G1 F1200 X124.496 Y131.849 E132.23513
G0 F6000 X125.061 Y131.849
G1 F1200 X96.361 Y103.149 E134.12508
G0 F6000 X96.927 Y103.149
G1 F1200 X125.627 Y131.849 E136.01502
G0 F6000 X126.193 Y131.849
G1 F1200 X97.493 Y103.149 E137.90497
G0 F6000 X98.058 Y103.149
G1 F1200 X126.758 Y131.849 E139.79491
G0 F6000 X127.324 Y131.849
G1 F1200 X98.624 Y103.149 E141.68485
G0 F6000 X99.19 Y103.149
G1 F1200 X127.89 Y131.849 E143.5748
G0 F6000 X128.455 Y131.849
G1 F1200 X99.755 Y103.149 E145.46474
G0 F6000 X100.321 Y103.149
G1 F1200 X129.021 Y131.849 E147.35469
G0 F6000 X129.587 Y131.849
G1 F1200 X100.887 Y103.149 E149.24463
G0 F6000 X101.452 Y103.149
G1 F1200 X130.152 Y131.849 E151.13457
G0 F6000 X130.718 Y131.849
G1 F1200 X102.018 Y103.149 E153.02452
G0 F6000 X102.584 Y103.149
G1 F1200 X131.284 Y131.849 E154.91446
G0 F6000 X131.849 Y131.849
G1 F1200 X103.149 Y103.149 E156.80441
G0 F6000 X103.715 Y103.149
G1 F1200 X132.415 Y131.849 E158.69435
G0 F6000 X132.981 Y131.849
G1 F1200 X104.281 Y103.149 E160.5843
G0 F6000 X104.846 Y103.149
G1 F1200 X133.547 Y131.849 E162.47427
G0 F6000 X134.112 Y131.849
G1 F1200 X105.412 Y103.149 E164.36422
G0 F6000 X105.978 Y103.149
G1 F1200 X134.678 Y131.849 E166.25416
G0 F6000 X135.244 Y131.849
G1 F1200 X106.544 Y103.149 E168.1441
G0 F6000 X107.109 Y103.149
G1 F1200 X135.809 Y131.849 E170.03405
G0 F6000 X136.375 Y131.849
G1 F1200 X107.675 Y103.149 E171.92399
G0 F6000 X108.241 Y103.149
G1 F1200 X136.941 Y131.849 E173.81394
G0 F6000 X137.506 Y131.849
G1 F1200 X108.806 Y103.149 E175.70388
G0 F6000 X109.372 Y103.149
G1 F1200 X138.072 Y131.849 E177.59382
G0 F6000 X138.638 Y131.849
G1 F1200 X109.938 Y103.149 E179.48377
G0 F6000 X110.503 Y103.149
G1 F1200 X139.203 Y131.849 E181.37371
G0 F6000 X139.769 Y131.849
G1 F1200 X111.069 Y103.149 E183.26366
G0 F6000 X111.635 Y103.149
G1 F1200 X140.335 Y131.849 E185.1536
G0 F6000 X140.9 Y131.849
G1 F1200 X112.2 Y103.149 E187.04354
G0 F6000 X112.766 Y103.149
G1 F1200 X141.466 Y131.849 E188.93349
G0 F6000 X142.032 Y131.849
G1 F1200 X113.332 Y103.149 E190.82343
G0 F6000 X113.897 Y103.149
G1 F1200 X142.597 Y131.849 E192.71338
G0 F6000 X143.163 Y131.849
G1 F1200 X114.463 Y103.149 E194.60332
G0 F6000 X115.029 Y103.149
G1 F1200 X143.729 Y131.849 E196.49326
G0 F6000 X144.295 Y131.849
G1 F1200 X115.594 Y103.149 E198.38324
G0 F6000 X116.16 Y103.149
G1 F1200 X144.86 Y131.849 E200.27319
G0 F6000 X145.426 Y131.849
G1 F1200 X116.726 Y103.149 E202.16313
G0 F6000 X117.292 Y103.149
G1 F1200 X145.992 Y131.849 E204.05307
G0 F6000 X146.349 Y131.642
G1 F1200 X117.857 Y103.149 E205.92935
G0 F6000 X118.423 Y103.149
G1 F1200 X146.349 Y131.076 E207.76836
G0 F6000 X146.349 Y130.51
G1 F1200 X118.989 Y103.149 E209.5701
G0 F6000 X119.554 Y103.149
G1 F1200 X146.349 Y129.945 E211.33463
G0 F6000 X146.349 Y129.379
G1 F1200 X120.12 Y103.149 E213.06188
G0 F6000 X120.686 Y103.149
G1 F1200 X146.349 Y128.813 E214.75187
G0 F6000 X146.349 Y128.247
G1 F1200 X121.251 Y103.149 E216.40461
G0 F6000 X121.817 Y103.149
G1 F1200 X146.349 Y127.682 E218.02012
G0 F6000 X146.349 Y127.116
G1 F1200 X122.383 Y103.149 E219.59836
G0 F6000 X122.948 Y103.149
G1 F1200 X146.349 Y126.55 E221.13935
