;FLAVOR:Marlin
;TIME:7531
;Filament used: 7.33429m
;Layer height: 0.28
;MINX:66.096
;MINY:58.153
;MINZ:0.28
;MAXX:174.993
;MAXY:190.877
;MAXZ:14.84
;Generated with Cura_SteamEngine 4.5.0
M140 S50
M105
M190 S50
M104 S200
M105
M109 S200
M82 ;absolute extrusion mode
; Ender 3 Custom Start G-code
G92 E0 ; Reset Extruder
G28 ; Home all axes
G1 Z2.0 F3000 ; Move Z Axis up little to prevent scratching of Heat Bed
G1 X0.1 Y20 Z0.3 F5000.0 ; Move to start position
G1 X0.1 Y200.0 Z0.3 F1500.0 E15 ; Draw the first line
G1 X0.4 Y200.0 Z0.3 F5000.0 ; Move to side a little
G1 X0.4 Y20 Z0.3 F1500.0 E30 ; Draw the second line
G92 E0 ; Reset Extruder
G1 Z2.0 F3000 ; Move Z Axis up little to prevent scratching of Heat Bed
G1 X5 Y20 Z0.3 F5000.0 ; Move over to prevent blob squish
G92 E0
G92 E0
G1 F2700 E-5
;LAYER_COUNT:53
;LAYER:0
M107
G0 F6000 X78.537 Y62.602 Z0.28
;TYPE:SKIRT
G1 F2700 E0
G1 F1200 X79.128 Y61.874 E0.04366
G1 X79.779 Y61.198 E0.08736
G1 X80.485 Y60.581 E0.13102
G1 X81.241 Y60.026 E0.17469
G1 X82.041 Y59.537 E0.21835
G1 X82.881 Y59.118 E0.26206
G1 X83.753 Y58.773 E0.30573
G1 X84.651 Y58.503 E0.34939
G1 X85.569 Y58.31 E0.39307
G1 X86.499 Y58.196 E0.4367
G1 X87.058 Y58.166 E0.46277
G1 X87.687 Y58.153 E0.49206
G1 X116.807 Y58.154 E1.84801
G1 X117.508 Y58.164 E1.88066
G1 X118.444 Y58.217 E1.92431
G1 X119.373 Y58.35 E1.96801
G1 X120.286 Y58.562 E2.01165
G1 X121.179 Y58.85 E2.05535
G1 X122.043 Y59.214 E2.099
G1 X122.874 Y59.65 E2.1427
G1 X123.664 Y60.155 E2.18636
G1 X124.408 Y60.725 E2.23
G1 X125.101 Y61.357 E2.27367
G1 X125.738 Y62.046 E2.31737
G1 X126.548 Y63.128 E2.3803
G1 X128.092 Y65.481 E2.51135
G1 X129.526 Y67.534 E2.62796
G1 X131.034 Y69.57 E2.74594
G1 X132.579 Y71.537 E2.8624
G1 X134.189 Y73.47 E2.97954
G1 X135.862 Y75.368 E3.09735
G1 X137.578 Y77.207 E3.21448
G1 X139.326 Y78.978 E3.33034
G1 X141.178 Y80.75 E3.4497
G1 X143.014 Y82.41 E3.56495
G1 X144.939 Y84.054 E3.68283
G1 X146.916 Y85.649 E3.80111
G1 X148.901 Y87.158 E3.91721
G1 X150.952 Y88.628 E4.03471
G1 X153.032 Y90.033 E4.15159
G1 X155.181 Y91.395 E4.27006
G1 X157.318 Y92.668 E4.38589
G1 X159.517 Y93.894 E4.50312
G1 X161.774 Y95.072 E4.62167
G1 X164.021 Y96.164 E4.738
G1 X166.312 Y97.197 E4.85502
G1 X167.826 Y97.832 E4.93147
G1 X168.344 Y98.057 E4.95777
G1 X169.188 Y98.467 E5.00146
G1 X169.993 Y98.947 E5.0451
G1 X170.755 Y99.494 E5.08878
G1 X171.467 Y100.104 E5.13244
G1 X172.125 Y100.773 E5.17613
G1 X172.724 Y101.495 E5.21982
G1 X173.258 Y102.266 E5.26349
G1 X173.725 Y103.079 E5.30714
G1 X174.122 Y103.929 E5.35083
G1 X174.444 Y104.81 E5.39451
G1 X174.69 Y105.715 E5.43817
G1 X174.858 Y106.637 E5.48181
G1 X174.915 Y107.126 E5.50474
G1 X174.946 Y107.459 E5.52031
G1 X174.993 Y108.479 E5.56786
G1 X174.992 Y142.6 E7.15667
G1 X174.982 Y143.298 E7.18918
G1 X174.928 Y144.234 E7.23284
G1 X174.796 Y145.162 E7.27648
G1 X174.584 Y146.076 E7.32017
G1 X174.295 Y146.968 E7.36383
G1 X173.932 Y147.833 E7.40751
G1 X173.496 Y148.663 E7.45117
G1 X172.991 Y149.454 E7.49487
G1 X172.42 Y150.198 E7.53854
G1 X171.788 Y150.891 E7.58221
G1 X171.271 Y151.379 E7.61532
G1 X169.326 Y153.1 E7.73625
G1 X167.465 Y154.834 E7.85469
G1 X165.672 Y156.606 E7.97207
G1 X163.954 Y158.401 E8.08777
G1 X162.245 Y160.291 E8.20642
G1 X160.597 Y162.219 E8.32452
G1 X159.051 Y164.139 E8.4393
G1 X157.52 Y166.153 E8.55711
G1 X156.031 Y168.229 E8.67607
G1 X154.64 Y170.288 E8.79177
G1 X153.287 Y172.422 E8.90943
G1 X152.005 Y174.577 E9.02619
G1 X150.776 Y176.779 E9.14361
G1 X149.611 Y179.013 E9.26093
G1 X148.508 Y181.283 E9.37845
G1 X147.466 Y183.59 E9.49632
G1 X147.197 Y184.209 E9.52775
G1 X146.756 Y185.109 E9.57442
G1 X146.248 Y185.954 E9.62033
G1 X145.696 Y186.713 E9.66403
G1 X145.082 Y187.421 E9.70766
G1 X144.409 Y188.075 E9.75136
G1 X143.684 Y188.669 E9.795
G1 X142.91 Y189.199 E9.83869
G1 X142.094 Y189.661 E9.88235
G1 X141.242 Y190.052 E9.926
G1 X140.359 Y190.37 E9.9697
G1 X139.452 Y190.61 E10.01339
G1 X138.529 Y190.773 E10.05703
G1 X137.395 Y190.864 E10.11001
G1 X136.766 Y190.877 E10.1393
G1 X77.803 Y190.877 E12.88487
G1 X76.963 Y190.867 E12.92398
G1 X76.027 Y190.815 E12.96763
G1 X75.098 Y190.683 E13.01133
G1 X74.184 Y190.473 E13.05499
G1 X73.291 Y190.186 E13.09867
G1 X72.426 Y189.823 E13.14235
G1 X71.595 Y189.389 E13.18601
G1 X70.804 Y188.885 E13.22968
G1 X70.059 Y188.315 E13.27336
G1 X69.365 Y187.684 E13.31703
G1 X68.728 Y186.997 E13.36066
G1 X68.151 Y186.257 E13.40435
G1 X67.639 Y185.471 E13.44803
G1 X67.196 Y184.644 E13.49172
G1 X66.825 Y183.783 E13.53537
G1 X66.529 Y182.893 E13.57905
G1 X66.31 Y181.981 E13.62272
G1 X66.169 Y181.054 E13.66638
G1 X66.109 Y180.165 E13.70787
G1 X66.096 Y179.535 E13.73722
G1 X66.097 Y145.426 E15.32547
G1 X66.107 Y144.729 E15.35793
G1 X66.161 Y143.793 E15.40159
G1 X66.238 Y143.19 E15.42989
G1 X66.404 Y142.13 E15.47985
G1 X66.549 Y141.28 E15.52001
G1 X66.906 Y138.771 E15.63801
G1 X67.19 Y136.266 E15.7554
G1 X67.401 Y133.796 E15.87083
G1 X67.541 Y131.302 E15.98715
G1 X67.625 Y127.353 E16.17107
G1 X67.626 Y107.47 E17.09691
G1 X67.636 Y106.764 E17.12979
G1 X67.689 Y105.828 E17.17344
G1 X67.822 Y104.899 E17.21714
G1 X68.034 Y103.986 E17.26078
G1 X68.322 Y103.093 E17.30447
G1 X68.551 Y102.525 E17.33299
G1 X68.982 Y101.537 E17.38318
G1 X69.992 Y99.123 E17.50503
G1 X70.913 Y96.74 E17.62399
G1 X71.734 Y94.409 E17.73907
G1 X72.51 Y91.996 E17.8571
G1 X73.21 Y89.592 E17.97368
G1 X73.846 Y87.155 E18.09096
G1 X74.41 Y84.708 E18.20789
G1 X74.918 Y82.184 E18.32778
G1 X75.333 Y79.757 E18.44243
G1 X75.689 Y77.262 E18.55978
G1 X75.973 Y74.769 E18.67662
G1 X76.189 Y72.242 E18.79472
G1 X76.338 Y69.619 E18.91705
G1 X76.377 Y68.7 E18.95988
G1 X76.456 Y67.766 E19.00353
G1 X76.615 Y66.842 E19.04719
G1 X76.851 Y65.934 E19.09087
G1 X77.164 Y65.05 E19.13454
G1 X77.552 Y64.196 E19.17821
G1 X78.011 Y63.378 E19.22189
G1 X78.537 Y62.602 E19.26554
G0 F6000 X78.929 Y62.746
G1 F1200 X79.518 Y62.038 E19.30843
G1 X80.166 Y61.384 E19.3513
G1 X80.868 Y60.788 E19.39418
G1 X81.619 Y60.256 E19.43703
G1 X82.414 Y59.791 E19.47992
G1 X83.245 Y59.396 E19.52276
G1 X84.108 Y59.075 E19.56564
G1 X84.996 Y58.831 E19.60852
G1 X85.901 Y58.664 E19.65137
G1 X87.069 Y58.566 E19.70595
G1 X87.687 Y58.553 E19.73473
G1 X116.801 Y58.554 E21.0904
G1 X117.502 Y58.564 E21.12305
G1 X118.421 Y58.617 E21.16591
G1 X119.332 Y58.75 E21.20878
G1 X120.228 Y58.961 E21.25164
G1 X121.103 Y59.249 E21.29454
G1 X121.949 Y59.612 E21.3374
G1 X122.76 Y60.047 E21.38026
G1 X123.531 Y60.551 E21.42315
G1 X124.255 Y61.12 E21.46602
G1 X124.927 Y61.749 E21.50888
G1 X125.542 Y62.434 E21.55175
G1 X126.213 Y63.348 E21.60455
G1 X127.746 Y65.685 E21.73469
G1 X129.209 Y67.779 E21.85364
G1 X130.713 Y69.81 E21.97132
G1 X132.256 Y71.773 E22.08758
G1 X133.898 Y73.745 E22.20707
G1 X135.57 Y75.642 E22.32481
G1 X137.283 Y77.478 E22.44174
G1 X139.048 Y79.265 E22.55869
G1 X140.898 Y81.037 E22.67798
G1 X142.75 Y82.71 E22.79419
G1 X144.711 Y84.386 E22.91431
G1 X146.651 Y85.951 E23.03037
G1 X148.648 Y87.469 E23.14718
G1 X150.717 Y88.952 E23.26571
G1 X152.825 Y90.375 E23.38414
G1 X154.957 Y91.727 E23.50169
G1 X157.124 Y93.017 E23.61912
G1 X159.344 Y94.256 E23.73751
G1 X161.593 Y95.429 E23.85562
G1 X163.848 Y96.524 E23.97234
G1 X166.155 Y97.565 E24.0902
G1 X167.667 Y98.199 E24.16654
G1 X168.185 Y98.424 E24.19284
G1 X169.013 Y98.827 E24.23572
G1 X169.802 Y99.3 E24.27855
G1 X170.548 Y99.84 E24.32144
G1 X171.244 Y100.443 E24.36432
G1 X171.885 Y101.104 E24.40719
G1 X172.466 Y101.818 E24.45005
G1 X172.983 Y102.58 E24.49293
G1 X173.432 Y103.384 E24.53581
G1 X173.809 Y104.223 E24.57864
G1 X174.113 Y105.092 E24.62151
G1 X174.339 Y105.985 E24.6644
G1 X174.516 Y107.163 E24.71987
G1 X174.547 Y107.496 E24.73544
G1 X174.593 Y108.479 E24.78127
G1 X174.592 Y142.594 E26.3698
G1 X174.582 Y143.292 E26.40231
G1 X174.529 Y144.211 E26.44517
G1 X174.396 Y145.122 E26.48804
G1 X174.185 Y146.018 E26.53091
G1 X173.897 Y146.892 E26.57376
G1 X173.534 Y147.739 E26.61666
G1 X173.099 Y148.55 E26.65952
G1 X172.595 Y149.32 E26.70237
G1 X172.026 Y150.044 E26.74525
G1 X171.396 Y150.716 E26.78814
G1 X171.006 Y151.08 E26.81298
G1 X169.03 Y152.828 E26.93583
G1 X167.194 Y154.54 E27.05272
G1 X165.403 Y156.31 E27.16997
G1 X163.635 Y158.157 E27.28902
G1 X161.977 Y159.991 E27.40415
G1 X160.284 Y161.971 E27.52545
G1 X158.719 Y163.914 E27.64163
G1 X157.196 Y165.917 E27.75879
G1 X155.719 Y167.977 E27.87682
G1 X154.298 Y170.08 E27.99501
G1 X152.965 Y172.183 E28.11095
G1 X151.646 Y174.399 E28.23103
G1 X150.43 Y176.578 E28.34722
G1 X149.24 Y178.86 E28.46706
G1 X148.155 Y181.093 E28.58266
G1 X147.092 Y183.448 E28.70297
G1 X146.83 Y184.05 E28.73355
G1 X146.405 Y184.917 E28.77851
G1 X145.905 Y185.747 E28.82363
G1 X145.362 Y186.49 E28.86648
G1 X144.756 Y187.183 E28.90934
G1 X144.092 Y187.821 E28.95222
G1 X143.376 Y188.399 E28.99507
G1 X142.612 Y188.913 E29.03795
G1 X141.806 Y189.359 E29.08084
G1 X140.965 Y189.732 E29.12368
G1 X140.094 Y190.032 E29.16657
G1 X139.201 Y190.255 E29.20943
G1 X138.292 Y190.399 E29.25229
G1 X137.384 Y190.464 E29.29468
G1 X136.766 Y190.477 E29.32346
G1 X77.803 Y190.477 E32.06902
G1 X76.968 Y190.467 E32.10791
G1 X76.049 Y190.415 E32.15077
G1 X75.138 Y190.284 E32.19363
G1 X74.242 Y190.074 E32.23648
G1 X73.367 Y189.787 E32.27936
G1 X72.52 Y189.425 E32.32225
G1 X71.708 Y188.991 E32.36512
G1 X70.937 Y188.489 E32.40796
G1 X70.212 Y187.921 E32.45085
G1 X69.539 Y187.292 E32.49374
G1 X68.924 Y186.608 E32.53657
G1 X68.37 Y185.873 E32.57943
G1 X67.882 Y185.092 E32.62231
G1 X67.463 Y184.272 E32.66519
G1 X67.117 Y183.419 E32.70805
G1 X66.847 Y182.539 E32.75091
G1 X66.654 Y181.638 E32.79382
G1 X66.54 Y180.725 E32.83666
G1 X66.509 Y180.154 E32.86329
G1 X66.496 Y179.535 E32.89212
G1 X66.497 Y145.432 E34.4801
G1 X66.507 Y144.735 E34.51256
G1 X66.56 Y143.816 E34.55542
G1 X66.633 Y143.252 E34.5819
G1 X66.799 Y142.198 E34.63159
G1 X66.94 Y141.373 E34.67056
G1 X67.306 Y138.801 E34.79153
G1 X67.584 Y136.344 E34.90667
G1 X67.803 Y133.785 E35.02626
G1 X67.941 Y131.332 E35.14066
G1 X68.025 Y127.362 E35.32556
G1 X68.026 Y107.476 E36.25154
G1 X68.036 Y106.77 E36.28442
G1 X68.089 Y105.851 E36.32728
G1 X68.222 Y104.94 E36.37015
G1 X68.433 Y104.044 E36.41301
G1 X68.721 Y103.169 E36.45591
G1 X68.918 Y102.685 E36.48024
G1 X69.346 Y101.702 E36.53016
G1 X70.376 Y99.242 E36.65434
G1 X71.273 Y96.921 E36.77021
G1 X72.12 Y94.516 E36.88894
G1 X72.886 Y92.135 E37.0054
G1 X73.598 Y89.69 E37.12398
G1 X74.237 Y87.241 E37.24184
G1 X74.806 Y84.771 E37.35986
G1 X75.305 Y82.292 E37.47761
G1 X75.73 Y79.81 E37.59487
G1 X76.084 Y77.328 E37.71161
G1 X76.374 Y74.781 E37.83097
G1 X76.587 Y72.298 E37.94702
G1 X76.736 Y69.659 E38.07009
G1 X76.776 Y68.717 E38.114
G1 X76.855 Y67.8 E38.15685
G1 X77.013 Y66.893 E38.19972
G1 X77.249 Y66.003 E38.2426
G1 X77.561 Y65.137 E38.28546
G1 X77.947 Y64.301 E38.32834
G1 X78.405 Y63.502 E38.37122
G1 X78.929 Y62.746 E38.41405
G0 F6000 X79.321 Y62.892
G1 F1200 X79.907 Y62.205 E38.4561
G1 X80.552 Y61.573 E38.49815
G1 X81.25 Y61 E38.5402
G1 X81.996 Y60.491 E38.58225
G1 X82.784 Y60.05 E38.6243
G1 X83.608 Y59.68 E38.66636
G1 X84.461 Y59.385 E38.70839
G1 X85.338 Y59.166 E38.75048
G1 X86.23 Y59.026 E38.79252
G1 X87.08 Y58.966 E38.8322
G1 X87.687 Y58.953 E38.86047
G1 X116.795 Y58.954 E40.21586
G1 X117.496 Y58.964 E40.2485
G1 X118.398 Y59.017 E40.29058
G1 X119.291 Y59.149 E40.33261
G1 X120.17 Y59.36 E40.3747
G1 X121.026 Y59.648 E40.41676
G1 X121.853 Y60.01 E40.45879
G1 X122.645 Y60.444 E40.50085
G1 X123.395 Y60.947 E40.5429
G1 X124.098 Y61.514 E40.58495
G1 X124.748 Y62.14 E40.62697
G1 X125.341 Y62.822 E40.66906
G1 X125.879 Y63.567 E40.71185
G1 X127.428 Y65.927 E40.84329
G1 X128.875 Y68 E40.96101
G1 X130.394 Y70.049 E41.07978
G1 X131.95 Y72.031 E41.19711
G1 X133.592 Y74.002 E41.31657
G1 X135.261 Y75.895 E41.43408
G1 X137.006 Y77.766 E41.55321
G1 X138.77 Y79.552 E41.6701
G1 X140.618 Y81.322 E41.78925
G1 X142.505 Y83.027 E41.90768
G1 X144.446 Y84.685 E42.02654
G1 X146.403 Y86.265 E42.14366
G1 X148.419 Y87.797 E42.26156
G1 X150.506 Y89.293 E42.38113
G1 X152.592 Y90.701 E42.49832
G1 X154.744 Y92.066 E42.61698
G1 X156.946 Y93.377 E42.73631
G1 X159.143 Y94.602 E42.85344
G1 X161.412 Y95.786 E42.97262
G1 X163.658 Y96.877 E43.08889
G1 X166.003 Y97.935 E43.20868
G1 X167.508 Y98.565 E43.28465
G1 X168.026 Y98.79 E43.31095
G1 X168.837 Y99.187 E43.35299
G1 X169.611 Y99.653 E43.39506
G1 X170.34 Y100.186 E43.43711
G1 X171.019 Y100.781 E43.47915
G1 X171.643 Y101.434 E43.52121
G1 X172.206 Y102.14 E43.56325
G1 X172.705 Y102.893 E43.60532
G1 X173.136 Y103.687 E43.64739
G1 X173.494 Y104.516 E43.68943
G1 X173.778 Y105.373 E43.73147
G1 X173.985 Y106.252 E43.77352
G1 X174.118 Y107.201 E43.81814
G1 X174.149 Y107.534 E43.83372
G1 X174.193 Y108.479 E43.87777
G1 X174.192 Y142.588 E45.46603
G1 X174.182 Y143.286 E45.49853
G1 X174.129 Y144.188 E45.5406
G1 X173.997 Y145.081 E45.58264
G1 X173.786 Y145.959 E45.62468
G1 X173.498 Y146.815 E45.66674
G1 X173.136 Y147.642 E45.70878
G1 X172.701 Y148.434 E45.75085
G1 X172.199 Y149.185 E45.79291
G1 X171.632 Y149.888 E45.83497
G1 X170.741 Y150.78 E45.89368
G1 X168.775 Y152.519 E46.01589
G1 X166.924 Y154.245 E46.13374
G1 X165.098 Y156.049 E46.25326
G1 X163.367 Y157.858 E46.36985
G1 X161.659 Y159.746 E46.4884
G1 X159.967 Y161.726 E46.60968
G1 X158.422 Y163.644 E46.72436
G1 X156.868 Y165.688 E46.84392
G1 X155.378 Y167.766 E46.96298
G1 X153.988 Y169.824 E47.07862
G1 X152.601 Y172.011 E47.19921
G1 X151.311 Y174.178 E47.31664
G1 X150.069 Y176.404 E47.43533
G1 X148.883 Y178.679 E47.5548
G1 X147.795 Y180.919 E47.67076
G1 X146.72 Y183.299 E47.79236
G1 X146.463 Y183.89 E47.82237
G1 X146.054 Y184.725 E47.86566
G1 X145.563 Y185.539 E47.90993
G1 X145.028 Y186.267 E47.952
G1 X144.431 Y186.945 E47.99406
G1 X143.776 Y187.567 E48.03612
G1 X143.069 Y188.128 E48.07815
G1 X142.315 Y188.625 E48.1202
G1 X141.52 Y189.053 E48.16224
G1 X140.69 Y189.41 E48.20431
G1 X139.832 Y189.691 E48.24635
G1 X138.952 Y189.896 E48.28842
G1 X138.058 Y190.021 E48.33046
G1 X137.373 Y190.064 E48.36242
G1 X136.766 Y190.077 E48.39069
G1 X77.803 Y190.077 E51.13625
G1 X76.973 Y190.067 E51.1749
G1 X76.072 Y190.016 E51.21693
G1 X75.178 Y189.884 E51.259
G1 X74.3 Y189.675 E51.30103
G1 X73.443 Y189.388 E51.34311
G1 X72.616 Y189.027 E51.38513
G1 X71.823 Y188.594 E51.4272
G1 X71.072 Y188.093 E51.46924
G1 X70.368 Y187.527 E51.5113
G1 X69.717 Y186.901 E51.55336
G1 X69.124 Y186.22 E51.5954
G1 X68.594 Y185.489 E51.63745
G1 X68.13 Y184.714 E51.67951
G1 X67.736 Y183.901 E51.72158
G1 X67.416 Y183.057 E51.76361
G1 X67.172 Y182.187 E51.80568
G1 X67.006 Y181.299 E51.84775
G1 X66.909 Y180.144 E51.90172
G1 X66.896 Y179.535 E51.93008
G1 X66.897 Y145.438 E53.51778
G1 X66.907 Y144.741 E53.55024
G1 X66.96 Y143.839 E53.59231
G1 X67.028 Y143.313 E53.61701
G1 X67.193 Y142.265 E53.66641
G1 X67.343 Y141.385 E53.70798
G1 X67.696 Y138.906 E53.82457
G1 X67.986 Y136.351 E53.94431
G1 X68.2 Y133.84 E54.06166
G1 X68.341 Y131.336 E54.17844
G1 X68.425 Y127.37 E54.36315
G1 X68.426 Y107.482 E55.28922
G1 X68.436 Y106.776 E55.3221
G1 X68.489 Y105.874 E55.36417
G1 X68.621 Y104.981 E55.4062
G1 X68.832 Y104.102 E55.4483
G1 X69.284 Y102.845 E55.5105
G1 X69.724 Y101.834 E55.56184
G1 X70.746 Y99.392 E55.68511
G1 X71.659 Y97.032 E55.80293
G1 X72.492 Y94.667 E55.91969
G1 X73.268 Y92.254 E56.03772
G1 X73.989 Y89.776 E56.15789
G1 X74.628 Y87.327 E56.27574
G1 X75.194 Y84.868 E56.39324
G1 X75.697 Y82.373 E56.51175
G1 X76.127 Y79.856 E56.63065
G1 X76.483 Y77.363 E56.74791
G1 X76.768 Y74.859 E56.86526
G1 X76.986 Y72.319 E56.98397
G1 X77.138 Y69.631 E57.10934
G1 X77.176 Y68.734 E57.15114
G1 X77.254 Y67.834 E57.19321
G1 X77.411 Y66.945 E57.23524
G1 X77.646 Y66.073 E57.27729
G1 X77.957 Y65.225 E57.31935
G1 X78.342 Y64.408 E57.36141
G1 X78.798 Y63.629 E57.40344
G1 X79.321 Y62.892 E57.44552
G1 F2700 E52.44552
;MESH:caixa_35x30x15_1.5_0.6.stl
G0 F6000 X86.692 Y69.573
G0 X87.777 Y69.573
G0 X88.139 Y103.371
G0 X116.757 Y103.553
;TYPE:WALL-INNER
G1 F2700 E57.44552
G1 F1200 X87.957 Y103.553 E58.78657
G1 X87.957 Y69.753 E60.36044
G1 X116.757 Y69.753 E61.70149
G1 X116.757 Y103.553 E63.27536
G0 F6000 X117.157 Y103.953
;TYPE:WALL-OUTER
G1 F1200 X87.557 Y103.953 E64.65366
G1 X87.557 Y69.353 E66.26478
