;FLAVOR:Marlin
;TIME:1258
;Filament used: 1.27843m
;Layer height: 0.28
;MINX:91.5
;MINY:91
;MINZ:0.28
;MAXX:143.5
;MAXY:144
;MAXZ:14.84
;Generated with Cura_SteamEngine 4.5.0
M140 S50
M105
M190 S50
M104 S200
M105
M109 S200
M82 ;absolute extrusion mode
; Ender 3 Custom Start G-code
G92 E0 ; Reset Extruder
G28 ; Home all axes
G1 Z2.0 F3000 ; Move Z Axis up little to prevent scratching of Heat Bed
G1 X0.1 Y20 Z0.3 F5000.0 ; Move to start position
G1 X0.1 Y200.0 Z0.3 F1500.0 E15 ; Draw the first line
G1 X0.4 Y200.0 Z0.3 F5000.0 ; Move to side a little
G1 X0.4 Y20 Z0.3 F1500.0 E30 ; Draw the second line
G92 E0 ; Reset Extruder
G1 Z2.0 F3000 ; Move Z Axis up little to prevent scratching of Heat Bed
G1 X5 Y20 Z0.3 F5000.0 ; Move over to prevent blob squish
G92 E0
G92 E0
G1 F2700 E-5
;LAYER_COUNT:53
;LAYER:0
M107
G0 F6000 X94.698 Y94.264 Z0.28
;TYPE:SKIRT
G1 F2700 E0
G1 F1200 X95.386 Y93.627 E0.04366
G1 X96.126 Y93.051 E0.08732
G1 X96.912 Y92.539 E0.131
G1 X97.739 Y92.097 E0.17467
G1 X98.601 Y91.727 E0.21835
G1 X99.491 Y91.431 E0.26202
G1 X100.403 Y91.213 E0.30568
G1 X101.33 Y91.072 E0.34935
G1 X102.201 Y91.013 E0.39
G1 X102.83 Y91 E0.41929
G1 X131.951 Y91.001 E1.77529
G1 X132.649 Y91.011 E1.80779
G1 X133.585 Y91.065 E1.85145
G1 X134.513 Y91.197 E1.8951
G1 X135.427 Y91.409 E1.93878
G1 X136.319 Y91.698 E1.98245
G1 X137.184 Y92.061 E2.02613
G1 X138.014 Y92.497 E2.06978
G1 X138.805 Y93.002 E2.11348
G1 X139.549 Y93.573 E2.15715
G1 X140.242 Y94.205 E2.20082
G1 X140.879 Y94.893 E2.24448
G1 X141.454 Y95.634 E2.28816
G1 X141.965 Y96.42 E2.33181
G1 X142.407 Y97.248 E2.37552
G1 X142.776 Y98.11 E2.41918
G1 X143.071 Y99 E2.46284
G1 X143.289 Y99.912 E2.5065
G1 X143.429 Y100.84 E2.5502
G1 X143.487 Y101.701 E2.59038
G1 X143.5 Y102.33 E2.61968
G1 X143.499 Y132.4 E4.01986
G1 X143.49 Y133.127 E4.05372
G1 X143.439 Y134.064 E4.09741
G1 X143.307 Y134.992 E4.14106
G1 X143.098 Y135.906 E4.18472
G1 X142.811 Y136.799 E4.22839
G1 X142.449 Y137.665 E4.2721
G1 X142.015 Y138.496 E4.31575
G1 X141.511 Y139.287 E4.35943
G1 X140.942 Y140.032 E4.40308
G1 X140.311 Y140.727 E4.44679
G1 X139.624 Y141.365 E4.49045
G1 X138.885 Y141.942 E4.5341
G1 X138.099 Y142.454 E4.57778
G1 X137.273 Y142.897 E4.62143
G1 X136.411 Y143.269 E4.66514
G1 X135.522 Y143.565 E4.70877
G1 X134.61 Y143.785 E4.75246
G1 X133.683 Y143.926 E4.79612
G1 X132.799 Y143.987 E4.83738
G1 X132.17 Y144 E4.86668
G1 X103.065 Y143.999 E6.22193
G1 X102.367 Y143.99 E6.25443
G1 X101.431 Y143.938 E6.29808
G1 X100.502 Y143.806 E6.34178
G1 X99.588 Y143.596 E6.38544
G1 X98.695 Y143.309 E6.42912
G1 X97.83 Y142.946 E6.4728
G1 X96.999 Y142.512 E6.51646
G1 X96.208 Y142.008 E6.56013
G1 X95.463 Y141.438 E6.60381
G1 X94.769 Y140.807 E6.64748
G1 X94.132 Y140.12 E6.69111
G1 X93.555 Y139.38 E6.7348
G1 X93.043 Y138.594 E6.77848
G1 X92.6 Y137.767 E6.82217
G1 X92.229 Y136.906 E6.86582
G1 X91.933 Y136.016 E6.9095
G1 X91.714 Y135.104 E6.95317
G1 X91.573 Y134.177 E6.99683
G1 X91.513 Y133.288 E7.03832
G1 X91.5 Y132.658 E7.06766
G1 X91.501 Y102.525 E8.47078
G1 X91.51 Y101.86 E8.50175
G1 X91.563 Y100.924 E8.54541
G1 X91.695 Y99.995 E8.5891
G1 X91.906 Y99.081 E8.63278
G1 X92.194 Y98.189 E8.67642
G1 X92.557 Y97.324 E8.7201
G1 X92.992 Y96.493 E8.76378
G1 X93.496 Y95.703 E8.80741
G1 X94.066 Y94.958 E8.85109
G1 X94.698 Y94.264 E8.8948
G0 F6000 X95.089 Y94.439
G1 F1200 X95.774 Y93.823 E8.9377
G1 X96.51 Y93.27 E8.98056
G1 X97.291 Y92.782 E9.02345
G1 X98.111 Y92.364 E9.0663
G1 X98.965 Y92.019 E9.10919
G1 X99.845 Y91.749 E9.15205
G1 X100.745 Y91.557 E9.19491
G1 X101.659 Y91.443 E9.23779
G1 X102.212 Y91.413 E9.26358
G1 X102.83 Y91.4 E9.29237
G1 X131.945 Y91.401 E10.64808
G1 X132.643 Y91.411 E10.68059
G1 X133.562 Y91.464 E10.72345
G1 X134.473 Y91.597 E10.76632
G1 X135.369 Y91.808 E10.80918
G1 X136.243 Y92.096 E10.85203
G1 X137.09 Y92.459 E10.89494
G1 X137.901 Y92.894 E10.93779
G1 X138.671 Y93.398 E10.98065
G1 X139.395 Y93.967 E11.02352
G1 X140.067 Y94.597 E11.06642
G1 X140.682 Y95.282 E11.10928
G1 X141.235 Y96.018 E11.15215
G1 X141.722 Y96.799 E11.19501
G1 X142.139 Y97.62 E11.23788
G1 X142.484 Y98.474 E11.28077
G1 X142.753 Y99.354 E11.32362
G1 X142.945 Y100.255 E11.36652
G1 X143.058 Y101.168 E11.40935
G1 X143.087 Y101.712 E11.43472
G1 X143.1 Y102.33 E11.4635
G1 X143.099 Y132.395 E12.86346
G1 X143.09 Y133.122 E12.89731
G1 X143.039 Y134.041 E12.94017
G1 X142.908 Y134.953 E12.98307
G1 X142.698 Y135.849 E13.02592
G1 X142.412 Y136.724 E13.06879
G1 X142.051 Y137.571 E13.11166
G1 X141.617 Y138.383 E13.15453
G1 X141.115 Y139.155 E13.19741
G1 X140.547 Y139.88 E13.2403
G1 X139.919 Y140.553 E13.28316
G1 X139.235 Y141.169 E13.32602
G1 X138.5 Y141.723 E13.36888
G1 X137.72 Y142.212 E13.41175
G1 X136.9 Y142.631 E13.45463
G1 X136.047 Y142.977 E13.49749
G1 X135.167 Y143.248 E13.54037
G1 X134.267 Y143.441 E13.58323
G1 X133.353 Y143.556 E13.62612
G1 X132.788 Y143.587 E13.65247
G1 X132.17 Y143.6 E13.68125
G1 X103.07 Y143.599 E15.03627
G1 X102.372 Y143.59 E15.06877
G1 X101.453 Y143.538 E15.11164
G1 X100.542 Y143.407 E15.15449
G1 X99.646 Y143.197 E15.19734
G1 X98.771 Y142.91 E15.24022
G1 X97.924 Y142.548 E15.28311
G1 X97.112 Y142.114 E15.32599
G1 X96.341 Y141.612 E15.36883
G1 X95.616 Y141.044 E15.41171
G1 X94.943 Y140.415 E15.45461
G1 X94.328 Y139.731 E15.49744
G1 X93.774 Y138.996 E15.5403
G1 X93.286 Y138.215 E15.58318
G1 X92.867 Y137.395 E15.62606
G1 X92.521 Y136.542 E15.66892
G1 X92.251 Y135.662 E15.71178
G1 X92.058 Y134.761 E15.75469
G1 X91.944 Y133.848 E15.79753
G1 X91.913 Y133.277 E15.82416
G1 X91.9 Y132.658 E15.85299
G1 X91.901 Y102.531 E17.25583
G1 X91.91 Y101.866 E17.28679
G1 X91.962 Y100.946 E17.3297
G1 X92.094 Y100.035 E17.37256
G1 X92.305 Y99.139 E17.41543
G1 X92.592 Y98.264 E17.45831
G1 X92.955 Y97.418 E17.50117
G1 X93.389 Y96.606 E17.54404
G1 X93.892 Y95.835 E17.58691
G1 X94.461 Y95.111 E17.62979
G1 X95.089 Y94.439 E17.67262
G0 F6000 X95.481 Y94.617
G1 F1200 X96.162 Y94.024 E17.71466
G1 X96.894 Y93.494 E17.75675
G1 X97.669 Y93.031 E17.79878
G1 X98.482 Y92.638 E17.84083
G1 X99.327 Y92.318 E17.8829
G1 X100.196 Y92.075 E17.92492
G1 X101.084 Y91.909 E17.96699
G1 X102.223 Y91.813 E18.02021
G1 X102.83 Y91.8 E18.04848
G1 X131.939 Y91.801 E19.40392
G1 X132.637 Y91.811 E19.43642
G1 X133.539 Y91.864 E19.4785
G1 X134.432 Y91.996 E19.52053
G1 X135.31 Y92.207 E19.56258
G1 X136.166 Y92.495 E19.60463
G1 X136.993 Y92.857 E19.64667
G1 X137.785 Y93.292 E19.68874
G1 X138.536 Y93.794 E19.73081
G1 X139.239 Y94.361 E19.77286
G1 X139.889 Y94.988 E19.81491
G1 X140.481 Y95.67 E19.85697
G1 X141.011 Y96.401 E19.89901
G1 X141.473 Y97.177 E19.94106
G1 X141.866 Y97.99 E19.98311
G1 X142.184 Y98.835 E20.02515
G1 X142.427 Y99.705 E20.06721
G1 X142.592 Y100.593 E20.10927
G1 X142.687 Y101.723 E20.16207
G1 X142.7 Y102.33 E20.19034
G1 X142.699 Y132.39 E21.59006
G1 X142.69 Y133.117 E21.62392
G1 X142.639 Y134.019 E21.66599
G1 X142.508 Y134.913 E21.70806
G1 X142.299 Y135.791 E21.75008
G1 X142.013 Y136.648 E21.79215
G1 X141.652 Y137.476 E21.83421
G1 X141.22 Y138.268 E21.87622
G1 X140.719 Y139.02 E21.9183
G1 X140.153 Y139.724 E21.96036
G1 X139.528 Y140.375 E22.00238
G1 X138.847 Y140.969 E22.04446
G1 X138.116 Y141.5 E22.08653
G1 X137.342 Y141.964 E22.12855
G1 X136.529 Y142.358 E22.17062
G1 X135.685 Y142.678 E22.21265
G1 X134.815 Y142.923 E22.25474
G1 X133.928 Y143.089 E22.29676
G1 X132.777 Y143.187 E22.35054
G1 X132.17 Y143.2 E22.37882
G1 X103.075 Y143.199 E23.7336
G1 X102.377 Y143.19 E23.76611
G1 X101.476 Y143.139 E23.80813
G1 X100.582 Y143.007 E23.85021
G1 X99.704 Y142.798 E23.89223
G1 X98.847 Y142.511 E23.93432
G1 X98.02 Y142.15 E23.97633
G1 X97.227 Y141.717 E24.0184
G1 X96.476 Y141.216 E24.06044
G1 X95.772 Y140.65 E24.1025
G1 X95.121 Y140.024 E24.14456
G1 X94.528 Y139.343 E24.18661
G1 X93.998 Y138.612 E24.22865
G1 X93.534 Y137.837 E24.27071
G1 X93.14 Y137.024 E24.31278
G1 X92.82 Y136.18 E24.35481
G1 X92.576 Y135.31 E24.39688
G1 X92.41 Y134.422 E24.43895
G1 X92.313 Y133.267 E24.49292
G1 X92.3 Y132.658 E24.52128
G1 X92.301 Y102.536 E25.92389
G1 X92.31 Y101.871 E25.95486
G1 X92.362 Y100.969 E25.99693
G1 X92.494 Y100.076 E26.03896
G1 X92.704 Y99.198 E26.081
G1 X92.991 Y98.341 E26.12308
G1 X93.353 Y97.514 E26.16512
G1 X93.786 Y96.722 E26.20715
G1 X94.288 Y95.971 E26.24921
G1 X94.855 Y95.267 E26.2913
G1 X95.481 Y94.617 E26.33332
G1 F2700 E21.33332
;MESH:caixa_31x30x15_1.5_0.6.stl
G0 F6000 X102.914 Y101.335
G0 X102.914 Y102.414
G0 X103.1 Y132.4
;TYPE:WALL-INNER
G1 F2700 E26.33332
G1 F1200 X103.1 Y102.6 E27.72094
G1 X131.9 Y102.6 E29.06198
G1 X131.9 Y132.4 E30.4496
G1 X103.1 Y132.4 E31.79065
G0 F6000 X102.7 Y132.8
;TYPE:WALL-OUTER
G1 F1200 X102.7 Y102.2 E33.21551
G1 X132.3 Y102.2 E34.59381
G1 X132.3 Y132.8 E36.01867
G1 X102.7 Y132.8 E37.39697
G0 F6000 X102.97 Y132.53
G0 X103.21 Y132.01
G0 X103.49 Y132.01
;TYPE:SKIN
G1 F1200 X103.49 Y102.99 E38.74827
G1 X131.51 Y102.99 E40.053
G1 X131.51 Y132.01 E41.40429
G1 X103.49 Y132.01 E42.70902
G0 F6000 X104.13 Y131.849
G1 F1200 X103.649 Y131.367 E42.74072
G0 F6000 X103.649 Y130.802
G1 F1200 X104.696 Y131.849 E42.80967
G0 F6000 X105.262 Y131.849
G1 F1200 X103.649 Y130.236 E42.91589
G0 F6000 X103.649 Y129.67
G1 F1200 X105.827 Y131.849 E43.05935
G0 F6000 X106.393 Y131.849
G1 F1200 X103.649 Y129.104 E43.24008
G0 F6000 X103.649 Y128.539
G1 F1200 X106.959 Y131.849 E43.45805
G0 F6000 X107.524 Y131.849
G1 F1200 X103.649 Y127.973 E43.71326
G0 F6000 X103.649 Y127.407
G1 F1200 X108.09 Y131.849 E44.00574
G0 F6000 X108.656 Y131.849
G1 F1200 X103.649 Y126.842 E44.33546
G0 F6000 X103.649 Y126.276
G1 F1200 X109.221 Y131.849 E44.70241
G0 F6000 X109.787 Y131.849
G1 F1200 X103.649 Y125.71 E45.10664
G0 F6000 X103.649 Y125.145
G1 F1200 X110.353 Y131.849 E45.54811
G0 F6000 X110.918 Y131.849
G1 F1200 X103.649 Y124.579 E46.02682
G0 F6000 X103.649 Y124.013
G1 F1200 X111.484 Y131.849 E46.5428
G0 F6000 X112.05 Y131.849
G1 F1200 X103.649 Y123.448 E47.09602
G0 F6000 X103.649 Y122.882
G1 F1200 X112.615 Y131.849 E47.68648
G0 F6000 X113.181 Y131.849
G1 F1200 X103.649 Y122.316 E48.31422
G0 F6000 X103.649 Y121.751
G1 F1200 X113.747 Y131.849 E48.97919
G0 F6000 X114.313 Y131.849
G1 F1200 X103.649 Y121.185 E49.68143
G0 F6000 X103.649 Y120.619
G1 F1200 X114.878 Y131.849 E50.42091
G0 F6000 X115.444 Y131.849
G1 F1200 X103.649 Y120.054 E51.19763
G0 F6000 X103.649 Y119.488
G1 F1200 X116.01 Y131.849 E52.01162
G0 F6000 X116.575 Y131.849
G1 F1200 X103.649 Y118.922 E52.86286
G0 F6000 X103.649 Y118.356
G1 F1200 X117.141 Y131.849 E53.75136
G0 F6000 X117.707 Y131.849
G1 F1200 X103.649 Y117.791 E54.6771
G0 F6000 X103.649 Y117.225
G1 F1200 X118.272 Y131.849 E55.64009
G0 F6000 X118.838 Y131.849
G1 F1200 X103.649 Y116.659 E56.64034
G0 F6000 X103.649 Y116.094
G1 F1200 X119.404 Y131.849 E57.67783
G0 F6000 X119.969 Y131.849
G1 F1200 X103.649 Y115.528 E58.75257
G0 F6000 X103.649 Y114.962
G1 F1200 X120.535 Y131.849 E59.86457
G0 F6000 X121.101 Y131.849
G1 F1200 X103.649 Y114.397 E61.01382
G0 F6000 X103.649 Y113.831
G1 F1200 X121.666 Y131.849 E62.2003
G0 F6000 X122.232 Y131.849
G1 F1200 X103.649 Y113.265 E63.42405
G0 F6000 X103.649 Y112.7
G1 F1200 X122.798 Y131.849 E64.68505
G0 F6000 X123.363 Y131.849
G1 F1200 X103.649 Y112.134 E65.98328
G0 F6000 X103.649 Y111.568
G1 F1200 X123.929 Y131.849 E67.31879
G0 F6000 X124.495 Y131.849
G1 F1200 X103.649 Y111.003 E68.69153
G0 F6000 X103.649 Y110.437
G1 F1200 X125.061 Y131.849 E70.10155
G0 F6000 X125.626 Y131.849
G1 F1200 X103.649 Y109.871 E71.54881
G0 F6000 X103.649 Y109.305
G1 F1200 X126.192 Y131.849 E73.03333
G0 F6000 X126.758 Y131.849
G1 F1200 X103.649 Y108.74 E74.5551
G0 F6000 X103.649 Y108.174
G1 F1200 X127.323 Y131.849 E76.11411
G0 F6000 X127.889 Y131.849
G1 F1200 X103.649 Y107.608 E77.71038
G0 F6000 X103.649 Y107.043
G1 F1200 X128.455 Y131.849 E79.3439
G0 F6000 X129.02 Y131.849
G1 F1200 X103.649 Y106.477 E81.01466
G0 F6000 X103.649 Y105.911
G1 F1200 X129.586 Y131.849 E82.72269
G0 F6000 X130.152 Y131.849
G1 F1200 X103.649 Y105.346 E84.46796
G0 F6000 X103.649 Y104.78
G1 F1200 X130.717 Y131.849 E86.25046
G0 F6000 X131.283 Y131.849
G1 F1200 X103.649 Y104.214 E88.07024
G0 F6000 X103.649 Y103.649
G1 F1200 X131.35 Y131.35 E89.8944
G0 F6000 X131.35 Y130.784
G1 F1200 X103.715 Y103.149 E91.71421
G0 F6000 X104.281 Y103.149
G1 F1200 X131.35 Y130.218 E93.49675
G0 F6000 X131.35 Y129.652
G1 F1200 X104.846 Y103.149 E95.24205
G0 F6000 X105.412 Y103.149
G1 F1200 X131.35 Y129.087 E96.95011
G0 F6000 X131.35 Y128.521
G1 F1200 X105.978 Y103.149 E98.6209
G0 F6000 X106.544 Y103.149
G1 F1200 X131.35 Y127.955 E100.25442
G0 F6000 X131.35 Y127.39
G1 F1200 X107.109 Y103.149 E101.85073
G0 F6000 X107.675 Y103.149
G1 F1200 X131.35 Y126.824 E103.40977
G0 F6000 X131.35 Y126.258
G1 F1200 X108.241 Y103.149 E104.93154
G0 F6000 X108.806 Y103.149
G1 F1200 X131.35 Y125.693 E106.4161
G0 F6000 X131.35 Y125.127
G1 F1200 X109.372 Y103.149 E107.86339
G0 F6000 X109.938 Y103.149
G1 F1200 X131.35 Y124.561 E109.2734
G0 F6000 X131.35 Y123.996
G1 F1200 X110.503 Y103.149 E110.64622
G0 F6000 X111.069 Y103.149
G1 F1200 X131.35 Y123.43 E111.98175
G0 F6000 X131.35 Y122.864
G1 F1200 X111.635 Y103.149 E113.28002
G0 F6000 X112.2 Y103.149
G1 F1200 X131.35 Y122.299 E114.54108
G0 F6000 X131.35 Y121.733
G1 F1200 X112.766 Y103.149 E115.76487
G0 F6000 X113.332 Y103.149
G1 F1200 X131.35 Y121.167 E116.95138
G0 F6000 X131.35 Y120.602
G1 F1200 X113.897 Y103.149 E118.10069
G0 F6000 X114.463 Y103.149
G1 F1200 X131.35 Y120.036 E119.21273
G0 F6000 X131.35 Y119.47
G1 F1200 X115.029 Y103.149 E120.2875
G0 F6000 X115.594 Y103.149
G1 F1200 X131.35 Y118.904 E121.32502
G0 F6000 X131.35 Y118.339
G1 F1200 X116.16 Y103.149 E122.32531
G0 F6000 X116.726 Y103.149
G1 F1200 X131.35 Y117.773 E123.28833
G0 F6000 X131.35 Y117.207
G1 F1200 X117.292 Y103.149 E124.21407
G0 F6000 X117.857 Y103.149
G1 F1200 X131.35 Y116.642 E125.10261
G0 F6000 X131.35 Y116.076
G1 F1200 X118.423 Y103.149 E125.95387
G0 F6000 X118.989 Y103.149
G1 F1200 X131.35 Y115.51 E126.76787
G0 F6000 X131.35 Y114.945
G1 F1200 X119.554 Y103.149 E127.54465
G0 F6000 X120.12 Y103.149
G1 F1200 X131.35 Y114.379 E128.28417
G0 F6000 X131.35 Y113.813
G1 F1200 X120.686 Y103.149 E128.98641
G0 F6000 X121.251 Y103.149
G1 F1200 X131.35 Y113.248 E129.65145
G0 F6000 X131.35 Y112.682
G1 F1200 X121.817 Y103.149 E130.27921
G0 F6000 X122.383 Y103.149
G1 F1200 X131.35 Y112.116 E130.8697
G0 F6000 X131.35 Y111.551
G1 F1200 X122.948 Y103.149 E131.42299
G0 F6000 X123.514 Y103.149
G1 F1200 X131.35 Y110.985 E131.939
G0 F6000 X131.35 Y110.419
G1 F1200 X124.08 Y103.149 E132.41774
G0 F6000 X124.645 Y103.149
G1 F1200 X131.35 Y109.853 E132.85925
G0 F6000 X131.35 Y109.288
G1 F1200 X125.211 Y103.149 E133.26351
G0 F6000 X125.777 Y103.149
G1 F1200 X131.35 Y108.722 E133.6305
G0 F6000 X131.35 Y108.156
G1 F1200 X126.343 Y103.149 E133.96022
G0 F6000 X126.908 Y103.149
G1 F1200 X131.35 Y107.591 E134.25274
G0 F6000 X131.35 Y107.025
G1 F1200 X127.474 Y103.149 E134.50798
G0 F6000 X128.04 Y103.149
G1 F1200 X131.35 Y106.459 E134.72595
G0 F6000 X131.35 Y105.894
G1 F1200 X128.605 Y103.149 E134.90671
G0 F6000 X129.171 Y103.149
G1 F1200 X131.35 Y105.328 E135.0502
G0 F6000 X131.35 Y104.762
G1 F1200 X129.737 Y103.149 E135.15642
G0 F6000 X130.302 Y103.149
G1 F1200 X131.35 Y104.197 E135.22543
G0 F6000 X131.35 Y103.631
G1 F1200 X130.868 Y103.149 E135.25717
G0 F6000 X130.868 Y102.8
G1 F2700 E130.25717
;MESH:NONMESH
G0 F300 X130.868 Y102.8 Z0.56
G0 F6000 X130.868 Y102.71
G0 X103.282 Y102.782
G0 X103.1 Y132.4
;TIME_ELAPSED:159.415789
;LAYER:1
M140 S50
M106 S85
;TYPE:WALL-INNER
;MESH:caixa_31x30x15_1.5_0.6.stl
G1 F2700 E135.25717
G1 F1350 X103.1 Y102.6 E136.64478
G1 X131.9 Y102.6 E137.98583
G1 X131.9 Y132.4 E139.37345
G1 X103.1 Y132.4 E140.71449
G0 F7500 X102.7 Y132.8
;TYPE:WALL-OUTER
G1 F1350 X102.7 Y102.2 E142.13936
G1 X132.3 Y102.2 E143.51766
G1 X132.3 Y132.8 E144.94252
G1 X102.7 Y132.8 E146.32082
G0 F7500 X102.97 Y132.53
G0 X103.21 Y132.01
G0 X103.49 Y132.01
;TYPE:SKIN
G1 F1350 X103.49 Y102.99 E147.67212
G1 X131.51 Y102.99 E148.97684
G1 X131.51 Y132.01 E150.32814
G1 X103.49 Y132.01 E151.63287
G0 F7500 X103.21 Y132.01
G0 X103.274 Y132.197
G0 X131.194 Y132.29
G0 X131.194 Y131.849
G1 F1350 X131.349 Y131.694 E151.64307
