;FLAVOR:Marlin
;TIME:7057
;Filament used: 6.81923m
;Layer height: 0.28
;MINX:64
;MINY:55
;MINZ:0.28
;MAXX:173.5
;MAXY:192
;MAXZ:14.84
;Generated with Cura_SteamEngine 4.5.0
M140 S50
M105
M190 S50
M104 S200
M105
M109 S200
M82 ;absolute extrusion mode
; Ender 3 Custom Start G-code
G92 E0 ; Reset Extruder
G28 ; Home all axes
G1 Z2.0 F3000 ; Move Z Axis up little to prevent scratching of Heat Bed
G1 X0.1 Y20 Z0.3 F5000.0 ; Move to start position
G1 X0.1 Y200.0 Z0.3 F1500.0 E15 ; Draw the first line
G1 X0.4 Y200.0 Z0.3 F5000.0 ; Move to side a little
G1 X0.4 Y20 Z0.3 F1500.0 E30 ; Draw the second line
G92 E0 ; Reset Extruder
G1 Z2.0 F3000 ; Move Z Axis up little to prevent scratching of Heat Bed
G1 X5 Y20 Z0.3 F5000.0 ; Move over to prevent blob squish
G92 E0
G92 E0
G1 F2700 E-5
;LAYER_COUNT:53
;LAYER:0
M107
G0 F6000 X90.65 Y60.228 Z0.28
;TYPE:SKIRT
G1 F2700 E0
G1 F1200 X91.177 Y59.452 E0.04368
G1 X91.767 Y58.724 E0.08731
G1 X92.418 Y58.048 E0.13101
G1 X93.124 Y57.43 E0.1747
G1 X93.88 Y56.875 E0.21837
G1 X94.68 Y56.386 E0.26203
G1 X95.519 Y55.968 E0.30568
G1 X96.391 Y55.622 E0.34936
G1 X97.289 Y55.351 E0.39304
G1 X98.207 Y55.158 E0.43672
G1 X99.138 Y55.044 E0.4804
G1 X99.667 Y55.015 E0.50507
G1 X99.989 Y55.005 E0.52007
G1 X100.33 Y55 E0.53595
G1 X134.45 Y55.001 E2.12472
G1 X135.151 Y55.011 E2.15736
G1 X136.087 Y55.064 E2.20102
G1 X137.016 Y55.197 E2.24471
G1 X137.929 Y55.409 E2.28836
G1 X138.822 Y55.697 E2.33205
G1 X139.686 Y56.061 E2.37571
G1 X140.517 Y56.497 E2.4194
G1 X141.307 Y57.002 E2.46306
G1 X142.051 Y57.572 E2.5067
G1 X142.744 Y58.204 E2.55038
G1 X143.381 Y58.893 E2.59407
G1 X143.957 Y59.633 E2.63774
G1 X144.468 Y60.42 E2.68143
G1 X144.909 Y61.247 E2.72507
G1 X145.279 Y62.109 E2.76875
G1 X145.648 Y63.272 E2.82557
G1 X145.982 Y64.57 E2.88797
G1 X146.661 Y67.041 E3.0073
G1 X147.389 Y69.424 E3.12332
G1 X148.2 Y71.833 E3.24168
G1 X149.069 Y74.191 E3.3587
G1 X150.013 Y76.547 E3.47688
G1 X151.01 Y78.839 E3.59327
G1 X152.077 Y81.121 E3.71057
G1 X153.206 Y83.363 E3.82746
G1 X154.401 Y85.58 E3.94473
G1 X155.652 Y87.751 E4.0614
G1 X156.981 Y89.913 E4.17958
G1 X158.34 Y91.992 E4.29523
G1 X159.805 Y94.097 E4.41465
G1 X161.295 Y96.116 E4.53149
G1 X162.834 Y98.081 E4.64771
G1 X164.437 Y100.014 E4.76465
G1 X166.114 Y101.924 E4.883
G1 X167.817 Y103.756 E4.99947
G1 X169.75 Y105.716 E5.12765
G1 X170.202 Y106.16 E5.15716
G1 X170.842 Y106.846 E5.20084
G1 X171.421 Y107.583 E5.24448
G1 X171.935 Y108.368 E5.28818
G1 X172.38 Y109.193 E5.33182
G1 X172.754 Y110.054 E5.37553
G1 X173.053 Y110.943 E5.41921
G1 X173.275 Y111.854 E5.46287
G1 X173.418 Y112.781 E5.50654
G1 X173.476 Y113.534 E5.54171
G1 X173.49 Y113.864 E5.55709
G1 X173.5 Y114.33 E5.5788
G1 X173.499 Y144.427 E6.98024
G1 X173.489 Y145.144 E7.01363
G1 X173.436 Y146.081 E7.05733
G1 X173.303 Y147.009 E7.10098
G1 X173.092 Y147.923 E7.14466
G1 X172.804 Y148.815 E7.18831
G1 X172.44 Y149.68 E7.23201
G1 X172.005 Y150.511 E7.27568
G1 X171.373 Y151.479 E7.32951
G1 X171.075 Y151.887 E7.35304
G1 X169.583 Y153.966 E7.47219
G1 X168.144 Y156.095 E7.59185
G1 X166.825 Y158.172 E7.70642
G1 X165.528 Y160.351 E7.8245
G1 X164.286 Y162.572 E7.94299
G1 X163.136 Y164.776 E8.05874
G1 X162.026 Y167.058 E8.17691
G1 X160.993 Y169.344 E8.29372
G1 X160.015 Y171.682 E8.41172
G1 X159.111 Y174.022 E8.52853
G1 X158.272 Y176.404 E8.64613
G1 X157.51 Y178.774 E8.76205
G1 X156.804 Y181.2 E8.8797
G1 X156.146 Y183.732 E9.00152
G1 X155.815 Y184.784 E9.05287
G1 X155.442 Y185.676 E9.09789
G1 X155.007 Y186.507 E9.14157
G1 X154.503 Y187.298 E9.18524
G1 X153.933 Y188.042 E9.22888
G1 X153.301 Y188.736 E9.27259
G1 X152.613 Y189.373 E9.31625
G1 X151.873 Y189.95 E9.35994
G1 X151.087 Y190.461 E9.4036
G1 X150.26 Y190.903 E9.44726
G1 X149.398 Y191.273 E9.49094
G1 X148.508 Y191.569 E9.53461
G1 X147.596 Y191.788 E9.57829
G1 X146.669 Y191.928 E9.62194
G1 X145.799 Y191.987 E9.66255
G1 X145.17 Y192 E9.69184
G1 X86.207 Y192 E12.43741
G1 X85.367 Y191.99 E12.47652
G1 X84.431 Y191.938 E12.52017
G1 X83.502 Y191.806 E12.56387
G1 X82.588 Y191.596 E12.60753
G1 X81.695 Y191.309 E12.65121
G1 X80.83 Y190.946 E12.69489
G1 X79.999 Y190.512 E12.73855
G1 X79.208 Y190.008 E12.78222
G1 X78.463 Y189.438 E12.8259
G1 X77.769 Y188.807 E12.86957
G1 X77.132 Y188.12 E12.9132
G1 X76.555 Y187.38 E12.95689
G1 X76.043 Y186.594 E13.00057
G1 X75.6 Y185.767 E13.04426
G1 X75.229 Y184.906 E13.08791
G1 X74.933 Y184.016 E13.13159
G1 X74.714 Y183.104 E13.17526
G1 X74.58 Y182.237 E13.21611
G1 X74.467 Y181.239 E13.26288
G1 X74.389 Y180.451 E13.29975
G1 X74.066 Y177.937 E13.41778
G1 X73.677 Y175.459 E13.53458
G1 X73.213 Y172.967 E13.65261
G1 X72.693 Y170.554 E13.76755
G1 X72.082 Y168.061 E13.88707
G1 X71.416 Y165.645 E14.00376
G1 X70.687 Y163.263 E14.11976
G1 X69.869 Y160.842 E14.23875
G1 X69 Y158.487 E14.35564
G1 X68.077 Y156.19 E14.47091
G1 X67.051 Y153.831 E14.59069
G1 X65.996 Y151.583 E14.70632
G1 X65.567 Y150.728 E14.75086
G1 X65.126 Y149.825 E14.79766
G1 X64.75 Y148.966 E14.84132
G1 X64.45 Y148.077 E14.88501
G1 X64.226 Y147.167 E14.92865
G1 X64.08 Y146.24 E14.97234
G1 X64.015 Y145.333 E15.01469
G1 X64.005 Y145.005 E15.02997
G1 X64 Y144.67 E15.04557
G1 X64.001 Y114.549 E16.44813
G1 X64.011 Y113.851 E16.48063
G1 X64.065 Y112.915 E16.52429
G1 X64.197 Y111.987 E16.56794
G1 X64.409 Y111.073 E16.61163
G1 X64.698 Y110.181 E16.65529
G1 X65.061 Y109.316 E16.69897
G1 X65.497 Y108.486 E16.74262
G1 X66.002 Y107.695 E16.78632
G1 X66.573 Y106.951 E16.82999
G1 X66.903 Y106.574 E16.85332
G1 X67.235 Y106.212 E16.87619
G1 X68.963 Y104.302 E16.99613
G1 X70.604 Y102.38 E17.11381
G1 X72.193 Y100.41 E17.23166
G1 X73.707 Y98.418 E17.34817
G1 X75.196 Y96.342 E17.46713
G1 X76.583 Y94.289 E17.5825
G1 X77.944 Y92.143 E17.70082
G1 X79.222 Y89.995 E17.81721
G1 X80.451 Y87.793 E17.93463
G1 X81.616 Y85.559 E18.05195
G1 X82.718 Y83.293 E18.16928
G1 X83.75 Y81.006 E18.28611
G1 X84.727 Y78.667 E18.40415
G1 X85.64 Y76.298 E18.52237
G1 X86.461 Y73.965 E18.63753
G1 X87.23 Y71.571 E18.75462
G1 X87.94 Y69.128 E18.87308
G1 X88.571 Y66.699 E18.98994
G1 X89.141 Y64.219 E19.10843
G1 X89.255 Y63.692 E19.13353
G1 X89.491 Y62.785 E19.17717
G1 X89.804 Y61.901 E19.22084
G1 X90.192 Y61.046 E19.26456
G1 X90.65 Y60.228 E19.30821
G0 F6000 X91.026 Y60.381
G1 F1200 X91.548 Y59.623 E19.35107
G1 X92.135 Y58.913 E19.39397
G1 X92.78 Y58.256 E19.43684
G1 X93.48 Y57.659 E19.47968
G1 X94.229 Y57.124 E19.52254
G1 X95.022 Y56.656 E19.56541
G1 X95.853 Y56.258 E19.60832
G1 X96.715 Y55.935 E19.65118
G1 X97.601 Y55.687 E19.69402
G1 X98.506 Y55.517 E19.7369
G1 X99.679 Y55.415 E19.79173
G1 X100.001 Y55.405 E19.80673
G1 X100.33 Y55.4 E19.82205
G1 X134.444 Y55.401 E21.41054
G1 X135.145 Y55.411 E21.44318
G1 X136.064 Y55.464 E21.48605
G1 X136.975 Y55.597 E21.52892
G1 X137.871 Y55.808 E21.57178
G1 X138.746 Y56.096 E21.61467
G1 X139.592 Y56.459 E21.65754
G1 X140.403 Y56.894 E21.70039
G1 X141.174 Y57.398 E21.74328
G1 X141.898 Y57.967 E21.78616
G1 X142.57 Y58.596 E21.82902
G1 X143.185 Y59.281 E21.87189
G1 X143.738 Y60.017 E21.91475
G1 X144.225 Y60.799 E21.95765
G1 X144.642 Y61.619 E22.00049
G1 X144.987 Y62.473 E22.04338
G1 X145.26 Y63.372 E22.08712
G1 X145.574 Y64.595 E22.14592
G1 X146.279 Y67.159 E22.26974
G1 X147.014 Y69.564 E22.38684
G1 X147.828 Y71.982 E22.50564
G1 X148.698 Y74.341 E22.62272
G1 X149.634 Y76.677 E22.7399
G1 X150.626 Y78.961 E22.85585
G1 X151.719 Y81.298 E22.97598
G1 X152.851 Y83.548 E23.09327
G1 X154.054 Y85.778 E23.21125
G1 X155.313 Y87.963 E23.32867
G1 X156.648 Y90.136 E23.44743
G1 X158.021 Y92.234 E23.56418
G1 X159.458 Y94.3 E23.68136
G1 X160.987 Y96.372 E23.80127
G1 X162.513 Y98.321 E23.91653
G1 X164.145 Y100.288 E24.03554
G1 X165.804 Y102.177 E24.15261
G1 X167.538 Y104.043 E24.27122
G1 X169.468 Y105.999 E24.39918
G1 X169.921 Y106.445 E24.42878
G1 X170.549 Y107.119 E24.47167
G1 X171.115 Y107.844 E24.5145
G1 X171.617 Y108.616 E24.55738
G1 X172.05 Y109.429 E24.60027
G1 X172.41 Y110.276 E24.64313
G1 X172.696 Y111.151 E24.68599
G1 X172.905 Y112.048 E24.72888
G1 X173.035 Y112.959 E24.77173
G1 X173.076 Y113.551 E24.79936
G1 X173.09 Y113.881 E24.81474
G1 X173.1 Y114.33 E24.83565
G1 X173.099 Y144.422 E26.23686
G1 X173.089 Y145.139 E26.27025
G1 X173.036 Y146.058 E26.31312
G1 X172.904 Y146.969 E26.35598
G1 X172.693 Y147.865 E26.39884
G1 X172.405 Y148.74 E26.44174
G1 X172.042 Y149.586 E26.4846
G1 X171.608 Y150.397 E26.52743
G1 X171.05 Y151.243 E26.57462
G1 X170.752 Y151.651 E26.59815
G1 X169.242 Y153.755 E26.71874
G1 X167.834 Y155.838 E26.83581
G1 X166.462 Y158 E26.95504
G1 X165.168 Y160.172 E27.07277
G1 X163.948 Y162.356 E27.18926
G1 X162.779 Y164.594 E27.30683
G1 X161.659 Y166.897 E27.42607
G1 X160.636 Y169.161 E27.54176
G1 X159.644 Y171.532 E27.66144
G1 X158.726 Y173.911 E27.78017
G1 X157.9 Y176.254 E27.89585
G1 X157.131 Y178.646 E28.01285
G1 X156.416 Y181.102 E28.13196
G1 X155.759 Y183.631 E28.25363
G1 X155.44 Y184.646 E28.30317
G1 X155.073 Y185.521 E28.34735
G1 X154.644 Y186.336 E28.39024
G1 X154.146 Y187.11 E28.4331
G1 X153.582 Y187.838 E28.47598
G1 X152.957 Y188.514 E28.51885
G1 X152.276 Y189.134 E28.56173
G1 X151.544 Y189.692 E28.60459
G1 X150.766 Y190.184 E28.64745
G1 X149.949 Y190.608 E28.69031
G1 X149.098 Y190.958 E28.73316
G1 X148.219 Y191.234 E28.77606
G1 X147.32 Y191.432 E28.81893
G1 X146.407 Y191.551 E28.8618
G1 X145.788 Y191.587 E28.89067
G1 X145.17 Y191.6 E28.91945
G1 X86.207 Y191.6 E31.66502
G1 X85.372 Y191.59 E31.7039
G1 X84.453 Y191.538 E31.74676
G1 X83.542 Y191.407 E31.78962
G1 X82.646 Y191.197 E31.83247
G1 X81.771 Y190.91 E31.87535
G1 X80.924 Y190.548 E31.91824
G1 X80.112 Y190.114 E31.96111
G1 X79.341 Y189.612 E32.00395
G1 X78.616 Y189.044 E32.04684
G1 X77.943 Y188.415 E32.08973
G1 X77.328 Y187.731 E32.13256
G1 X76.774 Y186.996 E32.17542
G1 X76.286 Y186.215 E32.2183
G1 X75.867 Y185.395 E32.26118
G1 X75.521 Y184.542 E32.30404
G1 X75.251 Y183.662 E32.34691
G1 X75.058 Y182.761 E32.38981
G1 X74.977 Y182.192 E32.41657
G1 X74.865 Y181.199 E32.46311
G1 X74.785 Y180.397 E32.50064
G1 X74.464 Y177.895 E32.61809
G1 X74.066 Y175.361 E32.73753
G1 X73.611 Y172.916 E32.85334
G1 X73.079 Y170.446 E32.97099
G1 X72.476 Y167.989 E33.08879
G1 X71.801 Y165.535 E33.20731
G1 X71.061 Y163.123 E33.32479
G1 X70.252 Y160.723 E33.44272
G1 X69.37 Y158.336 E33.56121
G1 X68.439 Y156.017 E33.67757
G1 X67.428 Y153.693 E33.79558
G1 X66.337 Y151.369 E33.91513
G1 X65.926 Y150.553 E33.95767
G1 X65.485 Y149.65 E34.00447
G1 X65.117 Y148.806 E34.04734
G1 X64.824 Y147.933 E34.09022
G1 X64.608 Y147.038 E34.13309
G1 X64.47 Y146.128 E34.17595
G1 X64.415 Y145.321 E34.21361
G1 X64.4 Y144.67 E34.24393
G1 X64.401 Y114.555 E35.64621
G1 X64.411 Y113.857 E35.67872
G1 X64.464 Y112.938 E35.72158
G1 X64.597 Y112.027 E35.76445
G1 X64.808 Y111.131 E35.80732
G1 X65.096 Y110.257 E35.85017
G1 X65.459 Y109.41 E35.89307
G1 X65.894 Y108.599 E35.93593
G1 X66.398 Y107.829 E35.97878
G1 X67.198 Y106.844 E36.03787
G1 X67.53 Y106.482 E36.06074
G1 X69.28 Y104.547 E36.18222
G1 X70.921 Y102.625 E36.2999
G1 X72.507 Y100.658 E36.41756
G1 X74.031 Y98.654 E36.53479
G1 X75.508 Y96.594 E36.65282
G1 X76.925 Y94.497 E36.77067
G1 X78.267 Y92.381 E36.88734
G1 X79.581 Y90.173 E37.00699
G1 X80.797 Y87.994 E37.12318
G1 X81.987 Y85.712 E37.24302
G1 X83.064 Y83.496 E37.35775
G1 X84.125 Y81.145 E37.47785
G1 X85.098 Y78.817 E37.59534
G1 X86.011 Y76.449 E37.71352
G1 X86.836 Y74.104 E37.82927
G1 X87.621 Y71.657 E37.94893
G1 X88.323 Y69.244 E38.06595
G1 X88.954 Y66.816 E38.18276
G1 X89.545 Y64.243 E38.30569
G1 X89.646 Y63.776 E38.32794
G1 X89.879 Y62.886 E38.37078
G1 X90.188 Y62.019 E38.41364
G1 X90.572 Y61.182 E38.45652
G1 X91.026 Y60.381 E38.49939
G0 F6000 X91.402 Y60.535
G1 F1200 X91.92 Y59.795 E38.54145
G1 X92.501 Y59.104 E38.58349
G1 X93.141 Y58.467 E38.62553
G1 X93.836 Y57.89 E38.6676
G1 X94.578 Y57.375 E38.70965
G1 X95.363 Y56.929 E38.75169
G1 X96.184 Y56.554 E38.79372
G1 X97.036 Y56.253 E38.8358
G1 X97.911 Y56.028 E38.87787
G1 X98.802 Y55.882 E38.91991
G1 X99.691 Y55.815 E38.96142
G1 X100.33 Y55.8 E38.99119
G1 X134.438 Y55.801 E40.5794
G1 X135.139 Y55.811 E40.61204
G1 X136.041 Y55.864 E40.65411
G1 X136.934 Y55.996 E40.69615
G1 X137.813 Y56.207 E40.73824
G1 X138.669 Y56.495 E40.7803
G1 X139.496 Y56.857 E40.82233
G1 X140.288 Y57.291 E40.86438
G1 X141.038 Y57.794 E40.90643
G1 X141.741 Y58.361 E40.94849
G1 X142.391 Y58.987 E40.99051
G1 X142.984 Y59.669 E41.03259
G1 X143.513 Y60.401 E41.07465
G1 X143.976 Y61.176 E41.11668
G1 X144.368 Y61.99 E41.15875
G1 X144.687 Y62.835 E41.20081
G1 X144.873 Y63.472 E41.23171
G1 X145.197 Y64.731 E41.29224
G1 X145.897 Y67.277 E41.4152
G1 X146.634 Y69.692 E41.53277
G1 X147.438 Y72.08 E41.6501
G1 X148.327 Y74.492 E41.7698
G1 X149.272 Y76.849 E41.88804
G1 X150.28 Y79.169 E42.00583
G1 X151.347 Y81.448 E42.123
G1 X152.5 Y83.739 E42.24243
G1 X153.705 Y85.973 E42.36062
G1 X154.978 Y88.183 E42.47938
G1 X156.305 Y90.343 E42.59742
G1 X157.674 Y92.435 E42.71384
G1 X159.153 Y94.561 E42.83443
G1 X160.636 Y96.571 E42.95074
G1 X162.238 Y98.616 E43.07171
G1 X163.837 Y100.544 E43.18834
G1 X165.509 Y102.448 E43.30633
G1 X167.227 Y104.297 E43.42386
G1 X169.186 Y106.282 E43.55372
G1 X169.641 Y106.73 E43.58345
G1 X170.256 Y107.392 E43.62553
G1 X170.81 Y108.105 E43.66757
G1 X171.299 Y108.864 E43.70961
G1 X171.718 Y109.664 E43.75166
G1 X172.066 Y110.497 E43.7937
G1 X172.338 Y111.358 E43.83574
G1 X172.533 Y112.24 E43.87781
G1 X172.677 Y113.568 E43.94001
G1 X172.691 Y113.898 E43.95539
G1 X172.7 Y114.33 E43.97551
G1 X172.699 Y144.416 E45.37644
G1 X172.689 Y145.133 E45.40983
G1 X172.636 Y146.035 E45.4519
G1 X172.504 Y146.928 E45.49393
G1 X172.294 Y147.806 E45.53597
G1 X172.006 Y148.663 E45.57807
G1 X171.644 Y149.49 E45.6201
G1 X171.21 Y150.282 E45.66216
G1 X170.727 Y151.007 E45.70272
G1 X170.429 Y151.415 E45.72625
G1 X168.919 Y153.52 E45.84688
G1 X167.482 Y155.646 E45.96636
G1 X166.133 Y157.771 E46.08357
G1 X164.824 Y159.968 E46.20265
G1 X163.602 Y162.155 E46.31931
G1 X162.409 Y164.441 E46.43937
G1 X161.307 Y166.707 E46.55671
G1 X160.261 Y169.02 E46.67491
G1 X159.279 Y171.369 E46.79346
G1 X158.351 Y173.771 E46.91337
G1 X157.529 Y176.103 E47.0285
G1 X156.74 Y178.56 E47.14866
G1 X156.031 Y180.995 E47.26676
G1 X155.372 Y183.53 E47.38872
G1 X155.065 Y184.507 E47.43641
G1 X154.704 Y185.366 E47.47979
G1 X154.281 Y186.164 E47.52185
G1 X153.789 Y186.921 E47.56389
G1 X153.232 Y187.632 E47.60595
G1 X152.614 Y188.291 E47.64801
G1 X151.941 Y188.892 E47.69003
G1 X151.217 Y189.432 E47.73209
G1 X150.448 Y189.905 E47.77413
G1 X149.64 Y190.309 E47.81619
G1 X148.799 Y190.639 E47.85826
G1 X147.933 Y190.894 E47.90029
G1 X147.047 Y191.071 E47.94236
G1 X145.777 Y191.187 E48.00175
G1 X145.17 Y191.2 E48.03002
G1 X86.207 Y191.2 E50.77558
G1 X85.377 Y191.19 E50.81423
G1 X84.476 Y191.139 E50.85626
G1 X83.582 Y191.007 E50.89833
G1 X82.704 Y190.798 E50.94036
G1 X81.847 Y190.511 E50.98244
G1 X81.02 Y190.15 E51.02446
G1 X80.227 Y189.717 E51.06653
G1 X79.476 Y189.216 E51.10857
G1 X78.772 Y188.65 E51.15063
G1 X78.121 Y188.024 E51.19269
G1 X77.528 Y187.343 E51.23473
G1 X76.998 Y186.612 E51.27678
G1 X76.534 Y185.837 E51.31884
G1 X76.14 Y185.024 E51.36091
G1 X75.82 Y184.18 E51.40294
G1 X75.576 Y183.31 E51.44501
G1 X75.375 Y182.146 E51.50001
G1 X75.263 Y181.16 E51.54622
G1 X75.181 Y180.339 E51.58464
G1 X74.858 Y177.819 E51.70294
G1 X74.467 Y175.332 E51.82017
G1 X74.002 Y172.83 E51.93867
G1 X73.47 Y170.364 E52.05614
G1 X72.858 Y167.868 E52.1758
G1 X72.183 Y165.418 E52.29414
G1 X71.447 Y163.015 E52.41116
G1 X70.63 Y160.593 E52.53018
G1 X69.745 Y158.197 E52.64912
G1 X68.806 Y155.858 E52.76648
G1 X67.793 Y153.529 E52.88474
G1 X66.699 Y151.198 E53.00464
G1 X66.286 Y150.377 E53.04744
G1 X65.845 Y149.474 E53.09423
G1 X65.485 Y148.646 E53.13627
G1 X65.199 Y147.789 E53.17834
G1 X64.991 Y146.91 E53.2204
G1 X64.861 Y146.017 E53.26242
G1 X64.815 Y145.309 E53.29546
G1 X64.8 Y144.67 E53.32522
G1 X64.801 Y114.561 E54.72722
G1 X64.811 Y113.863 E54.75973
G1 X64.864 Y112.961 E54.8018
G1 X64.996 Y112.068 E54.84384
G1 X65.207 Y111.19 E54.88588
G1 X65.495 Y110.334 E54.92794
G1 X65.857 Y109.507 E54.96997
G1 X66.292 Y108.715 E55.01205
G1 X66.794 Y107.964 E55.05411
G1 X67.493 Y107.115 E55.10532
G1 X67.778 Y106.804 E55.12496
