;FLAVOR:Marlin
;TIME:1015
;Filament used: 1.02502m
;Layer height: 0.28
;MINX:96.5
;MINY:91
;MINZ:0.28
;MAXX:138.5
;MAXY:144
;MAXZ:14.84
;Generated with Cura_SteamEngine 4.5.0
M140 S50
M105
M190 S50
M104 S200
M105
M109 S200
M82 ;absolute extrusion mode
; Ender 3 Custom Start G-code
G92 E0 ; Reset Extruder
G28 ; Home all axes
G1 Z2.0 F3000 ; Move Z Axis up little to prevent scratching of Heat Bed
G1 X0.1 Y20 Z0.3 F5000.0 ; Move to start position
G1 X0.1 Y200.0 Z0.3 F1500.0 E15 ; Draw the first line
G1 X0.4 Y200.0 Z0.3 F5000.0 ; Move to side a little
G1 X0.4 Y20 Z0.3 F1500.0 E30 ; Draw the second line
G92 E0 ; Reset Extruder
G1 Z2.0 F3000 ; Move Z Axis up little to prevent scratching of Heat Bed
G1 X5 Y20 Z0.3 F5000.0 ; Move over to prevent blob squish
G92 E0
G92 E0
G1 F2700 E-5
;LAYER_COUNT:53
;LAYER:0
M107
G0 F6000 X99.698 Y94.264 Z0.28
;TYPE:SKIRT
G1 F2700 E0
G1 F1200 X100.386 Y93.627 E0.04366
G1 X101.126 Y93.051 E0.08732
G1 X101.912 Y92.539 E0.131
G1 X102.739 Y92.097 E0.17467
G1 X103.601 Y91.727 E0.21835
G1 X104.491 Y91.431 E0.26202
G1 X105.403 Y91.213 E0.30568
G1 X106.33 Y91.072 E0.34935
G1 X107.201 Y91.013 E0.39
G1 X107.83 Y91 E0.41929
G1 X126.951 Y91.001 E1.30965
G1 X127.649 Y91.011 E1.34215
G1 X128.585 Y91.065 E1.38581
G1 X129.513 Y91.197 E1.42945
G1 X130.427 Y91.409 E1.47314
G1 X131.319 Y91.698 E1.5168
G1 X132.184 Y92.061 E1.56048
G1 X133.014 Y92.497 E1.60414
G1 X133.805 Y93.002 E1.64784
G1 X134.549 Y93.573 E1.69151
G1 X135.242 Y94.205 E1.73518
G1 X135.879 Y94.893 E1.77884
G1 X136.454 Y95.634 E1.82252
G1 X136.965 Y96.42 E1.86617
G1 X137.407 Y97.248 E1.90987
G1 X137.776 Y98.11 E1.95354
G1 X138.071 Y99 E1.9972
G1 X138.289 Y99.912 E2.04086
G1 X138.429 Y100.84 E2.08456
G1 X138.487 Y101.701 E2.12474
G1 X138.5 Y102.33 E2.15404
G1 X138.499 Y132.4 E3.55422
G1 X138.49 Y133.127 E3.58808
G1 X138.439 Y134.064 E3.63177
G1 X138.307 Y134.992 E3.67542
G1 X138.098 Y135.906 E3.71908
G1 X137.811 Y136.799 E3.76275
G1 X137.449 Y137.665 E3.80646
G1 X137.015 Y138.496 E3.85011
G1 X136.511 Y139.287 E3.89379
G1 X135.942 Y140.032 E3.93744
G1 X135.311 Y140.727 E3.98115
G1 X134.624 Y141.365 E4.0248
G1 X133.885 Y141.942 E4.06846
G1 X133.099 Y142.454 E4.11214
G1 X132.273 Y142.897 E4.15579
G1 X131.411 Y143.269 E4.1995
G1 X130.522 Y143.565 E4.24313
G1 X129.61 Y143.785 E4.28682
G1 X128.683 Y143.926 E4.33048
G1 X127.799 Y143.987 E4.37174
G1 X127.17 Y144 E4.40103
G1 X108.065 Y143.999 E5.29064
G1 X107.367 Y143.99 E5.32315
G1 X106.431 Y143.938 E5.3668
G1 X105.502 Y143.806 E5.41049
G1 X104.588 Y143.596 E5.45416
G1 X103.695 Y143.309 E5.49784
G1 X102.83 Y142.946 E5.54152
G1 X101.999 Y142.512 E5.58517
G1 X101.208 Y142.008 E5.62885
G1 X100.463 Y141.438 E5.67252
G1 X99.769 Y140.807 E5.7162
G1 X99.132 Y140.12 E5.75983
G1 X98.555 Y139.38 E5.80352
G1 X98.043 Y138.594 E5.8472
G1 X97.6 Y137.767 E5.89088
G1 X97.229 Y136.906 E5.93454
G1 X96.933 Y136.016 E5.97821
G1 X96.714 Y135.104 E6.02189
G1 X96.573 Y134.177 E6.06555
G1 X96.513 Y133.288 E6.10704
G1 X96.5 Y132.658 E6.13638
G1 X96.501 Y102.525 E7.5395
G1 X96.51 Y101.86 E7.57047
G1 X96.563 Y100.924 E7.61412
G1 X96.695 Y99.995 E7.65781
G1 X96.906 Y99.081 E7.70149
G1 X97.194 Y98.189 E7.74514
G1 X97.557 Y97.324 E7.78882
G1 X97.992 Y96.493 E7.8325
G1 X98.496 Y95.703 E7.87613
G1 X99.066 Y94.958 E7.91981
G1 X99.698 Y94.264 E7.96352
G0 F6000 X100.089 Y94.439
G1 F1200 X100.774 Y93.823 E8.00641
G1 X101.51 Y93.27 E8.04928
G1 X102.291 Y92.782 E8.09216
G1 X103.111 Y92.364 E8.13502
G1 X103.965 Y92.019 E8.17791
G1 X104.845 Y91.749 E8.22077
G1 X105.745 Y91.557 E8.26362
G1 X106.659 Y91.443 E8.30651
G1 X107.212 Y91.413 E8.3323
G1 X107.83 Y91.4 E8.36108
G1 X126.945 Y91.401 E9.25116
G1 X127.643 Y91.411 E9.28366
G1 X128.562 Y91.464 E9.32652
G1 X129.473 Y91.597 E9.36939
G1 X130.369 Y91.808 E9.41226
G1 X131.243 Y92.096 E9.45511
G1 X132.09 Y92.459 E9.49802
G1 X132.901 Y92.894 E9.54087
G1 X133.671 Y93.398 E9.58372
G1 X134.395 Y93.967 E9.6266
G1 X135.067 Y94.597 E9.66949
G1 X135.682 Y95.282 E9.71236
G1 X136.235 Y96.018 E9.75522
G1 X136.722 Y96.799 E9.79808
G1 X137.139 Y97.62 E9.84096
G1 X137.484 Y98.474 E9.88385
G1 X137.753 Y99.354 E9.9267
G1 X137.945 Y100.255 E9.96959
G1 X138.058 Y101.168 E10.01243
G1 X138.087 Y101.712 E10.0378
G1 X138.1 Y102.33 E10.06658
G1 X138.099 Y132.395 E11.46653
G1 X138.09 Y133.122 E11.50039
G1 X138.039 Y134.041 E11.54324
G1 X137.908 Y134.953 E11.58615
G1 X137.698 Y135.849 E11.629
G1 X137.412 Y136.724 E11.67186
G1 X137.051 Y137.571 E11.71474
G1 X136.617 Y138.383 E11.75761
G1 X136.115 Y139.155 E11.80049
G1 X135.547 Y139.88 E11.84337
G1 X134.919 Y140.553 E11.88624
G1 X134.235 Y141.169 E11.9291
G1 X133.5 Y141.723 E11.97196
G1 X132.72 Y142.212 E12.01482
G1 X131.9 Y142.631 E12.0577
G1 X131.047 Y142.977 E12.10056
G1 X130.167 Y143.248 E12.14344
G1 X129.267 Y143.441 E12.1863
G1 X128.353 Y143.556 E12.2292
G1 X127.788 Y143.587 E12.25554
G1 X127.17 Y143.6 E12.28433
G1 X108.07 Y143.599 E13.1737
G1 X107.372 Y143.59 E13.20621
G1 X106.453 Y143.538 E13.24907
G1 X105.542 Y143.407 E13.29192
G1 X104.646 Y143.197 E13.33478
G1 X103.771 Y142.91 E13.37766
G1 X102.924 Y142.548 E13.42055
G1 X102.112 Y142.114 E13.46342
G1 X101.341 Y141.612 E13.50626
G1 X100.616 Y141.044 E13.54914
G1 X99.943 Y140.415 E13.59204
G1 X99.328 Y139.731 E13.63487
G1 X98.774 Y138.996 E13.67773
G1 X98.286 Y138.215 E13.72061
G1 X97.867 Y137.395 E13.76349
G1 X97.521 Y136.542 E13.80635
G1 X97.251 Y135.662 E13.84921
G1 X97.058 Y134.761 E13.89212
G1 X96.944 Y133.848 E13.93496
G1 X96.913 Y133.277 E13.96159
G1 X96.9 Y132.658 E13.99042
G1 X96.901 Y102.531 E15.39326
G1 X96.91 Y101.866 E15.42423
G1 X96.962 Y100.946 E15.46713
G1 X97.094 Y100.035 E15.51
G1 X97.305 Y99.139 E15.55286
G1 X97.592 Y98.264 E15.59574
G1 X97.955 Y97.418 E15.63861
G1 X98.389 Y96.606 E15.68148
G1 X98.892 Y95.835 E15.72434
G1 X99.461 Y95.111 E15.76722
G1 X100.089 Y94.439 E15.81005
G0 F6000 X100.481 Y94.617
G1 F1200 X101.162 Y94.024 E15.8521
G1 X101.894 Y93.494 E15.89418
G1 X102.669 Y93.031 E15.93621
G1 X103.482 Y92.638 E15.97826
G1 X104.327 Y92.318 E16.02034
G1 X105.196 Y92.075 E16.06235
G1 X106.084 Y91.909 E16.10442
G1 X107.223 Y91.813 E16.15764
G1 X107.83 Y91.8 E16.18591
G1 X126.939 Y91.801 E17.07571
G1 X127.637 Y91.811 E17.10821
G1 X128.539 Y91.864 E17.15029
G1 X129.432 Y91.996 E17.19232
G1 X130.31 Y92.207 E17.23437
G1 X131.166 Y92.495 E17.27642
G1 X131.993 Y92.857 E17.31846
G1 X132.785 Y93.292 E17.36053
G1 X133.536 Y93.794 E17.4026
G1 X134.239 Y94.361 E17.44465
G1 X134.889 Y94.988 E17.4867
G1 X135.481 Y95.67 E17.52876
G1 X136.011 Y96.401 E17.5708
G1 X136.473 Y97.177 E17.61285
G1 X136.866 Y97.99 E17.6549
G1 X137.184 Y98.835 E17.69694
G1 X137.427 Y99.705 E17.739
G1 X137.592 Y100.593 E17.78106
G1 X137.687 Y101.723 E17.83386
G1 X137.7 Y102.33 E17.86213
G1 X137.699 Y132.39 E19.26185
G1 X137.69 Y133.117 E19.29571
G1 X137.639 Y134.019 E19.33778
G1 X137.508 Y134.913 E19.37985
G1 X137.299 Y135.791 E19.42187
G1 X137.013 Y136.648 E19.46394
G1 X136.652 Y137.476 E19.506
G1 X136.22 Y138.268 E19.54801
G1 X135.719 Y139.02 E19.59009
G1 X135.153 Y139.724 E19.63215
G1 X134.528 Y140.375 E19.67417
G1 X133.847 Y140.969 E19.71625
G1 X133.116 Y141.5 E19.75832
G1 X132.342 Y141.964 E19.80034
G1 X131.529 Y142.358 E19.84241
G1 X130.685 Y142.678 E19.88444
G1 X129.815 Y142.923 E19.92653
G1 X128.928 Y143.089 E19.96855
G1 X127.777 Y143.187 E20.02234
G1 X127.17 Y143.2 E20.05061
G1 X108.075 Y143.199 E20.93975
G1 X107.377 Y143.19 E20.97225
G1 X106.476 Y143.139 E21.01428
G1 X105.582 Y143.007 E21.05636
G1 X104.704 Y142.798 E21.09838
G1 X103.847 Y142.511 E21.14046
G1 X103.02 Y142.15 E21.18248
G1 X102.227 Y141.717 E21.22455
G1 X101.476 Y141.216 E21.26659
G1 X100.772 Y140.65 E21.30865
G1 X100.121 Y140.024 E21.35071
G1 X99.528 Y139.343 E21.39275
G1 X98.998 Y138.612 E21.4348
G1 X98.534 Y137.837 E21.47686
G1 X98.14 Y137.024 E21.51893
G1 X97.82 Y136.18 E21.56096
G1 X97.576 Y135.31 E21.60303
G1 X97.41 Y134.422 E21.6451
G1 X97.313 Y133.267 E21.69907
G1 X97.3 Y132.658 E21.72743
G1 X97.301 Y102.536 E23.13004
G1 X97.31 Y101.871 E23.16101
G1 X97.362 Y100.969 E23.20308
G1 X97.494 Y100.076 E23.24511
G1 X97.704 Y99.198 E23.28715
G1 X97.991 Y98.341 E23.32923
G1 X98.353 Y97.514 E23.37127
G1 X98.786 Y96.722 E23.4133
G1 X99.288 Y95.971 E23.45536
G1 X99.855 Y95.267 E23.49745
G1 X100.481 Y94.617 E23.53947
G1 F2700 E18.53947
;MESH:caixa_31x20x15_1.5_0.6.stl
G0 F6000 X107.914 Y101.335
G0 X107.914 Y102.414
G0 X108.1 Y132.4
;TYPE:WALL-INNER
G1 F2700 E23.53947
G1 F1200 X108.1 Y102.6 E24.92708
G1 X126.9 Y102.6 E25.80249
G1 X126.9 Y132.4 E27.1901
G1 X108.1 Y132.4 E28.06551
G0 F6000 X107.7 Y132.8
;TYPE:WALL-OUTER
G1 F1200 X107.7 Y102.2 E29.49037
G1 X127.3 Y102.2 E30.40303
G1 X127.3 Y132.8 E31.8279
G1 X107.7 Y132.8 E32.74056
G0 F6000 X107.97 Y132.53
G0 X108.21 Y132.01
G0 X108.49 Y132.01
;TYPE:SKIN
G1 F1200 X108.49 Y102.99 E34.09185
G1 X126.51 Y102.99 E34.93093
G1 X126.51 Y132.01 E36.28223
G1 X108.49 Y132.01 E37.12131
G0 F6000 X109.221 Y131.849
G1 F1200 X108.649 Y131.277 E37.15898
G0 F6000 X108.649 Y130.711
G1 F1200 X109.787 Y131.849 E37.23392
G0 F6000 X110.353 Y131.849
G1 F1200 X108.649 Y130.145 E37.34613
G0 F6000 X108.649 Y129.58
G1 F1200 X110.918 Y131.849 E37.49555
G0 F6000 X111.484 Y131.849
G1 F1200 X108.649 Y129.014 E37.68224
G0 F6000 X108.649 Y128.448
G1 F1200 X112.05 Y131.849 E37.9062
G0 F6000 X112.615 Y131.849
G1 F1200 X108.649 Y127.883 E38.16737
G0 F6000 X108.649 Y127.317
G1 F1200 X113.181 Y131.849 E38.46581
G0 F6000 X113.747 Y131.849
G1 F1200 X108.649 Y126.751 E38.80152
G0 F6000 X108.649 Y126.186
G1 F1200 X114.313 Y131.849 E39.17447
G0 F6000 X114.878 Y131.849
G1 F1200 X108.649 Y125.62 E39.58466
G0 F6000 X108.649 Y125.054
G1 F1200 X115.444 Y131.849 E40.03212
G0 F6000 X116.01 Y131.849
G1 F1200 X108.649 Y124.488 E40.51686
G0 F6000 X108.649 Y123.923
G1 F1200 X116.575 Y131.849 E41.0388
G0 F6000 X117.141 Y131.849
G1 F1200 X108.649 Y123.357 E41.59801
G0 F6000 X108.649 Y122.791
G1 F1200 X117.707 Y131.849 E42.1945
G0 F6000 X118.272 Y131.849
G1 F1200 X108.649 Y122.226 E42.82819
G0 F6000 X108.649 Y121.66
G1 F1200 X118.838 Y131.849 E43.49915
G0 F6000 X119.404 Y131.849
G1 F1200 X108.649 Y121.094 E44.20739
G0 F6000 X108.649 Y120.529
G1 F1200 X119.969 Y131.849 E44.95283
G0 F6000 X120.535 Y131.849
G1 F1200 X108.649 Y119.963 E45.73554
G0 F6000 X108.649 Y119.397
G1 F1200 X121.101 Y131.849 E46.55553
G0 F6000 X121.666 Y131.849
G1 F1200 X108.649 Y118.832 E47.41272
G0 F6000 X108.649 Y118.266
G1 F1200 X122.232 Y131.849 E48.30718
G0 F6000 X122.798 Y131.849
G1 F1200 X108.649 Y117.7 E49.23892
G0 F6000 X108.649 Y117.135
G1 F1200 X123.363 Y131.849 E50.20786
G0 F6000 X123.929 Y131.849
G1 F1200 X108.649 Y116.569 E51.21407
G0 F6000 X108.649 Y116.003
G1 F1200 X124.495 Y131.849 E52.25756
G0 F6000 X125.061 Y131.849
G1 F1200 X108.649 Y115.438 E53.33829
G0 F6000 X108.649 Y114.872
G1 F1200 X125.626 Y131.849 E54.45625
G0 F6000 X126.192 Y131.849
G1 F1200 X108.649 Y114.306 E55.61149
G0 F6000 X108.649 Y113.74
G1 F1200 X126.349 Y131.44 E56.77706
G0 F6000 X126.349 Y130.874
G1 F1200 X108.649 Y113.175 E57.9426
G0 F6000 X108.649 Y112.609
G1 F1200 X126.349 Y130.309 E59.10818
G0 F6000 X126.349 Y129.743
G1 F1200 X108.649 Y112.043 E60.27375
G0 F6000 X108.649 Y111.478
G1 F1200 X126.349 Y129.177 E61.4393
G0 F6000 X126.349 Y128.612
G1 F1200 X108.649 Y110.912 E62.60487
G0 F6000 X108.649 Y110.346
G1 F1200 X126.349 Y128.046 E63.77045
G0 F6000 X126.349 Y127.48
G1 F1200 X108.649 Y109.781 E64.93599
G0 F6000 X108.649 Y109.215
G1 F1200 X126.349 Y126.915 E66.10156
G0 F6000 X126.349 Y126.349
G1 F1200 X108.649 Y108.649 E67.26714
G0 F6000 X108.649 Y108.084
G1 F1200 X126.349 Y125.783 E68.43268
G0 F6000 X126.349 Y125.218
G1 F1200 X108.649 Y107.518 E69.59826
G0 F6000 X108.649 Y106.952
G1 F1200 X126.349 Y124.652 E70.76383
G0 F6000 X126.349 Y124.086
G1 F1200 X108.649 Y106.387 E71.92937
G0 F6000 X108.649 Y105.821
G1 F1200 X126.349 Y123.52 E73.09492
G0 F6000 X126.349 Y122.955
G1 F1200 X108.649 Y105.255 E74.26049
G0 F6000 X108.649 Y104.689
G1 F1200 X126.349 Y122.389 E75.42607
G0 F6000 X126.349 Y121.823
G1 F1200 X108.649 Y104.124 E76.59161
G0 F6000 X108.649 Y103.558
G1 F1200 X126.349 Y121.258 E77.75718
G0 F6000 X126.349 Y120.692
G1 F1200 X108.807 Y103.15 E78.91236
G0 F6000 X109.373 Y103.15
G1 F1200 X126.349 Y120.126 E80.03025
G0 F6000 X126.349 Y119.561
G1 F1200 X109.938 Y103.15 E81.11095
G0 F6000 X110.504 Y103.15
G1 F1200 X126.349 Y118.995 E82.15437
G0 F6000 X126.349 Y118.429
G1 F1200 X111.07 Y103.15 E83.16051
G0 F6000 X111.635 Y103.15
G1 F1200 X126.349 Y117.864 E84.12946
G0 F6000 X126.349 Y117.298
G1 F1200 X112.201 Y103.15 E85.06113
G0 F6000 X112.767 Y103.15
G1 F1200 X126.349 Y116.732 E85.95552
G0 F6000 X126.349 Y116.167
G1 F1200 X113.332 Y103.15 E86.81272
G0 F6000 X113.898 Y103.15
G1 F1200 X126.349 Y115.601 E87.63264
G0 F6000 X126.349 Y115.035
G1 F1200 X114.464 Y103.15 E88.41528
G0 F6000 X115.03 Y103.15
G1 F1200 X126.349 Y114.469 E89.16066
G0 F6000 X126.349 Y113.904
G1 F1200 X115.595 Y103.15 E89.86883
G0 F6000 X116.161 Y103.15
G1 F1200 X126.349 Y113.338 E90.53973
G0 F6000 X126.349 Y112.772
G1 F1200 X116.727 Y103.15 E91.17335
G0 F6000 X117.292 Y103.15
G1 F1200 X126.349 Y112.207 E91.76977
G0 F6000 X126.349 Y111.641
G1 F1200 X117.858 Y103.15 E92.32892
G0 F6000 X118.424 Y103.15
G1 F1200 X126.349 Y111.075 E92.85079
G0 F6000 X126.349 Y110.51
G1 F1200 X118.989 Y103.15 E93.33546
G0 F6000 X119.555 Y103.15
G1 F1200 X126.349 Y109.944 E93.78286
G0 F6000 X126.349 Y109.378
G1 F1200 X120.121 Y103.15 E94.19298
G0 F6000 X120.686 Y103.15
G1 F1200 X126.349 Y108.813 E94.5659
G0 F6000 X126.349 Y108.247
G1 F1200 X121.252 Y103.15 E94.90155
G0 F6000 X121.818 Y103.15
G1 F1200 X126.349 Y107.681 E95.19992
G0 F6000 X126.349 Y107.116
G1 F1200 X122.383 Y103.15 E95.46109
G0 F6000 X122.949 Y103.15
G1 F1200 X126.349 Y106.55 E95.68498
G0 F6000 X126.349 Y105.984
G1 F1200 X123.515 Y103.15 E95.87161
G0 F6000 X124.08 Y103.15
G1 F1200 X126.349 Y105.419 E96.02102
G0 F6000 X126.349 Y104.853
G1 F1200 X124.646 Y103.15 E96.13317
G0 F6000 X125.212 Y103.15
G1 F1200 X126.349 Y104.287 E96.20804
G0 F6000 X126.349 Y103.721
G1 F1200 X125.778 Y103.15 E96.24564
G0 F6000 X125.778 Y102.8
G1 F2700 E91.24564
;MESH:NONMESH
G0 F300 X125.778 Y102.8 Z0.56
G0 F6000 X125.778 Y102.71
G0 X108.282 Y102.782
G0 X108.1 Y132.4
;TIME_ELAPSED:116.165739
;LAYER:1
M140 S50
M106 S85
;TYPE:WALL-INNER
;MESH:caixa_31x20x15_1.5_0.6.stl
G1 F2700 E96.24564
G1 F1350 X108.1 Y102.6 E97.63326
G1 X126.9 Y102.6 E98.50866
G1 X126.9 Y132.4 E99.89628
G1 X108.1 Y132.4 E100.77168
G0 F7500 X107.7 Y132.8
;TYPE:WALL-OUTER
G1 F1350 X107.7 Y102.2 E102.19655
G1 X127.3 Y102.2 E103.10921
G1 X127.3 Y132.8 E104.53407
G1 X107.7 Y132.8 E105.44673
G0 F7500 X107.97 Y132.53
G0 X108.21 Y132.01
G0 X108.49 Y132.01
;TYPE:SKIN
G1 F1350 X108.49 Y102.99 E106.79802
G1 X126.51 Y102.99 E107.63711
G1 X126.51 Y132.01 E108.9884
G1 X108.49 Y132.01 E109.82749
G0 F7500 X108.21 Y132.01
G0 X108.274 Y132.197
G0 X126.103 Y132.29
G0 X126.103 Y131.849
G1 F1350 X126.349 Y131.603 E109.84369
G0 F7500 X126.349 Y131.037
G1 F1350 X125.537 Y131.849 E109.89716
G0 F7500 X124.971 Y131.849
G1 F1350 X126.349 Y130.471 E109.9879
G0 F7500 X126.349 Y129.906
G1 F1350 X124.406 Y131.849 E110.11585
G0 F7500 X123.84 Y131.849
G1 F1350 X126.349 Y129.34 E110.28107
G0 F7500 X126.349 Y128.774
G1 F1350 X123.274 Y131.849 E110.48357
G0 F7500 X122.709 Y131.849
G1 F1350 X126.349 Y128.209 E110.72327
G0 F7500 X126.349 Y127.643
G1 F1350 X122.143 Y131.849 E111.00024
G0 F7500 X121.577 Y131.849
G1 F1350 X126.349 Y127.077 E111.31448
G0 F7500 X126.349 Y126.512
G1 F1350 X121.012 Y131.849 E111.66594
G0 F7500 X120.446 Y131.849
G1 F1350 X126.349 Y125.946 E112.05466
G0 F7500 X126.349 Y125.38
G1 F1350 X119.88 Y131.849 E112.48065
G0 F7500 X119.315 Y131.849
G1 F1350 X126.349 Y124.814 E112.94389
G0 F7500 X126.349 Y124.249
G1 F1350 X118.749 Y131.849 E113.44436
G0 F7500 X118.183 Y131.849
G1 F1350 X126.349 Y123.683 E113.9821
G0 F7500 X126.349 Y123.117
G1 F1350 X117.618 Y131.849 E114.55709
G0 F7500 X117.052 Y131.849
G1 F1350 X126.349 Y122.552 E115.16931
G0 F7500 X126.349 Y121.986
G1 F1350 X116.486 Y131.849 E115.81881
G0 F7500 X115.92 Y131.849
G1 F1350 X126.349 Y121.42 E116.50557
