;FLAVOR:Marlin
;TIME:1354
;Filament used: 1.37885m
;Layer height: 0.28
;MINX:91.5
;MINY:89
;MINZ:0.28
;MAXX:143.5
;MAXY:146
;MAXZ:14.84
;Generated with Cura_SteamEngine 4.5.0
M140 S50
M105
M190 S50
M104 S200
M105
M109 S200
M82 ;absolute extrusion mode
; Ender 3 Custom Start G-code
G92 E0 ; Reset Extruder
G28 ; Home all axes
G1 Z2.0 F3000 ; Move Z Axis up little to prevent scratching of Heat Bed
G1 X0.1 Y20 Z0.3 F5000.0 ; Move to start position
G1 X0.1 Y200.0 Z0.3 F1500.0 E15 ; Draw the first line
G1 X0.4 Y200.0 Z0.3 F5000.0 ; Move to side a little
G1 X0.4 Y20 Z0.3 F1500.0 E30 ; Draw the second line
G92 E0 ; Reset Extruder
G1 Z2.0 F3000 ; Move Z Axis up little to prevent scratching of Heat Bed
G1 X5 Y20 Z0.3 F5000.0 ; Move over to prevent blob squish
G92 E0
G92 E0
G1 F2700 E-5
;LAYER_COUNT:53
;LAYER:0
M107
G0 F6000 X94.698 Y92.264 Z0.28
;TYPE:SKIRT
G1 F2700 E0
G1 F1200 X95.386 Y91.627 E0.04366
G1 X96.126 Y91.051 E0.08732
G1 X96.912 Y90.539 E0.131
G1 X97.739 Y90.097 E0.17467
G1 X98.601 Y89.727 E0.21835
G1 X99.491 Y89.431 E0.26202
G1 X100.403 Y89.213 E0.30568
G1 X101.33 Y89.072 E0.34935
G1 X102.201 Y89.013 E0.39
G1 X102.83 Y89 E0.41929
G1 X131.951 Y89.001 E1.77529
G1 X132.649 Y89.011 E1.80779
G1 X133.585 Y89.065 E1.85145
G1 X134.513 Y89.197 E1.8951
G1 X135.427 Y89.409 E1.93878
G1 X136.319 Y89.698 E1.98245
G1 X137.184 Y90.061 E2.02613
G1 X138.014 Y90.497 E2.06978
G1 X138.805 Y91.002 E2.11348
G1 X139.549 Y91.573 E2.15715
G1 X140.242 Y92.205 E2.20082
G1 X140.879 Y92.893 E2.24448
G1 X141.454 Y93.634 E2.28816
G1 X141.965 Y94.42 E2.33181
G1 X142.407 Y95.248 E2.37552
G1 X142.776 Y96.11 E2.41918
G1 X143.071 Y97 E2.46284
G1 X143.289 Y97.912 E2.5065
G1 X143.429 Y98.84 E2.5502
G1 X143.487 Y99.701 E2.59038
G1 X143.5 Y100.33 E2.61968
G1 X143.499 Y134.4 E4.20612
G1 X143.49 Y135.127 E4.23998
G1 X143.439 Y136.064 E4.28367
G1 X143.307 Y136.992 E4.32732
G1 X143.098 Y137.906 E4.37098
G1 X142.811 Y138.799 E4.41465
G1 X142.449 Y139.665 E4.45836
G1 X142.015 Y140.496 E4.50201
G1 X141.511 Y141.287 E4.54569
G1 X140.942 Y142.032 E4.58934
G1 X140.311 Y142.727 E4.63305
G1 X139.624 Y143.365 E4.6767
G1 X138.885 Y143.942 E4.72036
G1 X138.099 Y144.454 E4.76404
G1 X137.273 Y144.897 E4.80768
G1 X136.411 Y145.269 E4.8514
G1 X135.522 Y145.565 E4.89503
G1 X134.61 Y145.785 E4.93872
G1 X133.683 Y145.926 E4.98238
G1 X132.799 Y145.987 E5.02364
G1 X132.17 Y146 E5.05293
G1 X103.065 Y145.999 E6.40818
G1 X102.367 Y145.99 E6.44069
G1 X101.431 Y145.938 E6.48434
G1 X100.502 Y145.806 E6.52803
G1 X99.588 Y145.596 E6.5717
G1 X98.695 Y145.309 E6.61538
G1 X97.83 Y144.946 E6.65906
G1 X96.999 Y144.512 E6.70271
G1 X96.208 Y144.008 E6.74639
G1 X95.463 Y143.438 E6.79007
G1 X94.769 Y142.807 E6.83374
G1 X94.132 Y142.12 E6.87737
G1 X93.555 Y141.38 E6.92106
G1 X93.043 Y140.594 E6.96474
G1 X92.6 Y139.767 E7.00843
G1 X92.229 Y138.906 E7.05208
G1 X91.933 Y138.016 E7.09575
G1 X91.714 Y137.104 E7.13943
G1 X91.573 Y136.177 E7.18309
G1 X91.513 Y135.288 E7.22458
G1 X91.5 Y134.658 E7.25392
G1 X91.501 Y100.525 E8.8433
G1 X91.51 Y99.86 E8.87427
G1 X91.563 Y98.924 E8.91792
G1 X91.695 Y97.995 E8.96161
G1 X91.906 Y97.081 E9.00529
G1 X92.194 Y96.189 E9.04894
G1 X92.557 Y95.324 E9.09262
G1 X92.992 Y94.493 E9.13629
G1 X93.496 Y93.703 E9.17993
G1 X94.066 Y92.958 E9.22361
G1 X94.698 Y92.264 E9.26731
G0 F6000 X95.089 Y92.439
G1 F1200 X95.774 Y91.823 E9.31021
G1 X96.51 Y91.27 E9.35308
G1 X97.291 Y90.782 E9.39596
G1 X98.111 Y90.364 E9.43882
G1 X98.965 Y90.019 E9.48171
G1 X99.845 Y89.749 E9.52457
G1 X100.745 Y89.557 E9.56742
G1 X101.659 Y89.443 E9.61031
G1 X102.212 Y89.413 E9.6361
G1 X102.83 Y89.4 E9.66488
G1 X131.945 Y89.401 E11.0206
G1 X132.643 Y89.411 E11.0531
G1 X133.562 Y89.464 E11.09596
G1 X134.473 Y89.597 E11.13883
G1 X135.369 Y89.808 E11.1817
G1 X136.243 Y90.096 E11.22455
G1 X137.09 Y90.459 E11.26746
G1 X137.901 Y90.894 E11.31031
G1 X138.671 Y91.398 E11.35316
G1 X139.395 Y91.967 E11.39604
G1 X140.067 Y92.597 E11.43893
G1 X140.682 Y93.282 E11.4818
G1 X141.235 Y94.018 E11.52466
G1 X141.722 Y94.799 E11.56752
G1 X142.139 Y95.62 E11.6104
G1 X142.484 Y96.474 E11.65329
G1 X142.753 Y97.354 E11.69613
G1 X142.945 Y98.255 E11.73903
G1 X143.058 Y99.168 E11.78187
G1 X143.087 Y99.712 E11.80724
G1 X143.1 Y100.33 E11.83602
G1 X143.099 Y134.395 E13.42223
G1 X143.09 Y135.122 E13.45608
G1 X143.039 Y136.041 E13.49894
G1 X142.908 Y136.953 E13.54184
G1 X142.698 Y137.849 E13.58469
G1 X142.412 Y138.724 E13.62756
G1 X142.051 Y139.571 E13.67043
G1 X141.617 Y140.383 E13.7133
G1 X141.115 Y141.155 E13.75618
G1 X140.547 Y141.88 E13.79907
G1 X139.919 Y142.553 E13.84193
G1 X139.235 Y143.169 E13.88479
G1 X138.5 Y143.723 E13.92765
G1 X137.72 Y144.212 E13.97052
G1 X136.9 Y144.631 E14.0134
G1 X136.047 Y144.977 E14.05626
G1 X135.167 Y145.248 E14.09914
G1 X134.267 Y145.441 E14.142
G1 X133.353 Y145.556 E14.18489
G1 X132.788 Y145.587 E14.21124
G1 X132.17 Y145.6 E14.24002
G1 X103.07 Y145.599 E15.59504
G1 X102.372 Y145.59 E15.62755
G1 X101.453 Y145.538 E15.67041
G1 X100.542 Y145.407 E15.71326
G1 X99.646 Y145.197 E15.75611
G1 X98.771 Y144.91 E15.79899
G1 X97.924 Y144.548 E15.84188
G1 X97.112 Y144.114 E15.88476
G1 X96.341 Y143.612 E15.9276
G1 X95.616 Y143.044 E15.97048
G1 X94.943 Y142.415 E16.01338
G1 X94.328 Y141.731 E16.05621
G1 X93.774 Y140.996 E16.09907
G1 X93.286 Y140.215 E16.14195
G1 X92.867 Y139.395 E16.18483
G1 X92.521 Y138.542 E16.22769
G1 X92.251 Y137.662 E16.27055
G1 X92.058 Y136.761 E16.31346
G1 X91.944 Y135.848 E16.3563
G1 X91.913 Y135.277 E16.38293
G1 X91.9 Y134.658 E16.41176
G1 X91.901 Y100.531 E18.00085
G1 X91.91 Y99.866 E18.03182
G1 X91.962 Y98.946 E18.07473
G1 X92.094 Y98.035 E18.11759
G1 X92.305 Y97.139 E18.16045
G1 X92.592 Y96.264 E18.20333
G1 X92.955 Y95.418 E18.2462
G1 X93.389 Y94.606 E18.28907
G1 X93.892 Y93.835 E18.33194
G1 X94.461 Y93.111 E18.37482
G1 X95.089 Y92.439 E18.41764
G0 F6000 X95.481 Y92.617
G1 F1200 X96.162 Y92.024 E18.45969
G1 X96.894 Y91.494 E18.50177
G1 X97.669 Y91.031 E18.54381
G1 X98.482 Y90.638 E18.58586
G1 X99.327 Y90.318 E18.62793
G1 X100.196 Y90.075 E18.66995
G1 X101.084 Y89.909 E18.71201
G1 X102.223 Y89.813 E18.76524
G1 X102.83 Y89.8 E18.79351
G1 X131.939 Y89.801 E20.14894
G1 X132.637 Y89.811 E20.18145
G1 X133.539 Y89.864 E20.22352
G1 X134.432 Y89.996 E20.26556
G1 X135.31 Y90.207 E20.3076
G1 X136.166 Y90.495 E20.34966
G1 X136.993 Y90.857 E20.39169
G1 X137.785 Y91.292 E20.43377
G1 X138.536 Y91.794 E20.47583
G1 X139.239 Y92.361 E20.51789
G1 X139.889 Y92.988 E20.55994
G1 X140.481 Y93.67 E20.60199
G1 X141.011 Y94.401 E20.64404
G1 X141.473 Y95.177 E20.68609
G1 X141.866 Y95.99 E20.72814
G1 X142.184 Y96.835 E20.77018
G1 X142.427 Y97.705 E20.81224
G1 X142.592 Y98.593 E20.8543
G1 X142.687 Y99.723 E20.9071
G1 X142.7 Y100.33 E20.93537
G1 X142.699 Y134.39 E22.52135
G1 X142.69 Y135.117 E22.5552
G1 X142.639 Y136.019 E22.59727
G1 X142.508 Y136.913 E22.63934
G1 X142.299 Y137.791 E22.68137
G1 X142.013 Y138.648 E22.72344
G1 X141.652 Y139.476 E22.7655
G1 X141.22 Y140.268 E22.80751
G1 X140.719 Y141.02 E22.84958
G1 X140.153 Y141.724 E22.89164
G1 X139.528 Y142.375 E22.93367
G1 X138.847 Y142.969 E22.97574
G1 X138.116 Y143.5 E23.01781
G1 X137.342 Y143.964 E23.05984
G1 X136.529 Y144.358 E23.1019
G1 X135.685 Y144.678 E23.14393
G1 X134.815 Y144.923 E23.18602
G1 X133.928 Y145.089 E23.22804
G1 X132.777 Y145.187 E23.28183
G1 X132.17 Y145.2 E23.3101
G1 X103.075 Y145.199 E24.66488
G1 X102.377 Y145.19 E24.69739
G1 X101.476 Y145.139 E24.73941
G1 X100.582 Y145.007 E24.78149
G1 X99.704 Y144.798 E24.82352
G1 X98.847 Y144.511 E24.8656
G1 X98.02 Y144.15 E24.90762
G1 X97.227 Y143.717 E24.94969
G1 X96.476 Y143.216 E24.99173
G1 X95.772 Y142.65 E25.03379
G1 X95.121 Y142.024 E25.07584
G1 X94.528 Y141.343 E25.11789
G1 X93.998 Y140.612 E25.15993
G1 X93.534 Y139.837 E25.20199
G1 X93.14 Y139.024 E25.24406
G1 X92.82 Y138.18 E25.28609
G1 X92.576 Y137.31 E25.32817
G1 X92.41 Y136.422 E25.37023
G1 X92.313 Y135.267 E25.4242
G1 X92.3 Y134.658 E25.45257
G1 X92.301 Y100.536 E27.04143
G1 X92.31 Y99.871 E27.0724
G1 X92.362 Y98.969 E27.11447
G1 X92.494 Y98.076 E27.1565
G1 X92.704 Y97.198 E27.19854
G1 X92.991 Y96.341 E27.24062
G1 X93.353 Y95.514 E27.28266
G1 X93.786 Y94.722 E27.32469
G1 X94.288 Y93.971 E27.36675
G1 X94.855 Y93.267 E27.40884
G1 X95.481 Y92.617 E27.45086
G1 F2700 E22.45086
;MESH:caixa_35x30x15_1.5_0.6.stl
G0 F6000 X102.914 Y99.335
G0 X102.914 Y100.414
G0 X103.1 Y134.4
;TYPE:WALL-INNER
G1 F2700 E27.45086
G1 F1200 X103.1 Y100.6 E29.02473
G1 X131.9 Y100.6 E30.36578
G1 X131.9 Y134.4 E31.93965
G1 X103.1 Y134.4 E33.2807
G0 F6000 X102.7 Y134.8
;TYPE:WALL-OUTER
G1 F1200 X102.7 Y100.2 E34.89182
G1 X132.3 Y100.2 E36.27012
G1 X132.3 Y134.8 E37.88124
G1 X102.7 Y134.8 E39.25954
G0 F6000 X102.97 Y134.53
G0 X103.21 Y134.01
G0 X103.49 Y134.01
;TYPE:SKIN
G1 F1200 X103.49 Y100.99 E40.79709
G1 X131.51 Y100.99 E42.10182
G1 X131.51 Y134.01 E43.63937
G1 X103.49 Y134.01 E44.9441
G0 F6000 X103.867 Y133.848
G1 F1200 X103.649 Y133.63 E44.95845
G0 F6000 X103.649 Y133.064
G1 F1200 X104.433 Y133.848 E45.01008
G0 F6000 X104.998 Y133.848
G1 F1200 X103.649 Y132.499 E45.09892
G0 F6000 X103.649 Y131.933
G1 F1200 X105.564 Y133.848 E45.22502
G0 F6000 X106.13 Y133.848
G1 F1200 X103.649 Y131.367 E45.3884
G0 F6000 X103.649 Y130.802
G1 F1200 X106.696 Y133.848 E45.58902
G0 F6000 X107.261 Y133.848
G1 F1200 X103.649 Y130.236 E45.82687
G0 F6000 X103.649 Y129.67
G1 F1200 X107.827 Y133.848 E46.102
G0 F6000 X108.393 Y133.848
G1 F1200 X103.649 Y129.104 E46.4144
G0 F6000 X103.649 Y128.539
G1 F1200 X108.958 Y133.848 E46.76401
G0 F6000 X109.524 Y133.848
G1 F1200 X103.649 Y127.973 E47.15089
G0 F6000 X103.649 Y127.407
G1 F1200 X110.09 Y133.848 E47.57504
G0 F6000 X110.655 Y133.848
G1 F1200 X103.649 Y126.842 E48.0364
G0 F6000 X103.649 Y126.276
G1 F1200 X111.221 Y133.848 E48.53502
G0 F6000 X111.787 Y133.848
G1 F1200 X103.649 Y125.71 E49.07093
G0 F6000 X103.649 Y125.145
G1 F1200 X112.352 Y133.848 E49.64403
G0 F6000 X112.918 Y133.848
G1 F1200 X103.649 Y124.579 E50.25441
G0 F6000 X103.649 Y124.013
G1 F1200 X113.484 Y133.848 E50.90206
G0 F6000 X114.049 Y133.848
G1 F1200 X103.649 Y123.448 E51.58692
G0 F6000 X103.649 Y122.882
G1 F1200 X114.615 Y133.848 E52.30905
G0 F6000 X115.181 Y133.848
G1 F1200 X103.649 Y122.316 E53.06845
G0 F6000 X103.649 Y121.751
G1 F1200 X115.747 Y133.848 E53.86509
G0 F6000 X116.312 Y133.848
G1 F1200 X103.649 Y121.185 E54.69897
G0 F6000 X103.649 Y120.619
G1 F1200 X116.878 Y133.848 E55.57013
G0 F6000 X117.444 Y133.848
G1 F1200 X103.649 Y120.054 E56.47852
G0 F6000 X103.649 Y119.488
G1 F1200 X118.009 Y133.848 E57.42415
G0 F6000 X118.575 Y133.848
G1 F1200 X103.649 Y118.922 E58.40705
G0 F6000 X103.649 Y118.356
G1 F1200 X119.141 Y133.848 E59.42723
G0 F6000 X119.706 Y133.848
G1 F1200 X103.649 Y117.791 E60.48461
G0 F6000 X103.649 Y117.225
G1 F1200 X120.272 Y133.848 E61.57926
G0 F6000 X120.838 Y133.848
G1 F1200 X103.649 Y116.659 E62.71119
G0 F6000 X103.649 Y116.094
G1 F1200 X121.403 Y133.848 E63.88032
G0 F6000 X121.969 Y133.848
G1 F1200 X103.649 Y115.528 E65.08672
G0 F6000 X103.649 Y114.962
G1 F1200 X122.535 Y133.848 E66.33039
G0 F6000 X123.1 Y133.848
G1 F1200 X103.649 Y114.397 E67.61128
G0 F6000 X103.649 Y113.831
G1 F1200 X123.666 Y133.848 E68.92943
G0 F6000 X124.232 Y133.848
G1 F1200 X103.649 Y113.265 E70.28486
G0 F6000 X103.649 Y112.7
G1 F1200 X124.797 Y133.848 E71.67749
G0 F6000 X125.363 Y133.848
G1 F1200 X103.649 Y112.134 E73.10739
G0 F6000 X103.649 Y111.568
G1 F1200 X125.929 Y133.848 E74.57457
G0 F6000 X126.495 Y133.848
G1 F1200 X103.649 Y111.003 E76.07898
G0 F6000 X103.649 Y110.437
G1 F1200 X127.06 Y133.848 E77.62064
G0 F6000 X127.626 Y133.848
G1 F1200 X103.649 Y109.871 E79.19956
G0 F6000 X103.649 Y109.305
G1 F1200 X128.192 Y133.848 E80.81576
G0 F6000 X128.757 Y133.848
G1 F1200 X103.649 Y108.74 E82.46917
G0 F6000 X103.649 Y108.174
G1 F1200 X129.323 Y133.848 E84.15984
G0 F6000 X129.889 Y133.848
G1 F1200 X103.649 Y107.608 E85.88779
G0 F6000 X103.649 Y107.043
G1 F1200 X130.454 Y133.848 E87.65295
G0 F6000 X131.02 Y133.848
G1 F1200 X103.649 Y106.477 E89.45537
G0 F6000 X103.649 Y105.911
G1 F1200 X131.35 Y133.612 E91.27953
G0 F6000 X131.35 Y133.047
G1 F1200 X103.649 Y105.346 E93.10369
G0 F6000 X103.649 Y104.78
G1 F1200 X131.35 Y132.481 E94.92785
G0 F6000 X131.35 Y131.915
G1 F1200 X103.649 Y104.214 E96.75201
G0 F6000 X103.649 Y103.649
G1 F1200 X131.35 Y131.35 E98.57617
G0 F6000 X131.35 Y130.784
G1 F1200 X103.649 Y103.083 E100.40032
G0 F6000 X103.649 Y102.517
G1 F1200 X131.35 Y130.218 E102.22448
G0 F6000 X131.35 Y129.652
G1 F1200 X103.649 Y101.952 E104.04861
G0 F6000 X103.649 Y101.386
G1 F1200 X131.35 Y129.087 E105.87276
G0 F6000 X131.35 Y128.521
G1 F1200 X103.978 Y101.15 E107.67522
G0 F6000 X104.544 Y101.15
G1 F1200 X131.35 Y127.955 E109.44041
G0 F6000 X131.35 Y127.39
G1 F1200 X105.11 Y101.15 E111.16836
G0 F6000 X105.675 Y101.15
G1 F1200 X131.35 Y126.824 E112.85907
G0 F6000 X131.35 Y126.258
G1 F1200 X106.241 Y101.15 E114.51251
G0 F6000 X106.807 Y101.15
G1 F1200 X131.35 Y125.693 E116.12871
G0 F6000 X131.35 Y125.127
G1 F1200 X107.372 Y101.15 E117.70767
G0 F6000 X107.938 Y101.15
G1 F1200 X131.35 Y124.561 E119.24935
G0 F6000 X131.35 Y123.996
G1 F1200 X108.504 Y101.15 E120.7538
G0 F6000 X109.069 Y101.15
G1 F1200 X131.35 Y123.43 E122.22101
G0 F6000 X131.35 Y122.864
G1 F1200 X109.635 Y101.15 E123.65095
G0 F6000 X110.201 Y101.15
G1 F1200 X131.35 Y122.299 E125.04365
G0 F6000 X131.35 Y121.733
G1 F1200 X110.766 Y101.15 E126.3991
G0 F6000 X111.332 Y101.15
G1 F1200 X131.35 Y121.167 E127.71729
G0 F6000 X131.35 Y120.602
G1 F1200 X111.898 Y101.15 E128.99824
G0 F6000 X112.463 Y101.15
G1 F1200 X131.35 Y120.036 E130.24195
G0 F6000 X131.35 Y119.47
G1 F1200 X113.029 Y101.15 E131.44838
G0 F6000 X113.595 Y101.15
G1 F1200 X131.35 Y118.904 E132.61755
G0 F6000 X131.35 Y118.339
G1 F1200 X114.16 Y101.15 E133.7495
G0 F6000 X114.726 Y101.15
G1 F1200 X131.35 Y117.773 E134.84419
G0 F6000 X131.35 Y117.207
G1 F1200 X115.292 Y101.15 E135.9016
G0 F6000 X115.858 Y101.15
G1 F1200 X131.35 Y116.642 E136.92178
G0 F6000 X131.35 Y116.076
G1 F1200 X116.423 Y101.15 E137.90471
G0 F6000 X116.989 Y101.15
G1 F1200 X131.35 Y115.51 E138.85038
G0 F6000 X131.35 Y114.945
G1 F1200 X117.555 Y101.15 E139.7588
G0 F6000 X118.12 Y101.15
G1 F1200 X131.35 Y114.379 E140.62999
G0 F6000 X131.35 Y113.813
G1 F1200 X118.686 Y101.15 E141.4639
G0 F6000 X119.252 Y101.15
G1 F1200 X131.35 Y113.248 E142.26057
G0 F6000 X131.35 Y112.682
G1 F1200 X119.817 Y101.15 E143.02001
G0 F6000 X120.383 Y101.15
G1 F1200 X131.35 Y112.116 E143.74217
G0 F6000 X131.35 Y111.551
G1 F1200 X120.949 Y101.15 E144.4271
G0 F6000 X121.514 Y101.15
G1 F1200 X131.35 Y110.985 E145.07478
G0 F6000 X131.35 Y110.419
G1 F1200 X122.08 Y101.15 E145.68519
G0 F6000 X122.646 Y101.15
G1 F1200 X131.35 Y109.853 E146.25833
G0 F6000 X131.35 Y109.288
G1 F1200 X123.211 Y101.15 E146.79427
G0 F6000 X123.777 Y101.15
G1 F1200 X131.35 Y108.722 E147.29293
G0 F6000 X131.35 Y108.156
G1 F1200 X124.343 Y101.15 E147.75432
G0 F6000 X124.908 Y101.15
G1 F1200 X131.35 Y107.591 E148.1785
G0 F6000 X131.35 Y107.025
G1 F1200 X125.474 Y101.15 E148.56541
G0 F6000 X126.04 Y101.15
G1 F1200 X131.35 Y106.459 E148.91505
G0 F6000 X131.35 Y105.894
G1 F1200 X126.606 Y101.15 E149.22746
G0 F6000 X127.171 Y101.15
G1 F1200 X131.35 Y105.328 E149.50262
G0 F6000 X131.35 Y104.762
G1 F1200 X127.737 Y101.15 E149.74051
G0 F6000 X128.303 Y101.15
G1 F1200 X131.35 Y104.197 E149.94116
G0 F6000 X131.35 Y103.631
G1 F1200 X128.868 Y101.15 E150.10457
G0 F6000 X129.434 Y101.15
G1 F1200 X131.35 Y103.065 E150.23071
G0 F6000 X131.35 Y102.5
G1 F1200 X130 Y101.15 E150.31961
G0 F6000 X130.565 Y101.15
G1 F1200 X131.35 Y101.934 E150.37127
G0 F6000 X131.35 Y101.368
G1 F1200 X131.131 Y101.15 E150.38565
G0 F6000 X131.131 Y100.8
G1 F2700 E145.38565
;MESH:NONMESH
G0 F300 X131.131 Y100.8 Z0.56
G0 F6000 X131.131 Y100.71
G0 X103.282 Y100.782
G0 X103.1 Y134.4
;TIME_ELAPSED:176.284932
;LAYER:1
M140 S50
M106 S85
;TYPE:WALL-INNER
;MESH:caixa_35x30x15_1.5_0.6.stl
G1 F2700 E150.38565
G1 F1350 X103.1 Y100.6 E151.95952
G1 X131.9 Y100.6 E153.30057
G1 X131.9 Y134.4 E154.87444
G1 X103.1 Y134.4 E156.21549
G0 F7500 X102.7 Y134.8
;TYPE:WALL-OUTER
