;FLAVOR:Marlin
;TIME:1137
;Filament used: 1.15172m
;Layer height: 0.28
;MINX:94
;MINY:91
;MINZ:0.28
;MAXX:141
;MAXY:144
;MAXZ:14.84
;Generated with Cura_SteamEngine 4.5.0
M140 S50
M105
M190 S50
M104 S200
M105
M109 S200
M82 ;absolute extrusion mode
; Ender 3 Custom Start G-code
G92 E0 ; Reset Extruder
G28 ; Home all axes
G1 Z2.0 F3000 ; Move Z Axis up little to prevent scratching of Heat Bed
G1 X0.1 Y20 Z0.3 F5000.0 ; Move to start position
G1 X0.1 Y200.0 Z0.3 F1500.0 E15 ; Draw the first line
G1 X0.4 Y200.0 Z0.3 F5000.0 ; Move to side a little
G1 X0.4 Y20 Z0.3 F1500.0 E30 ; Draw the second line
G92 E0 ; Reset Extruder
G1 Z2.0 F3000 ; Move Z Axis up little to prevent scratching of Heat Bed
G1 X5 Y20 Z0.3 F5000.0 ; Move over to prevent blob squish
G92 E0
G92 E0
G1 F2700 E-5
;LAYER_COUNT:53
;LAYER:0
M107
G0 F6000 X97.198 Y94.264 Z0.28
;TYPE:SKIRT
G1 F2700 E0
G1 F1200 X97.886 Y93.627 E0.04366
G1 X98.626 Y93.051 E0.08732
G1 X99.412 Y92.539 E0.131
G1 X100.239 Y92.097 E0.17467
G1 X101.101 Y91.727 E0.21835
G1 X101.991 Y91.431 E0.26202
G1 X102.903 Y91.213 E0.30568
G1 X103.83 Y91.072 E0.34935
G1 X104.701 Y91.013 E0.39
G1 X105.33 Y91 E0.41929
G1 X129.451 Y91.001 E1.54247
G1 X130.149 Y91.011 E1.57497
G1 X131.085 Y91.065 E1.61863
G1 X132.013 Y91.197 E1.66227
G1 X132.927 Y91.409 E1.70596
G1 X133.819 Y91.698 E1.74962
G1 X134.684 Y92.061 E1.79331
G1 X135.514 Y92.497 E1.83696
G1 X136.305 Y93.002 E1.88066
G1 X137.049 Y93.573 E1.92433
G1 X137.742 Y94.205 E1.968
G1 X138.379 Y94.893 E2.01166
G1 X138.954 Y95.634 E2.05534
G1 X139.465 Y96.42 E2.09899
G1 X139.907 Y97.248 E2.1427
G1 X140.276 Y98.11 E2.18636
G1 X140.571 Y99 E2.23002
G1 X140.789 Y99.912 E2.27368
G1 X140.929 Y100.84 E2.31738
G1 X140.987 Y101.701 E2.35756
G1 X141 Y102.33 E2.38686
G1 X140.999 Y132.4 E3.78704
G1 X140.99 Y133.127 E3.8209
G1 X140.939 Y134.064 E3.86459
G1 X140.807 Y134.992 E3.90824
G1 X140.598 Y135.906 E3.9519
G1 X140.311 Y136.799 E3.99557
G1 X139.949 Y137.665 E4.03928
G1 X139.515 Y138.496 E4.08293
G1 X139.011 Y139.287 E4.12661
G1 X138.442 Y140.032 E4.17026
G1 X137.811 Y140.727 E4.21397
G1 X137.124 Y141.365 E4.25763
G1 X136.385 Y141.942 E4.30128
G1 X135.599 Y142.454 E4.34496
G1 X134.773 Y142.897 E4.38861
G1 X133.911 Y143.269 E4.43232
G1 X133.022 Y143.565 E4.47595
G1 X132.11 Y143.785 E4.51964
G1 X131.183 Y143.926 E4.5633
G1 X130.299 Y143.987 E4.60456
G1 X129.67 Y144 E4.63386
G1 X105.565 Y143.999 E5.75629
G1 X104.867 Y143.99 E5.78879
G1 X103.931 Y143.938 E5.83244
G1 X103.002 Y143.806 E5.87613
G1 X102.088 Y143.596 E5.9198
G1 X101.195 Y143.309 E5.96348
G1 X100.33 Y142.946 E6.00716
G1 X99.499 Y142.512 E6.05081
G1 X98.708 Y142.008 E6.09449
G1 X97.963 Y141.438 E6.13817
G1 X97.269 Y140.807 E6.18184
G1 X96.632 Y140.12 E6.22547
G1 X96.055 Y139.38 E6.26916
G1 X95.543 Y138.594 E6.31284
G1 X95.1 Y137.767 E6.35653
G1 X94.729 Y136.906 E6.40018
G1 X94.433 Y136.016 E6.44386
G1 X94.214 Y135.104 E6.48753
G1 X94.073 Y134.177 E6.53119
G1 X94.013 Y133.288 E6.57268
G1 X94 Y132.658 E6.60202
G1 X94.001 Y102.525 E8.00514
G1 X94.01 Y101.86 E8.03611
G1 X94.063 Y100.924 E8.07976
G1 X94.195 Y99.995 E8.12346
G1 X94.406 Y99.081 E8.16714
G1 X94.694 Y98.189 E8.21078
G1 X95.057 Y97.324 E8.25446
G1 X95.492 Y96.493 E8.29814
G1 X95.996 Y95.703 E8.34177
G1 X96.566 Y94.958 E8.38545
G1 X97.198 Y94.264 E8.42916
G0 F6000 X97.589 Y94.439
G1 F1200 X98.274 Y93.823 E8.47206
G1 X99.01 Y93.27 E8.51492
G1 X99.791 Y92.782 E8.55781
G1 X100.611 Y92.364 E8.60066
G1 X101.465 Y92.019 E8.64355
G1 X102.345 Y91.749 E8.68641
G1 X103.245 Y91.557 E8.72926
G1 X104.159 Y91.443 E8.77215
G1 X104.712 Y91.413 E8.79794
G1 X105.33 Y91.4 E8.82672
G1 X129.445 Y91.401 E9.94962
G1 X130.143 Y91.411 E9.98212
G1 X131.062 Y91.464 E10.02499
G1 X131.973 Y91.597 E10.06786
G1 X132.869 Y91.808 E10.11072
G1 X133.743 Y92.096 E10.15357
G1 X134.59 Y92.459 E10.19648
G1 X135.401 Y92.894 E10.23933
G1 X136.171 Y93.398 E10.28218
G1 X136.895 Y93.967 E10.32506
G1 X137.567 Y94.597 E10.36795
G1 X138.182 Y95.282 E10.41082
G1 X138.735 Y96.018 E10.45369
G1 X139.222 Y96.799 E10.49654
G1 X139.639 Y97.62 E10.53942
G1 X139.984 Y98.474 E10.58231
G1 X140.253 Y99.354 E10.62516
G1 X140.445 Y100.255 E10.66805
G1 X140.558 Y101.168 E10.71089
G1 X140.587 Y101.712 E10.73626
G1 X140.6 Y102.33 E10.76504
G1 X140.599 Y132.395 E12.16499
G1 X140.59 Y133.122 E12.19885
G1 X140.539 Y134.041 E12.24171
G1 X140.408 Y134.953 E12.28461
G1 X140.198 Y135.849 E12.32746
G1 X139.912 Y136.724 E12.37033
G1 X139.551 Y137.571 E12.4132
G1 X139.117 Y138.383 E12.45607
G1 X138.615 Y139.155 E12.49895
G1 X138.047 Y139.88 E12.54184
G1 X137.419 Y140.553 E12.5847
G1 X136.735 Y141.169 E12.62756
G1 X136 Y141.723 E12.67042
G1 X135.22 Y142.212 E12.71329
G1 X134.4 Y142.631 E12.75616
G1 X133.547 Y142.977 E12.79903
G1 X132.667 Y143.248 E12.8419
G1 X131.767 Y143.441 E12.88476
G1 X130.853 Y143.556 E12.92766
G1 X130.288 Y143.587 E12.95401
G1 X129.67 Y143.6 E12.98279
G1 X105.57 Y143.599 E14.10499
G1 X104.872 Y143.59 E14.13749
G1 X103.953 Y143.538 E14.18035
G1 X103.042 Y143.407 E14.22321
G1 X102.146 Y143.197 E14.26606
G1 X101.271 Y142.91 E14.30894
G1 X100.424 Y142.548 E14.35183
G1 X99.612 Y142.114 E14.3947
G1 X98.841 Y141.612 E14.43754
G1 X98.116 Y141.044 E14.48043
G1 X97.443 Y140.415 E14.52332
G1 X96.828 Y139.731 E14.56615
G1 X96.274 Y138.996 E14.60901
G1 X95.786 Y138.215 E14.65189
G1 X95.367 Y137.395 E14.69477
G1 X95.021 Y136.542 E14.73763
G1 X94.751 Y135.662 E14.7805
G1 X94.558 Y134.761 E14.8234
G1 X94.444 Y133.848 E14.86625
G1 X94.413 Y133.277 E14.89287
G1 X94.4 Y132.658 E14.9217
G1 X94.401 Y102.531 E16.32454
G1 X94.41 Y101.866 E16.35551
G1 X94.462 Y100.946 E16.39842
G1 X94.594 Y100.035 E16.44128
G1 X94.805 Y99.139 E16.48414
G1 X95.092 Y98.264 E16.52702
G1 X95.455 Y97.418 E16.56989
G1 X95.889 Y96.606 E16.61276
G1 X96.392 Y95.835 E16.65563
G1 X96.961 Y95.111 E16.6985
G1 X97.589 Y94.439 E16.74133
G0 F6000 X97.981 Y94.617
G1 F1200 X98.662 Y94.024 E16.78338
G1 X99.394 Y93.494 E16.82546
G1 X100.169 Y93.031 E16.8675
G1 X100.982 Y92.638 E16.90955
G1 X101.827 Y92.318 E16.95162
G1 X102.696 Y92.075 E16.99364
G1 X103.584 Y91.909 E17.0357
G1 X104.723 Y91.813 E17.08893
G1 X105.33 Y91.8 E17.1172
G1 X129.439 Y91.801 E18.23981
G1 X130.137 Y91.811 E18.27232
G1 X131.039 Y91.864 E18.31439
G1 X131.932 Y91.996 E18.35643
G1 X132.81 Y92.207 E18.39847
G1 X133.666 Y92.495 E18.44053
G1 X134.493 Y92.857 E18.48256
G1 X135.285 Y93.292 E18.52464
G1 X136.036 Y93.794 E18.5667
G1 X136.739 Y94.361 E18.60876
G1 X137.389 Y94.988 E18.65081
G1 X137.981 Y95.67 E18.69286
G1 X138.511 Y96.401 E18.7349
G1 X138.973 Y97.177 E18.77696
G1 X139.366 Y97.99 E18.81901
G1 X139.684 Y98.835 E18.86105
G1 X139.927 Y99.705 E18.90311
G1 X140.092 Y100.593 E18.94516
G1 X140.187 Y101.723 E18.99797
G1 X140.2 Y102.33 E19.02624
G1 X140.199 Y132.39 E20.42596
G1 X140.19 Y133.117 E20.45981
G1 X140.139 Y134.019 E20.50188
G1 X140.008 Y134.913 E20.54395
G1 X139.799 Y135.791 E20.58598
G1 X139.513 Y136.648 E20.62805
G1 X139.152 Y137.476 E20.67011
G1 X138.72 Y138.268 E20.71212
G1 X138.219 Y139.02 E20.75419
G1 X137.653 Y139.724 E20.79625
G1 X137.028 Y140.375 E20.83828
G1 X136.347 Y140.969 E20.88035
G1 X135.616 Y141.5 E20.92243
G1 X134.842 Y141.964 E20.96445
G1 X134.029 Y142.358 E21.00651
G1 X133.185 Y142.678 E21.04854
G1 X132.315 Y142.923 E21.09063
G1 X131.428 Y143.089 E21.13265
G1 X130.277 Y143.187 E21.18644
G1 X129.67 Y143.2 E21.21471
G1 X105.575 Y143.199 E22.33668
G1 X104.877 Y143.19 E22.36918
G1 X103.976 Y143.139 E22.4112
G1 X103.082 Y143.007 E22.45328
G1 X102.204 Y142.798 E22.49531
G1 X101.347 Y142.511 E22.53739
G1 X100.52 Y142.15 E22.57941
G1 X99.727 Y141.717 E22.62148
G1 X98.976 Y141.216 E22.66352
G1 X98.272 Y140.65 E22.70558
G1 X97.621 Y140.024 E22.74763
G1 X97.028 Y139.343 E22.78968
G1 X96.498 Y138.612 E22.83172
G1 X96.034 Y137.837 E22.87378
G1 X95.64 Y137.024 E22.91585
G1 X95.32 Y136.18 E22.95788
G1 X95.076 Y135.31 E22.99996
G1 X94.91 Y134.422 E23.04202
G1 X94.813 Y133.267 E23.09599
G1 X94.8 Y132.658 E23.12436
G1 X94.801 Y102.536 E24.52696
G1 X94.81 Y101.871 E24.55793
G1 X94.862 Y100.969 E24.6
G1 X94.994 Y100.076 E24.64204
G1 X95.204 Y99.198 E24.68407
G1 X95.491 Y98.341 E24.72616
G1 X95.853 Y97.514 E24.76819
G1 X96.286 Y96.722 E24.81022
G1 X96.788 Y95.971 E24.85229
G1 X97.355 Y95.267 E24.89438
G1 X97.981 Y94.617 E24.9364
G1 F2700 E19.9364
;MESH:caixa_31x25x15_1.5_0.6.stl
G0 F6000 X105.414 Y101.335
G0 X105.414 Y102.414
G0 X105.6 Y132.4
;TYPE:WALL-INNER
G1 F2700 E24.9364
G1 F1200 X105.6 Y102.6 E26.32401
G1 X129.4 Y102.6 E27.43224
G1 X129.4 Y132.4 E28.81985
G1 X105.6 Y132.4 E29.92808
G0 F6000 X105.2 Y132.8
;TYPE:WALL-OUTER
G1 F1200 X105.2 Y102.2 E31.35294
G1 X129.8 Y102.2 E32.49842
G1 X129.8 Y132.8 E33.92329
G1 X105.2 Y132.8 E35.06876
G0 F6000 X105.47 Y132.53
G0 X105.71 Y132.01
G0 X105.99 Y132.01
;TYPE:SKIN
G1 F1200 X105.99 Y102.99 E36.42006
G1 X129.01 Y102.99 E37.49197
G1 X129.01 Y132.01 E38.84326
G1 X105.99 Y132.01 E39.91517
G0 F6000 X106.393 Y131.849
G1 F1200 X106.149 Y131.605 E39.93123
G0 F6000 X106.149 Y131.039
G1 F1200 X106.959 Y131.849 E39.98457
G0 F6000 X107.524 Y131.849
G1 F1200 X106.149 Y130.473 E40.07515
G0 F6000 X106.149 Y129.908
G1 F1200 X108.09 Y131.849 E40.20297
G0 F6000 X108.656 Y131.849
G1 F1200 X106.149 Y129.342 E40.36806
G0 F6000 X106.149 Y128.776
G1 F1200 X109.221 Y131.849 E40.57039
G0 F6000 X109.787 Y131.849
G1 F1200 X106.149 Y128.211 E40.80996
G0 F6000 X106.149 Y127.645
G1 F1200 X110.353 Y131.849 E41.0868
G0 F6000 X110.918 Y131.849
G1 F1200 X106.149 Y127.079 E41.40088
G0 F6000 X106.149 Y126.514
G1 F1200 X111.484 Y131.849 E41.7522
G0 F6000 X112.05 Y131.849
G1 F1200 X106.149 Y125.948 E42.14079
G0 F6000 X106.149 Y125.382
G1 F1200 X112.615 Y131.849 E42.56662
G0 F6000 X113.181 Y131.849
G1 F1200 X106.149 Y124.817 E43.02969
G0 F6000 X106.149 Y124.251
G1 F1200 X113.747 Y131.849 E43.53003
G0 F6000 X114.313 Y131.849
G1 F1200 X106.149 Y123.685 E44.06764
G0 F6000 X106.149 Y123.12
G1 F1200 X114.878 Y131.849 E44.64246
G0 F6000 X115.444 Y131.849
G1 F1200 X106.149 Y122.554 E45.25455
G0 F6000 X106.149 Y121.988
G1 F1200 X116.01 Y131.849 E45.90392
G0 F6000 X116.575 Y131.849
G1 F1200 X106.149 Y121.422 E46.59052
G0 F6000 X106.149 Y120.857
G1 F1200 X117.141 Y131.849 E47.31436
G0 F6000 X117.707 Y131.849
G1 F1200 X106.149 Y120.291 E48.07548
G0 F6000 X106.149 Y119.725
G1 F1200 X118.272 Y131.849 E48.87383
G0 F6000 X118.838 Y131.849
G1 F1200 X106.149 Y119.16 E49.70942
G0 F6000 X106.149 Y118.594
G1 F1200 X119.404 Y131.849 E50.58229
G0 F6000 X119.969 Y131.849
G1 F1200 X106.149 Y118.028 E51.49239
G0 F6000 X106.149 Y117.463
G1 F1200 X120.535 Y131.849 E52.43973
G0 F6000 X121.101 Y131.849
G1 F1200 X106.149 Y116.897 E53.42435
G0 F6000 X106.149 Y116.331
G1 F1200 X121.666 Y131.849 E54.4462
G0 F6000 X122.232 Y131.849
G1 F1200 X106.149 Y115.766 E55.50529
G0 F6000 X106.149 Y115.2
G1 F1200 X122.798 Y131.849 E56.60166
G0 F6000 X123.363 Y131.849
G1 F1200 X106.149 Y114.634 E57.73526
G0 F6000 X106.149 Y114.069
G1 F1200 X123.929 Y131.849 E58.90611
G0 F6000 X124.495 Y131.849
G1 F1200 X106.149 Y113.503 E60.11422
G0 F6000 X106.149 Y112.937
G1 F1200 X125.061 Y131.849 E61.35961
G0 F6000 X125.626 Y131.849
G1 F1200 X106.149 Y112.371 E62.64224
G0 F6000 X106.149 Y111.806
G1 F1200 X126.192 Y131.849 E63.9621
G0 F6000 X126.758 Y131.849
G1 F1200 X106.149 Y111.24 E65.31924
G0 F6000 X106.149 Y110.674
G1 F1200 X127.323 Y131.849 E66.71362
G0 F6000 X127.889 Y131.849
G1 F1200 X106.149 Y110.109 E68.14523
G0 F6000 X106.149 Y109.543
G1 F1200 X128.455 Y131.849 E69.61412
G0 F6000 X128.849 Y131.678
G1 F1200 X106.149 Y108.977 E71.10899
G0 F6000 X106.149 Y108.412
G1 F1200 X128.849 Y131.112 E72.60382
G0 F6000 X128.849 Y130.546
G1 F1200 X106.149 Y107.846 E74.09866
G0 F6000 X106.149 Y107.28
G1 F1200 X128.849 Y129.981 E75.59352
G0 F6000 X128.849 Y129.415
G1 F1200 X106.149 Y106.715 E77.08836
G0 F6000 X106.149 Y106.149
G1 F1200 X128.849 Y128.849 E78.58319
G0 F6000 X128.849 Y128.284
G1 F1200 X106.149 Y105.583 E80.07806
G0 F6000 X106.149 Y105.018
G1 F1200 X128.849 Y127.718 E81.57289
G0 F6000 X128.849 Y127.152
G1 F1200 X106.149 Y104.452 E83.06772
G0 F6000 X106.149 Y103.886
G1 F1200 X128.849 Y126.586 E84.56256
G0 F6000 X128.849 Y126.021
G1 F1200 X106.149 Y103.321 E86.05739
G0 F6000 X106.544 Y103.149
G1 F1200 X128.849 Y125.455 E87.52625
G0 F6000 X128.849 Y124.889
G1 F1200 X107.109 Y103.149 E88.95786
G0 F6000 X107.675 Y103.149
G1 F1200 X128.849 Y124.324 E90.35224
G0 F6000 X128.849 Y123.758
G1 F1200 X108.241 Y103.149 E91.70934
G0 F6000 X108.806 Y103.149
G1 F1200 X128.849 Y123.192 E93.02921
G0 F6000 X128.849 Y122.627
G1 F1200 X109.372 Y103.149 E94.31184
G0 F6000 X109.938 Y103.149
G1 F1200 X128.849 Y122.061 E95.55719
G0 F6000 X128.849 Y121.495
G1 F1200 X110.503 Y103.149 E96.76531
G0 F6000 X111.069 Y103.149
G1 F1200 X128.849 Y120.93 E97.93618
G0 F6000 X128.849 Y120.364
G1 F1200 X111.635 Y103.149 E99.06979
G0 F6000 X112.2 Y103.149
G1 F1200 X128.849 Y119.798 E100.16615
G0 F6000 X128.849 Y119.233
G1 F1200 X112.766 Y103.149 E101.22528
G0 F6000 X113.332 Y103.149
G1 F1200 X128.849 Y118.667 E102.24713
G0 F6000 X128.849 Y118.101
G1 F1200 X113.897 Y103.149 E103.23175
G0 F6000 X114.463 Y103.149
G1 F1200 X128.849 Y117.535 E104.17909
G0 F6000 X128.849 Y116.97
G1 F1200 X115.029 Y103.149 E105.08919
G0 F6000 X115.594 Y103.149
G1 F1200 X128.849 Y116.404 E105.96206
G0 F6000 X128.849 Y115.838
G1 F1200 X116.16 Y103.149 E106.79765
G0 F6000 X116.726 Y103.149
G1 F1200 X128.849 Y115.273 E107.596
G0 F6000 X128.849 Y114.707
G1 F1200 X117.292 Y103.149 E108.35708
G0 F6000 X117.857 Y103.149
G1 F1200 X128.849 Y114.141 E109.08093
G0 F6000 X128.849 Y113.576
G1 F1200 X118.423 Y103.149 E109.76753
G0 F6000 X118.989 Y103.149
G1 F1200 X128.849 Y113.01 E110.41686
G0 F6000 X128.849 Y112.444
G1 F1200 X119.554 Y103.149 E111.02895
G0 F6000 X120.12 Y103.149
G1 F1200 X128.849 Y111.879 E111.6038
G0 F6000 X128.849 Y111.313
G1 F1200 X120.686 Y103.149 E112.14138
G0 F6000 X121.251 Y103.149
G1 F1200 X128.849 Y110.747 E112.64173
G0 F6000 X128.849 Y110.182
G1 F1200 X121.817 Y103.149 E113.10483
G0 F6000 X122.383 Y103.149
G1 F1200 X128.849 Y109.616 E113.53066
G0 F6000 X128.849 Y109.05
G1 F1200 X122.948 Y103.149 E113.91925
G0 F6000 X123.514 Y103.149
G1 F1200 X128.849 Y108.485 E114.2706
G0 F6000 X128.849 Y107.919
G1 F1200 X124.08 Y103.149 E114.58468
G0 F6000 X124.645 Y103.149
G1 F1200 X128.849 Y107.353 E114.86152
G0 F6000 X128.849 Y106.787
G1 F1200 X125.211 Y103.149 E115.10109
G0 F6000 X125.777 Y103.149
G1 F1200 X128.849 Y106.222 E115.30342
G0 F6000 X128.849 Y105.656
G1 F1200 X126.343 Y103.149 E115.46848
G0 F6000 X126.908 Y103.149
G1 F1200 X128.849 Y105.09 E115.59629
G0 F6000 X128.849 Y104.525
G1 F1200 X127.474 Y103.149 E115.68687
G0 F6000 X128.04 Y103.149
G1 F1200 X128.849 Y103.959 E115.74018
G0 F6000 X128.849 Y103.393
G1 F1200 X128.605 Y103.149 E115.75625
G0 F6000 X128.605 Y102.8
G1 F2700 E110.75625
;MESH:NONMESH
G0 F300 X128.605 Y102.8 Z0.56
G0 F6000 X128.605 Y102.71
G0 X105.782 Y102.782
G0 X105.6 Y132.4
;TIME_ELAPSED:137.835034
;LAYER:1
M140 S50
M106 S85
;TYPE:WALL-INNER
;MESH:caixa_31x25x15_1.5_0.6.stl
G1 F2700 E115.75625
G1 F1350 X105.6 Y102.6 E117.14386
G1 X129.4 Y102.6 E118.25209
G1 X129.4 Y132.4 E119.6397
G1 X105.6 Y132.4 E120.74793
G0 F7500 X105.2 Y132.8
;TYPE:WALL-OUTER
G1 F1350 X105.2 Y102.2 E122.17279
G1 X129.8 Y102.2 E123.31827
G1 X129.8 Y132.8 E124.74314
G1 X105.2 Y132.8 E125.88862
G0 F7500 X105.47 Y132.53
G0 X105.71 Y132.01
G0 X105.99 Y132.01
;TYPE:SKIN
G1 F1350 X105.99 Y102.99 E127.23991
G1 X129.01 Y102.99 E128.31182
G1 X129.01 Y132.01 E129.66311
G1 X105.99 Y132.01 E130.73502
G0 F7500 X105.71 Y132.01
G0 X105.782 Y132.218
G0 X129.218 Y132.218
G0 X129.29 Y131.366
G0 X128.848 Y131.366
G1 F1350 X128.366 Y131.849 E130.76679
G0 F7500 X127.8 Y131.849
G1 F1350 X128.848 Y130.8 E130.83584
G0 F7500 X128.848 Y130.234
G1 F1350 X127.234 Y131.849 E130.94215
G0 F7500 X126.668 Y131.849
G1 F1350 X128.848 Y129.669 E131.08571
G0 F7500 X128.848 Y129.103
G1 F1350 X126.103 Y131.849 E131.26651
G0 F7500 X125.537 Y131.849
G1 F1350 X128.848 Y128.537 E131.48457
G0 F7500 X128.848 Y127.972
G1 F1350 X124.971 Y131.849 E131.73988
G0 F7500 X124.406 Y131.849
