;FLAVOR:Marlin
;TIME:1481
;Filament used: 1.51021m
;Layer height: 0.28
;MINX:89
;MINY:89
;MINZ:0.28
;MAXX:146
;MAXY:146
;MAXZ:14.84
;Generated with Cura_SteamEngine 4.5.0
M140 S50
M105
M190 S50
M104 S200
M105
M109 S200
M82 ;absolute extrusion mode
; Ender 3 Custom Start G-code
G92 E0 ; Reset Extruder
G28 ; Home all axes
G1 Z2.0 F3000 ; Move Z Axis up little to prevent scratching of Heat Bed
G1 X0.1 Y20 Z0.3 F5000.0 ; Move to start position
G1 X0.1 Y200.0 Z0.3 F1500.0 E15 ; Draw the first line
G1 X0.4 Y200.0 Z0.3 F5000.0 ; Move to side a little
G1 X0.4 Y20 Z0.3 F1500.0 E30 ; Draw the second line
G92 E0 ; Reset Extruder
G1 Z2.0 F3000 ; Move Z Axis up little to prevent scratching of Heat Bed
G1 X5 Y20 Z0.3 F5000.0 ; Move over to prevent blob squish
G92 E0
G92 E0
G1 F2700 E-5
;LAYER_COUNT:53
;LAYER:0
M107
G0 F6000 X92.198 Y92.264 Z0.28
;TYPE:SKIRT
G1 F2700 E0
G1 F1200 X92.886 Y91.627 E0.04366
G1 X93.626 Y91.051 E0.08732
G1 X94.412 Y90.539 E0.131
G1 X95.239 Y90.097 E0.17467
G1 X96.101 Y89.727 E0.21835
G1 X96.991 Y89.431 E0.26202
G1 X97.903 Y89.213 E0.30568
G1 X98.83 Y89.072 E0.34935
G1 X99.701 Y89.013 E0.39
G1 X100.33 Y89 E0.41929
G1 X134.451 Y89.001 E2.00811
G1 X135.149 Y89.011 E2.04061
G1 X136.085 Y89.065 E2.08427
G1 X137.013 Y89.197 E2.12792
G1 X137.927 Y89.409 E2.17161
G1 X138.819 Y89.698 E2.21527
G1 X139.684 Y90.061 E2.25895
G1 X140.514 Y90.497 E2.3026
G1 X141.305 Y91.002 E2.3463
G1 X142.049 Y91.573 E2.38997
G1 X142.742 Y92.205 E2.43365
G1 X143.379 Y92.893 E2.4773
G1 X143.954 Y93.634 E2.52098
G1 X144.465 Y94.42 E2.56463
G1 X144.907 Y95.248 E2.60834
G1 X145.276 Y96.11 E2.652
G1 X145.571 Y97 E2.69566
G1 X145.789 Y97.912 E2.73932
G1 X145.929 Y98.84 E2.78302
G1 X145.987 Y99.701 E2.8232
G1 X146 Y100.33 E2.8525
G1 X145.999 Y134.4 E4.43894
G1 X145.99 Y135.127 E4.4728
G1 X145.939 Y136.064 E4.51649
G1 X145.807 Y136.992 E4.56014
G1 X145.598 Y137.906 E4.6038
G1 X145.311 Y138.799 E4.64747
G1 X144.949 Y139.665 E4.69118
G1 X144.515 Y140.496 E4.73483
G1 X144.011 Y141.287 E4.77851
G1 X143.442 Y142.032 E4.82216
G1 X142.811 Y142.727 E4.86587
G1 X142.124 Y143.365 E4.90952
G1 X141.385 Y143.942 E4.95318
G1 X140.599 Y144.454 E4.99686
G1 X139.773 Y144.897 E5.04051
G1 X138.911 Y145.269 E5.08422
G1 X138.022 Y145.565 E5.12785
G1 X137.11 Y145.785 E5.17154
G1 X136.183 Y145.926 E5.2152
G1 X135.299 Y145.987 E5.25646
G1 X134.67 Y146 E5.28575
G1 X100.565 Y145.999 E6.87383
G1 X99.867 Y145.99 E6.90633
G1 X98.931 Y145.938 E6.94998
G1 X98.002 Y145.806 E6.99367
G1 X97.088 Y145.596 E7.03734
G1 X96.195 Y145.309 E7.08102
G1 X95.33 Y144.946 E7.1247
G1 X94.499 Y144.512 E7.16835
G1 X93.708 Y144.008 E7.21203
G1 X92.963 Y143.438 E7.25571
G1 X92.269 Y142.807 E7.29938
G1 X91.632 Y142.12 E7.34301
G1 X91.055 Y141.38 E7.3867
G1 X90.543 Y140.594 E7.43038
G1 X90.1 Y139.767 E7.47407
G1 X89.729 Y138.906 E7.51772
G1 X89.433 Y138.016 E7.5614
G1 X89.214 Y137.104 E7.60507
G1 X89.073 Y136.177 E7.64873
G1 X89.013 Y135.288 E7.69022
G1 X89 Y134.658 E7.71956
G1 X89.001 Y100.525 E9.30894
G1 X89.01 Y99.86 E9.33991
G1 X89.063 Y98.924 E9.38356
G1 X89.195 Y97.995 E9.42725
G1 X89.406 Y97.081 E9.47093
G1 X89.694 Y96.189 E9.51458
G1 X90.057 Y95.324 E9.55826
G1 X90.492 Y94.493 E9.60194
G1 X90.996 Y93.703 E9.64557
G1 X91.566 Y92.958 E9.68925
G1 X92.198 Y92.264 E9.73296
G0 F6000 X92.589 Y92.439
G1 F1200 X93.274 Y91.823 E9.77585
G1 X94.01 Y91.27 E9.81872
G1 X94.791 Y90.782 E9.8616
G1 X95.611 Y90.364 E9.90446
G1 X96.465 Y90.019 E9.94735
G1 X97.345 Y89.749 E9.99021
G1 X98.245 Y89.557 E10.03306
G1 X99.159 Y89.443 E10.07595
G1 X99.712 Y89.413 E10.10174
G1 X100.33 Y89.4 E10.13052
G1 X134.445 Y89.401 E11.71906
G1 X135.143 Y89.411 E11.75156
G1 X136.062 Y89.464 E11.79443
G1 X136.973 Y89.597 E11.8373
G1 X137.869 Y89.808 E11.88016
G1 X138.743 Y90.096 E11.92301
G1 X139.59 Y90.459 E11.96592
G1 X140.401 Y90.894 E12.00877
G1 X141.171 Y91.398 E12.05162
G1 X141.895 Y91.967 E12.0945
G1 X142.567 Y92.597 E12.13739
G1 X143.182 Y93.282 E12.18026
G1 X143.735 Y94.018 E12.22313
G1 X144.222 Y94.799 E12.26598
G1 X144.639 Y95.62 E12.30886
G1 X144.984 Y96.474 E12.35175
G1 X145.253 Y97.354 E12.3946
G1 X145.445 Y98.255 E12.43749
G1 X145.558 Y99.168 E12.48033
G1 X145.587 Y99.712 E12.5057
G1 X145.6 Y100.33 E12.53448
G1 X145.599 Y134.395 E14.12069
G1 X145.59 Y135.122 E14.15454
G1 X145.539 Y136.041 E14.1974
G1 X145.408 Y136.953 E14.24031
G1 X145.198 Y137.849 E14.28316
G1 X144.912 Y138.724 E14.32602
G1 X144.551 Y139.571 E14.3689
G1 X144.117 Y140.383 E14.41177
G1 X143.615 Y141.155 E14.45465
G1 X143.047 Y141.88 E14.49753
G1 X142.419 Y142.553 E14.54039
G1 X141.735 Y143.169 E14.58326
G1 X141 Y143.723 E14.62611
G1 X140.22 Y144.212 E14.66898
G1 X139.4 Y144.631 E14.71186
G1 X138.547 Y144.977 E14.75472
G1 X137.667 Y145.248 E14.7976
G1 X136.767 Y145.441 E14.84046
G1 X135.853 Y145.556 E14.88335
G1 X135.288 Y145.587 E14.9097
G1 X134.67 Y145.6 E14.93849
G1 X100.57 Y145.599 E16.52632
G1 X99.872 Y145.59 E16.55883
G1 X98.953 Y145.538 E16.60169
G1 X98.042 Y145.407 E16.64455
G1 X97.146 Y145.197 E16.6874
G1 X96.271 Y144.91 E16.73028
G1 X95.424 Y144.548 E16.77317
G1 X94.612 Y144.114 E16.81604
G1 X93.841 Y143.612 E16.85888
G1 X93.116 Y143.044 E16.90177
G1 X92.443 Y142.415 E16.94466
G1 X91.828 Y141.731 E16.98749
G1 X91.274 Y140.996 E17.03035
G1 X90.786 Y140.215 E17.07323
G1 X90.367 Y139.395 E17.11611
G1 X90.021 Y138.542 E17.15897
G1 X89.751 Y137.662 E17.20183
G1 X89.558 Y136.761 E17.24474
G1 X89.444 Y135.848 E17.28758
G1 X89.413 Y135.277 E17.31421
G1 X89.4 Y134.658 E17.34304
G1 X89.401 Y100.531 E18.93214
G1 X89.41 Y99.866 E18.9631
G1 X89.462 Y98.946 E19.00601
G1 X89.594 Y98.035 E19.04887
G1 X89.805 Y97.139 E19.09174
G1 X90.092 Y96.264 E19.13462
G1 X90.455 Y95.418 E19.17748
G1 X90.889 Y94.606 E19.22036
G1 X91.392 Y93.835 E19.26322
G1 X91.961 Y93.111 E19.3061
G1 X92.589 Y92.439 E19.34893
G0 F6000 X92.981 Y92.617
G1 F1200 X93.662 Y92.024 E19.39097
G1 X94.394 Y91.494 E19.43306
G1 X95.169 Y91.031 E19.47509
G1 X95.982 Y90.638 E19.51714
G1 X96.827 Y90.318 E19.55921
G1 X97.696 Y90.075 E19.60123
G1 X98.584 Y89.909 E19.6433
G1 X99.723 Y89.813 E19.69652
G1 X100.33 Y89.8 E19.72479
G1 X134.439 Y89.801 E21.31305
G1 X135.137 Y89.811 E21.34555
G1 X136.039 Y89.864 E21.38763
G1 X136.932 Y89.996 E21.42966
G1 X137.81 Y90.207 E21.47171
G1 X138.666 Y90.495 E21.51376
G1 X139.493 Y90.857 E21.5558
G1 X140.285 Y91.292 E21.59787
G1 X141.036 Y91.794 E21.63994
G1 X141.739 Y92.361 E21.68199
G1 X142.389 Y92.988 E21.72405
G1 X142.981 Y93.67 E21.7661
G1 X143.511 Y94.401 E21.80814
G1 X143.973 Y95.177 E21.85019
G1 X144.366 Y95.99 E21.89224
G1 X144.684 Y96.835 E21.93428
G1 X144.927 Y97.705 E21.97634
G1 X145.092 Y98.593 E22.0184
G1 X145.187 Y99.723 E22.0712
G1 X145.2 Y100.33 E22.09948
G1 X145.199 Y134.39 E23.68545
G1 X145.19 Y135.117 E23.71931
G1 X145.139 Y136.019 E23.76137
G1 X145.008 Y136.913 E23.80345
G1 X144.799 Y137.791 E23.84547
G1 X144.513 Y138.648 E23.88754
G1 X144.152 Y139.476 E23.9296
G1 X143.72 Y140.268 E23.97161
G1 X143.219 Y141.02 E24.01369
G1 X142.653 Y141.724 E24.05575
G1 X142.028 Y142.375 E24.09777
G1 X141.347 Y142.969 E24.13985
G1 X140.616 Y143.5 E24.18192
G1 X139.842 Y143.964 E24.22394
G1 X139.029 Y144.358 E24.26601
G1 X138.185 Y144.678 E24.30804
G1 X137.315 Y144.923 E24.35012
G1 X136.428 Y145.089 E24.39214
G1 X135.277 Y145.187 E24.44593
G1 X134.67 Y145.2 E24.4742
G1 X100.575 Y145.199 E26.06181
G1 X99.877 Y145.19 E26.09431
G1 X98.976 Y145.139 E26.13634
G1 X98.082 Y145.007 E26.17842
G1 X97.204 Y144.798 E26.22044
G1 X96.347 Y144.511 E26.26253
G1 X95.52 Y144.15 E26.30454
G1 X94.727 Y143.717 E26.34661
G1 X93.976 Y143.216 E26.38865
G1 X93.272 Y142.65 E26.43071
G1 X92.621 Y142.024 E26.47277
G1 X92.028 Y141.343 E26.51482
G1 X91.498 Y140.612 E26.55686
G1 X91.034 Y139.837 E26.59892
G1 X90.64 Y139.024 E26.64099
G1 X90.32 Y138.18 E26.68302
G1 X90.076 Y137.31 E26.72509
G1 X89.91 Y136.422 E26.76716
G1 X89.813 Y135.267 E26.82113
G1 X89.8 Y134.658 E26.84949
G1 X89.801 Y100.536 E28.43835
G1 X89.81 Y99.871 E28.46932
G1 X89.862 Y98.969 E28.51139
G1 X89.994 Y98.076 E28.55343
G1 X90.204 Y97.198 E28.59546
G1 X90.491 Y96.341 E28.63755
G1 X90.853 Y95.514 E28.67958
G1 X91.286 Y94.722 E28.72161
G1 X91.788 Y93.971 E28.76368
G1 X92.355 Y93.267 E28.80577
G1 X92.981 Y92.617 E28.84779
G1 F2700 E23.84779
;MESH:caixa_35x35x15_1.5_0.6.stl
G0 F6000 X100.414 Y99.335
G0 X100.414 Y100.414
G0 X100.6 Y134.4
;TYPE:WALL-INNER
G1 F2700 E28.84779
G1 F1200 X100.6 Y100.6 E30.42166
G1 X134.4 Y100.6 E31.99553
G1 X134.4 Y134.4 E33.5694
G1 X100.6 Y134.4 E35.14327
G0 F6000 X100.2 Y134.8
;TYPE:WALL-OUTER
G1 F1200 X100.2 Y100.2 E36.75439
G1 X134.8 Y100.2 E38.36551
G1 X134.8 Y134.8 E39.97663
G1 X100.2 Y134.8 E41.58775
G0 F6000 X100.47 Y134.53
G0 X100.71 Y134.01
G0 X100.99 Y134.01
;TYPE:SKIN
G1 F1200 X100.99 Y100.99 E43.1253
G1 X134.01 Y100.99 E44.66285
G1 X134.01 Y134.01 E46.2004
G1 X100.99 Y134.01 E47.73795
G0 F6000 X101.605 Y133.849
G1 F1200 X101.149 Y133.393 E47.76798
G0 F6000 X101.149 Y132.827
G1 F1200 X102.171 Y133.849 E47.83528
G0 F6000 X102.736 Y133.849
G1 F1200 X101.149 Y132.262 E47.93978
G0 F6000 X101.149 Y131.696
G1 F1200 X103.302 Y133.849 E48.08156
G0 F6000 X103.868 Y133.849
G1 F1200 X101.149 Y131.13 E48.26061
G0 F6000 X101.149 Y130.565
G1 F1200 X104.434 Y133.849 E48.4769
G0 F6000 X104.999 Y133.849
G1 F1200 X101.149 Y129.999 E48.73043
G0 F6000 X101.149 Y129.433
G1 F1200 X105.565 Y133.849 E49.02123
G0 F6000 X106.131 Y133.849
G1 F1200 X101.149 Y128.868 E49.34927
G0 F6000 X101.149 Y128.302
G1 F1200 X106.696 Y133.849 E49.71455
G0 F6000 X107.262 Y133.849
G1 F1200 X101.149 Y127.736 E50.11711
G0 F6000 X101.149 Y127.171
G1 F1200 X107.828 Y133.849 E50.5569
G0 F6000 X108.393 Y133.849
G1 F1200 X101.149 Y126.605 E51.03393
G0 F6000 X101.149 Y126.039
G1 F1200 X108.959 Y133.849 E51.54823
G0 F6000 X109.525 Y133.849
G1 F1200 X101.149 Y125.473 E52.0998
G0 F6000 X101.149 Y124.908
G1 F1200 X110.09 Y133.849 E52.68858
G0 F6000 X110.656 Y133.849
G1 F1200 X101.149 Y124.342 E53.31463
G0 F6000 X101.149 Y123.776
G1 F1200 X111.222 Y133.849 E53.97796
G0 F6000 X111.787 Y133.849
G1 F1200 X101.149 Y123.211 E54.67849
G0 F6000 X101.149 Y122.645
G1 F1200 X112.353 Y133.849 E55.41629
G0 F6000 X112.919 Y133.849
G1 F1200 X101.149 Y122.079 E56.19137
G0 F6000 X101.149 Y121.514
G1 F1200 X113.484 Y133.849 E57.00365
G0 F6000 X114.05 Y133.849
G1 F1200 X101.149 Y120.948 E57.8532
G0 F6000 X101.149 Y120.382
G1 F1200 X114.616 Y133.849 E58.74002
G0 F6000 X115.182 Y133.849
G1 F1200 X101.149 Y119.817 E59.66409
G0 F6000 X101.149 Y119.251
G1 F1200 X115.747 Y133.849 E60.62539
G0 F6000 X116.313 Y133.849
G1 F1200 X101.149 Y118.685 E61.62397
G0 F6000 X101.149 Y118.12
G1 F1200 X116.879 Y133.849 E62.65978
G0 F6000 X117.444 Y133.849
G1 F1200 X101.149 Y117.554 E63.73284
G0 F6000 X101.149 Y116.988
G1 F1200 X118.01 Y133.849 E64.84316
G0 F6000 X118.576 Y133.849
G1 F1200 X101.149 Y116.423 E65.99073
G0 F6000 X101.149 Y115.857
G1 F1200 X119.141 Y133.849 E67.17553
G0 F6000 X119.707 Y133.849
G1 F1200 X101.149 Y115.291 E68.39761
G0 F6000 X101.149 Y114.725
G1 F1200 X120.273 Y133.849 E69.65695
G0 F6000 X120.838 Y133.849
G1 F1200 X101.149 Y114.16 E70.95351
G0 F6000 X101.149 Y113.594
G1 F1200 X121.404 Y133.849 E72.28733
G0 F6000 X121.97 Y133.849
G1 F1200 X101.149 Y113.028 E73.65843
G0 F6000 X101.149 Y112.463
G1 F1200 X122.535 Y133.849 E75.06674
G0 F6000 X123.101 Y133.849
G1 F1200 X101.149 Y111.897 E76.51231
G0 F6000 X101.149 Y111.331
G1 F1200 X123.667 Y133.849 E77.99516
G0 F6000 X124.233 Y133.849
G1 F1200 X101.149 Y110.766 E79.51525
G0 F6000 X101.149 Y110.2
G1 F1200 X124.798 Y133.849 E81.07258
G0 F6000 X125.364 Y133.849
G1 F1200 X101.149 Y109.634 E82.66718
G0 F6000 X101.149 Y109.069
G1 F1200 X125.93 Y133.849 E84.29902
G0 F6000 X126.495 Y133.849
G1 F1200 X101.149 Y108.503 E85.96809
G0 F6000 X101.149 Y107.937
G1 F1200 X127.061 Y133.849 E87.67444
G0 F6000 X127.627 Y133.849
G1 F1200 X101.149 Y107.372 E89.41803
G0 F6000 X101.149 Y106.806
G1 F1200 X128.192 Y133.849 E91.19886
G0 F6000 X128.758 Y133.849
G1 F1200 X101.149 Y106.24 E93.01696
G0 F6000 X101.149 Y105.674
G1 F1200 X129.324 Y133.849 E94.87233
G0 F6000 X129.889 Y133.849
G1 F1200 X101.149 Y105.109 E96.76491
G0 F6000 X101.149 Y104.543
G1 F1200 X130.455 Y133.849 E98.69476
G0 F6000 X131.021 Y133.849
G1 F1200 X101.149 Y103.977 E100.66188
G0 F6000 X101.149 Y103.412
G1 F1200 X131.586 Y133.849 E102.66621
G0 F6000 X132.152 Y133.849
G1 F1200 X101.149 Y102.846 E104.70781
G0 F6000 X101.149 Y102.28
G1 F1200 X132.718 Y133.849 E106.78668
G0 F6000 X133.283 Y133.849
G1 F1200 X101.149 Y101.715 E108.90276
G0 F6000 X101.149 Y101.149
G1 F1200 X133.849 Y133.849 E111.05611
G0 F6000 X133.849 Y133.283
G1 F1200 X101.715 Y101.15 E113.17216
G0 F6000 X102.281 Y101.15
G1 F1200 X133.849 Y132.718 E115.25096
G0 F6000 X133.849 Y132.152
G1 F1200 X102.847 Y101.15 E117.2925
G0 F6000 X103.412 Y101.15
G1 F1200 X133.849 Y131.586 E119.29679
G0 F6000 X133.849 Y131.021
G1 F1200 X103.978 Y101.15 E121.26385
G0 F6000 X104.544 Y101.15
G1 F1200 X133.849 Y130.455 E123.19363
G0 F6000 X133.849 Y129.889
G1 F1200 X105.11 Y101.15 E125.08615
G0 F6000 X105.675 Y101.15
G1 F1200 X133.849 Y129.324 E126.94145
G0 F6000 X133.849 Y128.758
G1 F1200 X106.241 Y101.15 E128.75949
G0 F6000 X106.807 Y101.15
G1 F1200 X133.849 Y128.192 E130.54025
G0 F6000 X133.849 Y127.627
G1 F1200 X107.372 Y101.15 E132.2838
G0 F6000 X107.938 Y101.15
G1 F1200 X133.849 Y127.061 E133.99009
G0 F6000 X133.849 Y126.495
G1 F1200 X108.504 Y101.15 E135.6591
G0 F6000 X109.069 Y101.15
G1 F1200 X133.849 Y125.93 E137.2909
G0 F6000 X133.849 Y125.364
G1 F1200 X109.635 Y101.15 E138.88544
G0 F6000 X110.201 Y101.15
G1 F1200 X133.849 Y124.798 E140.4427
G0 F6000 X133.849 Y124.233
G1 F1200 X110.766 Y101.15 E141.96275
G0 F6000 X111.332 Y101.15
G1 F1200 X133.849 Y123.667 E143.44554
G0 F6000 X133.849 Y123.101
G1 F1200 X111.898 Y101.15 E144.89105
G0 F6000 X112.463 Y101.15
G1 F1200 X133.849 Y122.535 E146.29932
G0 F6000 X133.849 Y121.97
G1 F1200 X113.029 Y101.15 E147.67035
G0 F6000 X113.595 Y101.15
G1 F1200 X133.849 Y121.404 E149.00411
G0 F6000 X133.849 Y120.838
G1 F1200 X114.16 Y101.15 E150.30063
G0 F6000 X114.726 Y101.15
G1 F1200 X133.849 Y120.273 E151.55992
G0 F6000 X133.849 Y119.707
G1 F1200 X115.292 Y101.15 E152.78193
G0 F6000 X115.858 Y101.15
G1 F1200 X133.849 Y119.141 E153.96666
G0 F6000 X133.849 Y118.576
G1 F1200 X116.423 Y101.15 E155.1142
G0 F6000 X116.989 Y101.15
G1 F1200 X133.849 Y118.01 E156.22446
G0 F6000 X133.849 Y117.444
G1 F1200 X117.555 Y101.15 E157.29744
G0 F6000 X118.12 Y101.15
G1 F1200 X133.849 Y116.879 E158.33323
G0 F6000 X133.849 Y116.313
G1 F1200 X118.686 Y101.15 E159.33173
G0 F6000 X119.252 Y101.15
G1 F1200 X133.849 Y115.747 E160.29297
G0 F6000 X133.849 Y115.182
G1 F1200 X119.817 Y101.15 E161.217
G0 F6000 X120.383 Y101.15
G1 F1200 X133.849 Y114.616 E162.10376
G0 F6000 X133.849 Y114.05
G1 F1200 X120.949 Y101.15 E162.95325
G0 F6000 X121.514 Y101.15
G1 F1200 X133.849 Y113.484 E163.7655
G0 F6000 X133.849 Y112.919
G1 F1200 X122.08 Y101.15 E164.54051
G0 F6000 X122.646 Y101.15
G1 F1200 X133.849 Y112.353 E165.27824
G0 F6000 X133.849 Y111.787
G1 F1200 X123.211 Y101.15 E165.97874
G0 F6000 X123.777 Y101.15
G1 F1200 X133.849 Y111.222 E166.642
G0 F6000 X133.849 Y110.656
G1 F1200 X124.343 Y101.15 E167.26799
G0 F6000 X124.908 Y101.15
G1 F1200 X133.849 Y110.09 E167.85673
G0 F6000 X133.849 Y109.525
G1 F1200 X125.474 Y101.15 E168.40824
G0 F6000 X126.04 Y101.15
G1 F1200 X133.849 Y108.959 E168.92248
G0 F6000 X133.849 Y108.393
G1 F1200 X126.606 Y101.15 E169.39944
G0 F6000 X127.171 Y101.15
G1 F1200 X133.849 Y107.828 E169.8392
G0 F6000 X133.849 Y107.262
G1 F1200 X127.737 Y101.15 E170.24168
G0 F6000 X128.303 Y101.15
G1 F1200 X133.849 Y106.696 E170.6069
G0 F6000 X133.849 Y106.131
G1 F1200 X128.868 Y101.15 E170.9349
G0 F6000 X129.434 Y101.15
G1 F1200 X133.849 Y105.565 E171.22564
G0 F6000 X133.849 Y104.999
G1 F1200 X130 Y101.15 E171.4791
G0 F6000 X130.565 Y101.15
G1 F1200 X133.849 Y104.434 E171.69536
G0 F6000 X133.849 Y103.868
G1 F1200 X131.131 Y101.15 E171.87435
G0 F6000 X131.697 Y101.15
G1 F1200 X133.849 Y103.302 E172.01606
G0 F6000 X133.849 Y102.736
G1 F1200 X132.262 Y101.15 E172.12053
G0 F6000 X132.828 Y101.15
