;FLAVOR:Marlin
;TIME:2110
;Filament used: 2.167m
;Layer height: 0.28
;MINX:76.5
;MINY:89
;MINZ:0.28
;MAXX:158.5
;MAXY:146
;MAXZ:14.84
;Generated with Cura_SteamEngine 4.5.0
M140 S50
M105
M190 S50
M104 S200
M105
M109 S200
M82 ;absolute extrusion mode
; Ender 3 Custom Start G-code
G92 E0 ; Reset Extruder
G28 ; Home all axes
G1 Z2.0 F3000 ; Move Z Axis up little to prevent scratching of Heat Bed
G1 X0.1 Y20 Z0.3 F5000.0 ; Move to start position
G1 X0.1 Y200.0 Z0.3 F1500.0 E15 ; Draw the first line
G1 X0.4 Y200.0 Z0.3 F5000.0 ; Move to side a little
G1 X0.4 Y20 Z0.3 F1500.0 E30 ; Draw the second line
G92 E0 ; Reset Extruder
G1 Z2.0 F3000 ; Move Z Axis up little to prevent scratching of Heat Bed
G1 X5 Y20 Z0.3 F5000.0 ; Move over to prevent blob squish
G92 E0
G92 E0
G1 F2700 E-5
;LAYER_COUNT:53
;LAYER:0
M107
G0 F6000 X80.386 Y91.627 Z0.28
;TYPE:SKIRT
G1 F2700 E0
G1 F1200 X81.126 Y91.051 E0.04367
G1 X81.912 Y90.539 E0.08735
G1 X82.739 Y90.097 E0.13101
G1 X83.601 Y89.727 E0.17469
G1 X84.491 Y89.431 E0.21836
G1 X85.403 Y89.213 E0.26203
G1 X86.33 Y89.072 E0.30569
G1 X87.201 Y89.013 E0.34634
G1 X87.83 Y89 E0.37563
G1 X146.793 Y89 E3.1212
G1 X146.951 Y89.001 E3.12855
G1 X147.649 Y89.011 E3.16106
G1 X148.585 Y89.065 E3.20472
G1 X149.513 Y89.197 E3.24836
G1 X150.427 Y89.409 E3.29205
G1 X151.319 Y89.698 E3.33571
G1 X152.184 Y90.061 E3.37939
G1 X153.014 Y90.497 E3.42305
G1 X153.805 Y91.002 E3.46675
G1 X154.549 Y91.573 E3.51042
G1 X155.242 Y92.205 E3.55409
G1 X155.879 Y92.893 E3.59775
G1 X156.454 Y93.634 E3.64142
G1 X156.965 Y94.42 E3.68508
G1 X157.407 Y95.248 E3.72878
G1 X157.776 Y96.11 E3.77244
G1 X158.071 Y97 E3.8161
G1 X158.289 Y97.912 E3.85977
G1 X158.429 Y98.84 E3.90347
G1 X158.487 Y99.701 E3.94365
G1 X158.5 Y100.33 E3.97295
G1 X158.499 Y134.4 E5.55939
G1 X158.49 Y135.127 E5.59324
G1 X158.439 Y136.064 E5.63694
G1 X158.307 Y136.992 E5.68058
G1 X158.098 Y137.906 E5.72424
G1 X157.811 Y138.799 E5.76792
G1 X157.449 Y139.665 E5.81162
G1 X157.015 Y140.496 E5.85528
G1 X156.511 Y141.287 E5.89895
G1 X155.942 Y142.032 E5.9426
G1 X155.311 Y142.727 E5.98631
G1 X154.624 Y143.365 E6.02997
G1 X153.885 Y143.942 E6.07363
G1 X153.099 Y144.454 E6.11731
G1 X152.273 Y144.897 E6.16095
G1 X151.411 Y145.269 E6.20467
G1 X150.522 Y145.565 E6.2483
G1 X149.61 Y145.785 E6.29198
G1 X148.683 Y145.926 E6.33564
G1 X147.799 Y145.987 E6.3769
G1 X147.17 Y146 E6.4062
G1 X88.207 Y146 E9.15176
G1 X87.367 Y145.99 E9.19088
G1 X86.431 Y145.938 E9.23453
G1 X85.502 Y145.806 E9.27822
G1 X84.588 Y145.596 E9.32189
G1 X83.695 Y145.309 E9.36557
G1 X82.83 Y144.946 E9.40925
G1 X81.999 Y144.512 E9.4529
G1 X81.208 Y144.008 E9.49658
G1 X80.463 Y143.438 E9.54026
G1 X79.769 Y142.807 E9.58393
G1 X79.132 Y142.12 E9.62756
G1 X78.555 Y141.38 E9.67125
G1 X78.043 Y140.594 E9.71493
G1 X77.6 Y139.767 E9.75862
G1 X77.229 Y138.906 E9.80227
G1 X76.933 Y138.016 E9.84595
G1 X76.714 Y137.104 E9.88962
G1 X76.573 Y136.177 E9.93328
G1 X76.513 Y135.288 E9.97477
G1 X76.5 Y134.658 E10.00411
G1 X76.501 Y100.525 E11.59349
G1 X76.51 Y99.86 E11.62446
G1 X76.563 Y98.924 E11.66811
G1 X76.695 Y97.995 E11.7118
G1 X76.906 Y97.081 E11.75548
G1 X77.194 Y96.189 E11.79913
G1 X77.557 Y95.324 E11.84281
G1 X77.992 Y94.493 E11.88649
G1 X78.496 Y93.703 E11.93012
G1 X79.066 Y92.958 E11.9738
G1 X79.698 Y92.264 E12.01751
G1 X80.386 Y91.627 E12.06117
G0 F6000 X80.774 Y91.823
G1 F1200 X81.51 Y91.27 E12.10403
G1 X82.291 Y90.782 E12.14692
G1 X83.111 Y90.364 E12.18977
G1 X83.965 Y90.019 E12.23266
G1 X84.845 Y89.749 E12.27552
G1 X85.745 Y89.557 E12.31837
G1 X86.659 Y89.443 E12.36126
G1 X87.212 Y89.413 E12.38705
G1 X87.83 Y89.4 E12.41583
G1 X146.793 Y89.4 E15.1614
G1 X146.945 Y89.401 E15.16848
G1 X147.643 Y89.411 E15.20098
G1 X148.562 Y89.464 E15.24384
G1 X149.473 Y89.597 E15.28671
G1 X150.369 Y89.808 E15.32958
G1 X151.243 Y90.096 E15.37243
G1 X152.09 Y90.459 E15.41534
G1 X152.901 Y90.894 E15.45819
G1 X153.671 Y91.398 E15.50104
G1 X154.395 Y91.967 E15.54392
G1 X155.067 Y92.597 E15.58681
G1 X155.682 Y93.282 E15.62968
G1 X156.235 Y94.018 E15.67254
G1 X156.722 Y94.799 E15.7154
G1 X157.139 Y95.62 E15.75828
G1 X157.484 Y96.474 E15.80117
G1 X157.753 Y97.354 E15.84402
G1 X157.945 Y98.255 E15.88691
G1 X158.058 Y99.168 E15.92975
G1 X158.087 Y99.712 E15.95512
G1 X158.1 Y100.33 E15.9839
G1 X158.099 Y134.395 E17.57011
G1 X158.09 Y135.122 E17.60396
G1 X158.039 Y136.041 E17.64682
G1 X157.908 Y136.953 E17.68972
G1 X157.698 Y137.849 E17.73258
G1 X157.412 Y138.724 E17.77544
G1 X157.051 Y139.571 E17.81831
G1 X156.617 Y140.383 E17.86119
G1 X156.115 Y141.155 E17.90406
G1 X155.547 Y141.88 E17.94695
G1 X154.919 Y142.553 E17.98981
G1 X154.235 Y143.169 E18.03267
G1 X153.5 Y143.723 E18.07553
G1 X152.72 Y144.212 E18.1184
G1 X151.9 Y144.631 E18.16128
G1 X151.047 Y144.977 E18.20414
G1 X150.167 Y145.248 E18.24702
G1 X149.267 Y145.441 E18.28988
G1 X148.353 Y145.556 E18.33277
G1 X147.788 Y145.587 E18.35912
G1 X147.17 Y145.6 E18.3879
G1 X88.207 Y145.6 E21.13347
G1 X87.372 Y145.59 E21.17235
G1 X86.453 Y145.538 E21.21521
G1 X85.542 Y145.407 E21.25807
G1 X84.646 Y145.197 E21.30092
G1 X83.771 Y144.91 E21.3438
G1 X82.924 Y144.548 E21.38669
G1 X82.112 Y144.114 E21.42956
G1 X81.341 Y143.612 E21.4724
G1 X80.616 Y143.044 E21.51529
G1 X79.943 Y142.415 E21.55818
G1 X79.328 Y141.731 E21.60101
G1 X78.774 Y140.996 E21.64387
G1 X78.286 Y140.215 E21.68675
G1 X77.867 Y139.395 E21.72963
G1 X77.521 Y138.542 E21.77249
G1 X77.251 Y137.662 E21.81536
G1 X77.058 Y136.761 E21.85826
G1 X76.944 Y135.848 E21.90111
G1 X76.913 Y135.277 E21.92773
G1 X76.9 Y134.658 E21.95656
G1 X76.901 Y100.531 E23.54566
G1 X76.91 Y99.866 E23.57663
G1 X76.962 Y98.946 E23.61953
G1 X77.094 Y98.035 E23.6624
G1 X77.305 Y97.139 E23.70526
G1 X77.592 Y96.264 E23.74814
G1 X77.955 Y95.418 E23.79101
G1 X78.389 Y94.606 E23.83388
G1 X78.892 Y93.835 E23.87674
G1 X79.461 Y93.111 E23.91962
G1 X80.089 Y92.439 E23.96245
G1 X80.774 Y91.823 E24.00535
G0 F6000 X81.162 Y92.024
G1 F1200 X81.894 Y91.494 E24.04743
G1 X82.669 Y91.031 E24.08946
G1 X83.482 Y90.638 E24.13151
G1 X84.327 Y90.318 E24.17359
G1 X85.196 Y90.075 E24.2156
G1 X86.084 Y89.909 E24.25767
G1 X87.223 Y89.813 E24.31089
G1 X87.83 Y89.8 E24.33916
G1 X146.793 Y89.8 E27.08473
G1 X146.939 Y89.801 E27.09153
G1 X147.637 Y89.811 E27.12403
G1 X148.539 Y89.864 E27.1661
G1 X149.432 Y89.996 E27.20814
G1 X150.31 Y90.207 E27.25019
G1 X151.166 Y90.495 E27.29224
G1 X151.993 Y90.857 E27.33428
G1 X152.785 Y91.292 E27.37635
G1 X153.536 Y91.794 E27.41841
G1 X154.239 Y92.361 E27.46047
G1 X154.889 Y92.988 E27.50252
G1 X155.481 Y93.67 E27.54457
G1 X156.011 Y94.401 E27.58662
G1 X156.473 Y95.177 E27.62867
G1 X156.866 Y95.99 E27.67072
G1 X157.184 Y96.835 E27.71276
G1 X157.427 Y97.705 E27.75482
G1 X157.592 Y98.593 E27.79688
G1 X157.687 Y99.723 E27.84968
G1 X157.7 Y100.33 E27.87795
G1 X157.699 Y134.39 E29.46393
G1 X157.69 Y135.117 E29.49778
G1 X157.639 Y136.019 E29.53985
G1 X157.508 Y136.913 E29.58192
G1 X157.299 Y137.791 E29.62395
G1 X157.013 Y138.648 E29.66602
G1 X156.652 Y139.476 E29.70808
G1 X156.22 Y140.268 E29.75009
G1 X155.719 Y141.02 E29.79216
G1 X155.153 Y141.724 E29.83422
G1 X154.528 Y142.375 E29.87625
G1 X153.847 Y142.969 E29.91832
G1 X153.116 Y143.5 E29.9604
G1 X152.342 Y143.964 E30.00242
G1 X151.529 Y144.358 E30.04448
G1 X150.685 Y144.678 E30.08651
G1 X149.815 Y144.923 E30.1286
G1 X148.928 Y145.089 E30.17062
G1 X147.777 Y145.187 E30.22441
G1 X147.17 Y145.2 E30.25268
G1 X88.207 Y145.2 E32.99825
G1 X87.377 Y145.19 E33.0369
G1 X86.476 Y145.139 E33.07892
G1 X85.582 Y145.007 E33.121
G1 X84.704 Y144.798 E33.16302
G1 X83.847 Y144.511 E33.20511
G1 X83.02 Y144.15 E33.24712
G1 X82.227 Y143.717 E33.2892
G1 X81.476 Y143.216 E33.33123
G1 X80.772 Y142.65 E33.37329
G1 X80.121 Y142.024 E33.41535
G1 X79.528 Y141.343 E33.4574
G1 X78.998 Y140.612 E33.49944
G1 X78.534 Y139.837 E33.5415
G1 X78.14 Y139.024 E33.58357
G1 X77.82 Y138.18 E33.6256
G1 X77.576 Y137.31 E33.66767
G1 X77.41 Y136.422 E33.70974
G1 X77.313 Y135.267 E33.76371
G1 X77.3 Y134.658 E33.79207
G1 X77.301 Y100.536 E35.38094
G1 X77.31 Y99.871 E35.4119
G1 X77.362 Y98.969 E35.45398
G1 X77.494 Y98.076 E35.49601
G1 X77.704 Y97.198 E35.53805
G1 X77.991 Y96.341 E35.58013
G1 X78.353 Y95.514 E35.62217
G1 X78.786 Y94.722 E35.6642
G1 X79.288 Y93.971 E35.70626
G1 X79.855 Y93.267 E35.74835
G1 X80.481 Y92.617 E35.79037
G1 X81.162 Y92.024 E35.83242
G1 F2700 E30.83242
;MESH:caixa_35x60x15_1.5_0.6.stl
G0 F6000 X87.914 Y99.335
G0 X87.914 Y100.414
G0 X88.1 Y134.4
;TYPE:WALL-INNER
G1 F2700 E35.83242
G1 F1200 X88.1 Y100.6 E37.40629
G1 X146.9 Y100.6 E40.14426
G1 X146.9 Y134.4 E41.71813
G1 X88.1 Y134.4 E44.45611
G0 F6000 X87.7 Y134.8
;TYPE:WALL-OUTER
G1 F1200 X87.7 Y100.2 E46.06723
G1 X147.3 Y100.2 E48.84245
G1 X147.3 Y134.8 E50.45357
G1 X87.7 Y134.8 E53.2288
G0 F6000 X87.97 Y134.53
G0 X88.21 Y134.01
G0 X88.49 Y134.01
;TYPE:SKIN
G1 F1200 X88.49 Y100.99 E54.76635
G1 X146.51 Y100.99 E57.468
G1 X146.51 Y134.01 E59.00555
G1 X88.49 Y134.01 E61.70721
G0 F6000 X89.16 Y133.849
G1 F1200 X88.649 Y133.339 E61.74082
G0 F6000 X88.649 Y132.773
G1 F1200 X89.726 Y133.849 E61.81171
G0 F6000 X90.291 Y133.849
G1 F1200 X88.649 Y132.207 E61.91984
G0 F6000 X88.649 Y131.642
G1 F1200 X90.857 Y133.849 E62.06521
G0 F6000 X91.423 Y133.849
G1 F1200 X88.649 Y131.076 E62.24785
G0 F6000 X88.649 Y130.51
G1 F1200 X91.988 Y133.849 E62.46773
G0 F6000 X92.554 Y133.849
G1 F1200 X88.649 Y129.945 E62.72485
G0 F6000 X88.649 Y129.379
G1 F1200 X93.12 Y133.849 E63.01924
G0 F6000 X93.685 Y133.849
G1 F1200 X88.649 Y128.813 E63.35087
G0 F6000 X88.649 Y128.247
G1 F1200 X94.251 Y133.849 E63.71977
G0 F6000 X94.817 Y133.849
G1 F1200 X88.649 Y127.682 E64.12591
G0 F6000 X88.649 Y127.116
G1 F1200 X95.383 Y133.849 E64.56932
G0 F6000 X95.948 Y133.849
G1 F1200 X88.649 Y126.55 E65.04997
G0 F6000 X88.649 Y125.985
G1 F1200 X96.514 Y133.849 E65.56786
G0 F6000 X97.08 Y133.849
G1 F1200 X88.649 Y125.419 E66.12302
G0 F6000 X88.649 Y124.853
G1 F1200 X97.645 Y133.849 E66.71543
G0 F6000 X98.211 Y133.849
G1 F1200 X88.649 Y124.288 E67.34507
G0 F6000 X88.649 Y123.722
G1 F1200 X98.777 Y133.849 E68.01198
G0 F6000 X99.342 Y133.849
G1 F1200 X88.649 Y123.156 E68.71613
G0 F6000 X88.649 Y122.591
G1 F1200 X99.908 Y133.849 E69.45752
G0 F6000 X100.474 Y133.849
G1 F1200 X88.649 Y122.025 E70.23619
G0 F6000 X88.649 Y121.459
G1 F1200 X101.039 Y133.849 E71.05209
G0 F6000 X101.605 Y133.849
G1 F1200 X88.649 Y120.894 E71.90523
G0 F6000 X88.649 Y120.328
G1 F1200 X102.171 Y133.849 E72.79565
G0 F6000 X102.736 Y133.849
G1 F1200 X88.649 Y119.762 E73.7233
G0 F6000 X88.649 Y119.196
G1 F1200 X103.302 Y133.849 E74.68822
G0 F6000 X103.868 Y133.849
G1 F1200 X88.649 Y118.631 E75.69039
G0 F6000 X88.649 Y118.065
G1 F1200 X104.434 Y133.849 E76.72983
G0 F6000 X104.999 Y133.849
G1 F1200 X88.649 Y117.499 E77.8065
G0 F6000 X88.649 Y116.934
G1 F1200 X105.565 Y133.849 E78.92042
G0 F6000 X106.131 Y133.849
G1 F1200 X88.649 Y116.368 E80.0716
G0 F6000 X88.649 Y115.802
G1 F1200 X106.696 Y133.849 E81.26003
G0 F6000 X107.262 Y133.849
G1 F1200 X88.649 Y115.237 E82.48569
G0 F6000 X88.649 Y114.671
G1 F1200 X107.828 Y133.849 E83.74863
G0 F6000 X108.393 Y133.849
G1 F1200 X88.649 Y114.105 E85.04881
G0 F6000 X88.649 Y113.54
G1 F1200 X108.959 Y133.849 E86.38622
G0 F6000 X109.525 Y133.849
G1 F1200 X88.649 Y112.974 E87.76091
G0 F6000 X88.649 Y112.408
G1 F1200 X110.09 Y133.849 E89.17283
G0 F6000 X110.656 Y133.849
G1 F1200 X88.649 Y111.843 E90.622
G0 F6000 X88.649 Y111.277
G1 F1200 X111.222 Y133.849 E92.10844
G0 F6000 X111.787 Y133.849
G1 F1200 X88.649 Y110.711 E93.63211
G0 F6000 X88.649 Y110.146
G1 F1200 X112.353 Y133.849 E95.19303
G0 F6000 X112.919 Y133.849
G1 F1200 X88.649 Y109.58 E96.79122
G0 F6000 X88.649 Y109.014
G1 F1200 X113.484 Y133.849 E98.42665
G0 F6000 X114.05 Y133.849
G1 F1200 X88.649 Y108.448 E100.09935
G0 F6000 X88.649 Y107.883
G1 F1200 X114.616 Y133.849 E101.80928
G0 F6000 X115.182 Y133.849
G1 F1200 X88.649 Y107.317 E103.55649
G0 F6000 X88.649 Y106.751
G1 F1200 X115.747 Y133.849 E105.34094
G0 F6000 X116.313 Y133.849
G1 F1200 X88.649 Y106.186 E107.16263
G0 F6000 X88.649 Y105.62
G1 F1200 X116.879 Y133.849 E109.02159
G0 F6000 X117.444 Y133.849
G1 F1200 X88.649 Y105.054 E110.91779
G0 F6000 X88.649 Y104.489
G1 F1200 X118.01 Y133.849 E112.85123
G0 F6000 X118.576 Y133.849
G1 F1200 X88.649 Y103.923 E114.82194
G0 F6000 X88.649 Y103.357
G1 F1200 X119.141 Y133.849 E116.82989
G0 F6000 X119.707 Y133.849
G1 F1200 X88.649 Y102.792 E118.87508
G0 F6000 X88.649 Y102.226
G1 F1200 X120.273 Y133.849 E120.95754
G0 F6000 X120.838 Y133.849
G1 F1200 X88.649 Y101.66 E123.07724
G0 F6000 X88.704 Y101.149
G1 F1200 X121.404 Y133.849 E125.2306
G0 F6000 X121.97 Y133.849
G1 F1200 X89.27 Y101.149 E127.38395
G0 F6000 X89.835 Y101.149
G1 F1200 X122.535 Y133.849 E129.5373
G0 F6000 X123.101 Y133.849
G1 F1200 X90.401 Y101.149 E131.69065
G0 F6000 X90.967 Y101.149
G1 F1200 X123.667 Y133.849 E133.844
G0 F6000 X124.233 Y133.849
G1 F1200 X91.532 Y101.149 E135.99738
G0 F6000 X92.098 Y101.149
G1 F1200 X124.798 Y133.849 E138.15073
G0 F6000 X125.364 Y133.849
G1 F1200 X92.664 Y101.149 E140.30408
G0 F6000 X93.229 Y101.149
G1 F1200 X125.93 Y133.849 E142.45747
G0 F6000 X126.495 Y133.849
G1 F1200 X93.795 Y101.149 E144.61082
G0 F6000 X94.361 Y101.149
G1 F1200 X127.061 Y133.849 E146.76417
G0 F6000 X127.627 Y133.849
G1 F1200 X94.926 Y101.149 E148.91755
G0 F6000 X95.492 Y101.149
G1 F1200 X128.192 Y133.849 E151.0709
G0 F6000 X128.758 Y133.849
G1 F1200 X96.058 Y101.149 E153.22426
G0 F6000 X96.624 Y101.149
G1 F1200 X129.324 Y133.849 E155.37761
G0 F6000 X129.889 Y133.849
G1 F1200 X97.189 Y101.149 E157.53096
G0 F6000 X97.755 Y101.149
G1 F1200 X130.455 Y133.849 E159.68431
G0 F6000 X131.021 Y133.849
G1 F1200 X98.321 Y101.149 E161.83766
G0 F6000 X98.886 Y101.149
G1 F1200 X131.586 Y133.849 E163.99101
G0 F6000 X132.152 Y133.849
G1 F1200 X99.452 Y101.149 E166.14436
G0 F6000 X100.018 Y101.149
G1 F1200 X132.718 Y133.849 E168.29771
G0 F6000 X133.283 Y133.849
G1 F1200 X100.583 Y101.149 E170.45106
G0 F6000 X101.149 Y101.149
G1 F1200 X133.849 Y133.849 E172.60441
G0 F6000 X134.415 Y133.849
G1 F1200 X101.715 Y101.149 E174.75776
G0 F6000 X102.28 Y101.149
G1 F1200 X134.981 Y133.849 E176.91115
G0 F6000 X135.546 Y133.849
G1 F1200 X102.846 Y101.149 E179.0645
G0 F6000 X103.412 Y101.149
G1 F1200 X136.112 Y133.849 E181.21785
G0 F6000 X136.678 Y133.849
G1 F1200 X103.977 Y101.149 E183.37123
G0 F6000 X104.543 Y101.149
G1 F1200 X137.243 Y133.849 E185.52458
G0 F6000 X137.809 Y133.849
G1 F1200 X105.109 Y101.149 E187.67793
G0 F6000 X105.674 Y101.149
G1 F1200 X138.375 Y133.849 E189.83132
G0 F6000 X138.94 Y133.849
G1 F1200 X106.24 Y101.149 E191.98467
G0 F6000 X106.806 Y101.149
G1 F1200 X139.506 Y133.849 E194.13802
G0 F6000 X140.072 Y133.849
G1 F1200 X107.372 Y101.149 E196.29137
G0 F6000 X107.937 Y101.149
G1 F1200 X140.637 Y133.849 E198.44472
G0 F6000 X141.203 Y133.849
G1 F1200 X108.503 Y101.149 E200.59807
G0 F6000 X109.069 Y101.149
G1 F1200 X141.769 Y133.849 E202.75142
G0 F6000 X142.334 Y133.849
G1 F1200 X109.634 Y101.149 E204.90477
G0 F6000 X110.2 Y101.149
G1 F1200 X142.9 Y133.849 E207.05813
G0 F6000 X143.466 Y133.849
G1 F1200 X110.766 Y101.149 E209.21148
G0 F6000 X111.331 Y101.149
G1 F1200 X144.031 Y133.849 E211.36483
G0 F6000 X144.597 Y133.849
G1 F1200 X111.897 Y101.149 E213.51818
G0 F6000 X112.463 Y101.149
G1 F1200 X145.163 Y133.849 E215.67153
G0 F6000 X145.729 Y133.849
G1 F1200 X113.028 Y101.149 E217.82491
G0 F6000 X113.594 Y101.149
G1 F1200 X146.294 Y133.849 E219.97826
G0 F6000 X146.349 Y133.338
G1 F1200 X114.16 Y101.149 E222.09796
G0 F6000 X114.725 Y101.149
G1 F1200 X146.349 Y132.772 E224.18043
G0 F6000 X146.349 Y132.207
G1 F1200 X115.291 Y101.149 E226.22565
G0 F6000 X115.857 Y101.149
G1 F1200 X146.349 Y131.641 E228.2336
G0 F6000 X146.349 Y131.075
G1 F1200 X116.423 Y101.149 E230.20428
G0 F6000 X116.988 Y101.149
G1 F1200 X146.349 Y130.509 E232.13772
G0 F6000 X146.349 Y129.944
G1 F1200 X117.554 Y101.149 E234.03392
G0 F6000 X118.12 Y101.149
G1 F1200 X146.349 Y129.378 E235.89284
G0 F6000 X146.349 Y128.812
G1 F1200 X118.685 Y101.149 E237.71453
G0 F6000 X119.251 Y101.149
G1 F1200 X146.349 Y128.247 E239.49898
G0 F6000 X146.349 Y127.681
