;FLAVOR:Marlin
;TIME:1228
;Filament used: 1.24748m
;Layer height: 0.28
;MINX:94
;MINY:89
;MINZ:0.28
;MAXX:141
;MAXY:146
;MAXZ:14.84
;Generated with Cura_SteamEngine 4.5.0
M140 S50
M105
M190 S50
M104 S200
M105
M109 S200
M82 ;absolute extrusion mode
; Ender 3 Custom Start G-code
G92 E0 ; Reset Extruder
G28 ; Home all axes
G1 Z2.0 F3000 ; Move Z Axis up little to prevent scratching of Heat Bed
G1 X0.1 Y20 Z0.3 F5000.0 ; Move to start position
G1 X0.1 Y200.0 Z0.3 F1500.0 E15 ; Draw the first line
G1 X0.4 Y200.0 Z0.3 F5000.0 ; Move to side a little
G1 X0.4 Y20 Z0.3 F1500.0 E30 ; Draw the second line
G92 E0 ; Reset Extruder
G1 Z2.0 F3000 ; Move Z Axis up little to prevent scratching of Heat Bed
G1 X5 Y20 Z0.3 F5000.0 ; Move over to prevent blob squish
G92 E0
G92 E0
G1 F2700 E-5
;LAYER_COUNT:53
;LAYER:0
M107
G0 F6000 X97.198 Y92.264 Z0.28
;TYPE:SKIRT
G1 F2700 E0
G1 F1200 X97.886 Y91.627 E0.04366
G1 X98.626 Y91.051 E0.08732
G1 X99.412 Y90.539 E0.131
G1 X100.239 Y90.097 E0.17467
G1 X101.101 Y89.727 E0.21835
G1 X101.991 Y89.431 E0.26202
G1 X102.903 Y89.213 E0.30568
G1 X103.83 Y89.072 E0.34935
G1 X104.701 Y89.013 E0.39
G1 X105.33 Y89 E0.41929
G1 X129.451 Y89.001 E1.54247
G1 X130.149 Y89.011 E1.57497
G1 X131.085 Y89.065 E1.61863
G1 X132.013 Y89.197 E1.66227
G1 X132.927 Y89.409 E1.70596
G1 X133.819 Y89.698 E1.74962
G1 X134.684 Y90.061 E1.79331
G1 X135.514 Y90.497 E1.83696
G1 X136.305 Y91.002 E1.88066
G1 X137.049 Y91.573 E1.92433
G1 X137.742 Y92.205 E1.968
G1 X138.379 Y92.893 E2.01166
G1 X138.954 Y93.634 E2.05534
G1 X139.465 Y94.42 E2.09899
G1 X139.907 Y95.248 E2.1427
G1 X140.276 Y96.11 E2.18636
G1 X140.571 Y97 E2.23002
G1 X140.789 Y97.912 E2.27368
G1 X140.929 Y98.84 E2.31738
G1 X140.987 Y99.701 E2.35756
G1 X141 Y100.33 E2.38686
G1 X140.999 Y134.4 E3.9733
G1 X140.99 Y135.127 E4.00715
G1 X140.939 Y136.064 E4.05085
G1 X140.807 Y136.992 E4.0945
G1 X140.598 Y137.906 E4.13815
G1 X140.311 Y138.799 E4.18183
G1 X139.949 Y139.665 E4.22554
G1 X139.515 Y140.496 E4.26919
G1 X139.011 Y141.287 E4.31286
G1 X138.442 Y142.032 E4.35652
G1 X137.811 Y142.727 E4.40023
G1 X137.124 Y143.365 E4.44388
G1 X136.385 Y143.942 E4.48754
G1 X135.599 Y144.454 E4.53122
G1 X134.773 Y144.897 E4.57486
G1 X133.911 Y145.269 E4.61858
G1 X133.022 Y145.565 E4.66221
G1 X132.11 Y145.785 E4.70589
G1 X131.183 Y145.926 E4.74956
G1 X130.299 Y145.987 E4.79082
G1 X129.67 Y146 E4.82011
G1 X105.565 Y145.999 E5.94254
G1 X104.867 Y145.99 E5.97505
G1 X103.931 Y145.938 E6.0187
G1 X103.002 Y145.806 E6.06239
G1 X102.088 Y145.596 E6.10606
G1 X101.195 Y145.309 E6.14974
G1 X100.33 Y144.946 E6.19342
G1 X99.499 Y144.512 E6.23707
G1 X98.708 Y144.008 E6.28074
G1 X97.963 Y143.438 E6.32442
G1 X97.269 Y142.807 E6.3681
G1 X96.632 Y142.12 E6.41172
G1 X96.055 Y141.38 E6.45542
G1 X95.543 Y140.594 E6.4991
G1 X95.1 Y139.767 E6.54278
G1 X94.729 Y138.906 E6.58644
G1 X94.433 Y138.016 E6.63011
G1 X94.214 Y137.104 E6.67379
G1 X94.073 Y136.177 E6.71745
G1 X94.013 Y135.288 E6.75894
G1 X94 Y134.658 E6.78828
G1 X94.001 Y100.525 E8.37766
G1 X94.01 Y99.86 E8.40862
G1 X94.063 Y98.924 E8.45228
G1 X94.195 Y97.995 E8.49597
G1 X94.406 Y97.081 E8.53965
G1 X94.694 Y96.189 E8.5833
G1 X95.057 Y95.324 E8.62698
G1 X95.492 Y94.493 E8.67065
G1 X95.996 Y93.703 E8.71429
G1 X96.566 Y92.958 E8.75797
G1 X97.198 Y92.264 E8.80167
G0 F6000 X97.589 Y92.439
G1 F1200 X98.274 Y91.823 E8.84457
G1 X99.01 Y91.27 E8.88744
G1 X99.791 Y90.782 E8.93032
G1 X100.611 Y90.364 E8.97318
G1 X101.465 Y90.019 E9.01606
G1 X102.345 Y89.749 E9.05893
G1 X103.245 Y89.557 E9.10178
G1 X104.159 Y89.443 E9.14467
G1 X104.712 Y89.413 E9.17045
G1 X105.33 Y89.4 E9.19924
G1 X129.445 Y89.401 E10.32213
G1 X130.143 Y89.411 E10.35464
G1 X131.062 Y89.464 E10.3975
G1 X131.973 Y89.597 E10.44037
G1 X132.869 Y89.808 E10.48323
G1 X133.743 Y90.096 E10.52608
G1 X134.59 Y90.459 E10.56899
G1 X135.401 Y90.894 E10.61185
G1 X136.171 Y91.398 E10.6547
G1 X136.895 Y91.967 E10.69758
G1 X137.567 Y92.597 E10.74047
G1 X138.182 Y93.282 E10.78333
G1 X138.735 Y94.018 E10.8262
G1 X139.222 Y94.799 E10.86906
G1 X139.639 Y95.62 E10.91194
G1 X139.984 Y96.474 E10.95482
G1 X140.253 Y97.354 E10.99767
G1 X140.445 Y98.255 E11.04057
G1 X140.558 Y99.168 E11.08341
G1 X140.587 Y99.712 E11.10877
G1 X140.6 Y100.33 E11.13756
G1 X140.599 Y134.395 E12.72376
G1 X140.59 Y135.122 E12.75762
G1 X140.539 Y136.041 E12.80048
G1 X140.408 Y136.953 E12.84338
G1 X140.198 Y137.849 E12.88623
G1 X139.912 Y138.724 E12.9291
G1 X139.551 Y139.571 E12.97197
G1 X139.117 Y140.383 E13.01484
G1 X138.615 Y141.155 E13.05772
G1 X138.047 Y141.88 E13.10061
G1 X137.419 Y142.553 E13.14347
G1 X136.735 Y143.169 E13.18633
G1 X136 Y143.723 E13.22919
G1 X135.22 Y144.212 E13.27206
G1 X134.4 Y144.631 E13.31493
G1 X133.547 Y144.977 E13.3578
G1 X132.667 Y145.248 E13.40067
G1 X131.767 Y145.441 E13.44353
G1 X130.853 Y145.556 E13.48643
G1 X130.288 Y145.587 E13.51278
G1 X129.67 Y145.6 E13.54156
G1 X105.57 Y145.599 E14.66376
G1 X104.872 Y145.59 E14.69626
G1 X103.953 Y145.538 E14.73912
G1 X103.042 Y145.407 E14.78198
G1 X102.146 Y145.197 E14.82483
G1 X101.271 Y144.91 E14.86771
G1 X100.424 Y144.548 E14.9106
G1 X99.612 Y144.114 E14.95347
G1 X98.841 Y143.612 E14.99631
G1 X98.116 Y143.044 E15.0392
G1 X97.443 Y142.415 E15.08209
G1 X96.828 Y141.731 E15.12492
G1 X96.274 Y140.996 E15.16778
G1 X95.786 Y140.215 E15.21066
G1 X95.367 Y139.395 E15.25354
G1 X95.021 Y138.542 E15.2964
G1 X94.751 Y137.662 E15.33927
G1 X94.558 Y136.761 E15.38217
G1 X94.444 Y135.848 E15.42502
G1 X94.413 Y135.277 E15.45164
G1 X94.4 Y134.658 E15.48047
G1 X94.401 Y100.531 E17.06957
G1 X94.41 Y99.866 E17.10054
G1 X94.462 Y98.946 E17.14344
G1 X94.594 Y98.035 E17.18631
G1 X94.805 Y97.139 E17.22917
G1 X95.092 Y96.264 E17.27205
G1 X95.455 Y95.418 E17.31492
G1 X95.889 Y94.606 E17.35779
G1 X96.392 Y93.835 E17.40065
G1 X96.961 Y93.111 E17.44353
G1 X97.589 Y92.439 E17.48636
G0 F6000 X97.981 Y92.617
G1 F1200 X98.662 Y92.024 E17.52841
G1 X99.394 Y91.494 E17.57049
G1 X100.169 Y91.031 E17.61253
G1 X100.982 Y90.638 E17.65457
G1 X101.827 Y90.318 E17.69665
G1 X102.696 Y90.075 E17.73866
G1 X103.584 Y89.909 E17.78073
G1 X104.723 Y89.813 E17.83395
G1 X105.33 Y89.8 E17.86222
G1 X129.439 Y89.801 E18.98484
G1 X130.137 Y89.811 E19.01735
G1 X131.039 Y89.864 E19.05942
G1 X131.932 Y89.996 E19.10145
G1 X132.81 Y90.207 E19.1435
G1 X133.666 Y90.495 E19.18555
G1 X134.493 Y90.857 E19.22759
G1 X135.285 Y91.292 E19.26967
G1 X136.036 Y91.794 E19.31173
G1 X136.739 Y92.361 E19.35378
G1 X137.389 Y92.988 E19.39584
G1 X137.981 Y93.67 E19.43789
G1 X138.511 Y94.401 E19.47993
G1 X138.973 Y95.177 E19.52198
G1 X139.366 Y95.99 E19.56403
G1 X139.684 Y96.835 E19.60607
G1 X139.927 Y97.705 E19.64813
G1 X140.092 Y98.593 E19.69019
G1 X140.187 Y99.723 E19.74299
G1 X140.2 Y100.33 E19.77127
G1 X140.199 Y134.39 E21.35724
G1 X140.19 Y135.117 E21.3911
G1 X140.139 Y136.019 E21.43316
G1 X140.008 Y136.913 E21.47524
G1 X139.799 Y137.791 E21.51726
G1 X139.513 Y138.648 E21.55933
G1 X139.152 Y139.476 E21.60139
G1 X138.72 Y140.268 E21.6434
G1 X138.219 Y141.02 E21.68548
G1 X137.653 Y141.724 E21.72754
G1 X137.028 Y142.375 E21.76956
G1 X136.347 Y142.969 E21.81164
G1 X135.616 Y143.5 E21.85371
G1 X134.842 Y143.964 E21.89573
G1 X134.029 Y144.358 E21.9378
G1 X133.185 Y144.678 E21.97983
G1 X132.315 Y144.923 E22.02191
G1 X131.428 Y145.089 E22.06393
G1 X130.277 Y145.187 E22.11772
G1 X129.67 Y145.2 E22.14599
G1 X105.575 Y145.199 E23.26796
G1 X104.877 Y145.19 E23.30046
G1 X103.976 Y145.139 E23.34248
G1 X103.082 Y145.007 E23.38456
G1 X102.204 Y144.798 E23.42659
G1 X101.347 Y144.511 E23.46867
G1 X100.52 Y144.15 E23.51069
G1 X99.727 Y143.717 E23.55276
G1 X98.976 Y143.216 E23.5948
G1 X98.272 Y142.65 E23.63686
G1 X97.621 Y142.024 E23.67892
G1 X97.028 Y141.343 E23.72096
G1 X96.498 Y140.612 E23.76301
G1 X96.034 Y139.837 E23.80507
G1 X95.64 Y139.024 E23.84714
G1 X95.32 Y138.18 E23.88917
G1 X95.076 Y137.31 E23.93124
G1 X94.91 Y136.422 E23.97331
G1 X94.813 Y135.267 E24.02728
G1 X94.8 Y134.658 E24.05564
G1 X94.801 Y100.536 E25.6445
G1 X94.81 Y99.871 E25.67547
G1 X94.862 Y98.969 E25.71754
G1 X94.994 Y98.076 E25.75958
G1 X95.204 Y97.198 E25.80161
G1 X95.491 Y96.341 E25.8437
G1 X95.853 Y95.514 E25.88573
G1 X96.286 Y94.722 E25.92776
G1 X96.788 Y93.971 E25.96983
G1 X97.355 Y93.267 E26.01192
G1 X97.981 Y92.617 E26.05394
G1 F2700 E21.05394
;MESH:caixa_35x25x15_1.5_0.6.stl
G0 F6000 X105.414 Y99.335
G0 X105.414 Y100.414
G0 X105.6 Y134.4
;TYPE:WALL-INNER
G1 F2700 E26.05394
G1 F1200 X105.6 Y100.6 E27.62781
G1 X129.4 Y100.6 E28.73604
G1 X129.4 Y134.4 E30.3099
G1 X105.6 Y134.4 E31.41813
G0 F6000 X105.2 Y134.8
;TYPE:WALL-OUTER
G1 F1200 X105.2 Y100.2 E33.02925
G1 X129.8 Y100.2 E34.17473
G1 X129.8 Y134.8 E35.78585
G1 X105.2 Y134.8 E36.93133
G0 F6000 X105.47 Y134.53
G0 X105.71 Y134.01
G0 X105.99 Y134.01
;TYPE:SKIN
G1 F1200 X105.99 Y100.99 E38.46888
G1 X129.01 Y100.99 E39.54079
G1 X129.01 Y134.01 E41.07834
G1 X105.99 Y134.01 E42.15025
G0 F6000 X106.696 Y133.848
G1 F1200 X106.149 Y133.302 E42.18623
G0 F6000 X106.149 Y132.736
G1 F1200 X107.261 Y133.848 E42.25946
G0 F6000 X107.827 Y133.848
G1 F1200 X106.149 Y132.17 E42.36996
G0 F6000 X106.149 Y131.605
G1 F1200 X108.393 Y133.848 E42.5177
G0 F6000 X108.958 Y133.848
G1 F1200 X106.149 Y131.039 E42.70268
G0 F6000 X106.149 Y130.473
G1 F1200 X109.524 Y133.848 E42.92493
G0 F6000 X110.09 Y133.848
G1 F1200 X106.149 Y129.908 E43.18441
G0 F6000 X106.149 Y129.342
G1 F1200 X110.655 Y133.848 E43.48114
G0 F6000 X111.221 Y133.848
G1 F1200 X106.149 Y128.776 E43.81514
G0 F6000 X106.149 Y128.211
G1 F1200 X111.787 Y133.848 E44.18638
G0 F6000 X112.352 Y133.848
G1 F1200 X106.149 Y127.645 E44.59486
G0 F6000 X106.149 Y127.079
G1 F1200 X112.918 Y133.848 E45.04061
G0 F6000 X113.484 Y133.848
G1 F1200 X106.149 Y126.514 E45.5236
G0 F6000 X106.149 Y125.948
G1 F1200 X114.049 Y133.848 E46.04383
G0 F6000 X114.615 Y133.848
G1 F1200 X106.149 Y125.382 E46.60133
G0 F6000 X106.149 Y124.817
G1 F1200 X115.181 Y133.848 E47.19607
G0 F6000 X115.747 Y133.848
G1 F1200 X106.149 Y124.251 E47.82808
G0 F6000 X106.149 Y123.685
G1 F1200 X116.312 Y133.848 E48.49733
G0 F6000 X116.878 Y133.848
G1 F1200 X106.149 Y123.12 E49.20382
G0 F6000 X106.149 Y122.554
G1 F1200 X117.444 Y133.848 E49.94758
G0 F6000 X118.009 Y133.848
G1 F1200 X106.149 Y121.988 E50.72858
G0 F6000 X106.149 Y121.422
G1 F1200 X118.575 Y133.848 E51.54686
G0 F6000 X119.141 Y133.848
G1 F1200 X106.149 Y120.857 E52.40237
G0 F6000 X106.149 Y120.291
G1 F1200 X119.706 Y133.848 E53.29512
G0 F6000 X120.272 Y133.848
G1 F1200 X106.149 Y119.725 E54.22515
G0 F6000 X106.149 Y119.16
G1 F1200 X120.838 Y133.848 E55.19241
G0 F6000 X121.403 Y133.848
G1 F1200 X106.149 Y118.594 E56.19691
G0 F6000 X106.149 Y118.028
G1 F1200 X121.969 Y133.848 E57.23868
G0 F6000 X122.535 Y133.848
G1 F1200 X106.149 Y117.463 E58.3177
G0 F6000 X106.149 Y116.897
G1 F1200 X123.1 Y133.848 E59.43395
G0 F6000 X123.666 Y133.848
G1 F1200 X106.149 Y116.331 E60.58747
G0 F6000 X106.149 Y115.766
G1 F1200 X124.232 Y133.848 E61.77824
G0 F6000 X124.797 Y133.848
G1 F1200 X106.149 Y115.2 E63.00624
G0 F6000 X106.149 Y114.634
G1 F1200 X125.363 Y133.848 E64.27151
G0 F6000 X125.929 Y133.848
G1 F1200 X106.149 Y114.069 E65.57403
G0 F6000 X106.149 Y113.503
G1 F1200 X126.495 Y133.848 E66.91381
G0 F6000 X127.06 Y133.848
G1 F1200 X106.149 Y112.937 E68.29084
G0 F6000 X106.149 Y112.371
G1 F1200 X127.626 Y133.848 E69.70514
G0 F6000 X128.192 Y133.848
G1 F1200 X106.149 Y111.806 E71.15667
G0 F6000 X106.149 Y111.24
G1 F1200 X128.757 Y133.848 E72.64545
G0 F6000 X128.849 Y133.375
G1 F1200 X106.149 Y110.674 E74.14031
G0 F6000 X106.149 Y110.109
G1 F1200 X128.849 Y132.809 E75.63515
G0 F6000 X128.849 Y132.243
G1 F1200 X106.149 Y109.543 E77.12998
G0 F6000 X106.149 Y108.977
G1 F1200 X128.849 Y131.678 E78.62485
G0 F6000 X128.849 Y131.112
G1 F1200 X106.149 Y108.412 E80.11968
G0 F6000 X106.149 Y107.846
G1 F1200 X128.849 Y130.546 E81.61452
G0 F6000 X128.849 Y129.981
G1 F1200 X106.149 Y107.28 E83.10938
G0 F6000 X106.149 Y106.715
G1 F1200 X128.849 Y129.415 E84.60422
G0 F6000 X128.849 Y128.849
G1 F1200 X106.149 Y106.149 E86.09905
G0 F6000 X106.149 Y105.583
G1 F1200 X128.849 Y128.284 E87.59392
G0 F6000 X128.849 Y127.718
G1 F1200 X106.149 Y105.018 E89.08875
G0 F6000 X106.149 Y104.452
G1 F1200 X128.849 Y127.152 E90.58359
G0 F6000 X128.849 Y126.586
G1 F1200 X106.149 Y103.886 E92.07842
G0 F6000 X106.149 Y103.321
G1 F1200 X128.849 Y126.021 E93.57325
G0 F6000 X128.849 Y125.455
G1 F1200 X106.149 Y102.755 E95.06809
G0 F6000 X106.149 Y102.189
G1 F1200 X128.849 Y124.889 E96.56292
G0 F6000 X128.849 Y124.324
G1 F1200 X106.149 Y101.623 E98.05779
G0 F6000 X106.241 Y101.15
G1 F1200 X128.849 Y123.758 E99.54656
G0 F6000 X128.849 Y123.192
G1 F1200 X106.807 Y101.15 E100.99807
G0 F6000 X107.372 Y101.15
G1 F1200 X128.849 Y122.627 E102.41236
G0 F6000 X128.849 Y122.061
G1 F1200 X107.938 Y101.15 E103.78939
G0 F6000 X108.504 Y101.15
G1 F1200 X128.849 Y121.495 E105.12914
G0 F6000 X128.849 Y120.93
G1 F1200 X109.069 Y101.15 E106.43169
G0 F6000 X109.635 Y101.15
G1 F1200 X128.849 Y120.364 E107.69696
G0 F6000 X128.849 Y119.798
G1 F1200 X110.201 Y101.15 E108.92496
G0 F6000 X110.766 Y101.15
G1 F1200 X128.849 Y119.233 E110.11576
G0 F6000 X128.849 Y118.667
G1 F1200 X111.332 Y101.15 E111.26929
G0 F6000 X111.898 Y101.15
G1 F1200 X128.849 Y118.101 E112.38554
G0 F6000 X128.849 Y117.535
G1 F1200 X112.463 Y101.15 E113.46455
G0 F6000 X113.029 Y101.15
G1 F1200 X128.849 Y116.97 E114.50633
G0 F6000 X128.849 Y116.404
G1 F1200 X113.595 Y101.15 E115.51083
G0 F6000 X114.16 Y101.15
G1 F1200 X128.849 Y115.838 E116.47809
G0 F6000 X128.849 Y115.273
G1 F1200 X114.726 Y101.15 E117.40811
G0 F6000 X115.292 Y101.15
G1 F1200 X128.849 Y114.707 E118.30087
G0 F6000 X128.849 Y114.141
G1 F1200 X115.858 Y101.15 E119.15634
G0 F6000 X116.423 Y101.15
G1 F1200 X128.849 Y113.576 E119.97462
G0 F6000 X128.849 Y113.01
G1 F1200 X116.989 Y101.15 E120.75562
G0 F6000 X117.555 Y101.15
G1 F1200 X128.849 Y112.444 E121.49935
G0 F6000 X128.849 Y111.879
G1 F1200 X118.12 Y101.15 E122.20587
G0 F6000 X118.686 Y101.15
G1 F1200 X128.849 Y111.313 E122.87512
G0 F6000 X128.849 Y110.747
G1 F1200 X119.252 Y101.15 E123.5071
G0 F6000 X119.817 Y101.15
G1 F1200 X128.849 Y110.182 E124.10187
G0 F6000 X128.849 Y109.616
G1 F1200 X120.383 Y101.15 E124.65937
G0 F6000 X120.949 Y101.15
G1 F1200 X128.849 Y109.05 E125.1796
G0 F6000 X128.849 Y108.485
G1 F1200 X121.514 Y101.15 E125.66263
G0 F6000 X122.08 Y101.15
G1 F1200 X128.849 Y107.919 E126.10838
G0 F6000 X128.849 Y107.353
G1 F1200 X122.646 Y101.15 E126.51685
G0 F6000 X123.211 Y101.15
G1 F1200 X128.849 Y106.787 E126.88809
G0 F6000 X128.849 Y106.222
G1 F1200 X123.777 Y101.15 E127.22209
G0 F6000 X124.343 Y101.15
G1 F1200 X128.849 Y105.656 E127.51882
G0 F6000 X128.849 Y105.09
G1 F1200 X124.908 Y101.15 E127.77831
G0 F6000 X125.474 Y101.15
G1 F1200 X128.849 Y104.525 E128.00056
G0 F6000 X128.849 Y103.959
G1 F1200 X126.04 Y101.15 E128.18554
G0 F6000 X126.606 Y101.15
G1 F1200 X128.849 Y103.393 E128.33324
G0 F6000 X128.849 Y102.828
G1 F1200 X127.171 Y101.15 E128.44374
G0 F6000 X127.737 Y101.15
G1 F1200 X128.849 Y102.262 E128.51697
G0 F6000 X128.849 Y101.696
G1 F1200 X128.303 Y101.15 E128.55292
G0 F6000 X128.303 Y100.8
G1 F2700 E123.55292
;MESH:NONMESH
G0 F300 X128.303 Y100.8 Z0.56
G0 F6000 X128.303 Y100.71
G0 X105.782 Y100.782
G0 X105.6 Y134.4
;TIME_ELAPSED:152.100325
;LAYER:1
M140 S50
M106 S85
;TYPE:WALL-INNER
;MESH:caixa_35x25x15_1.5_0.6.stl
G1 F2700 E128.55292
G1 F1350 X105.6 Y100.6 E130.12679
G1 X129.4 Y100.6 E131.23502
G1 X129.4 Y134.4 E132.80889
G1 X105.6 Y134.4 E133.91712
G0 F7500 X105.2 Y134.8
;TYPE:WALL-OUTER
G1 F1350 X105.2 Y100.2 E135.52824
G1 X129.8 Y100.2 E136.67372
G1 X129.8 Y134.8 E138.28484
G1 X105.2 Y134.8 E139.43032
G0 F7500 X105.47 Y134.53
G0 X105.71 Y134.01
G0 X105.99 Y134.01
;TYPE:SKIN
G1 F1350 X105.99 Y100.99 E140.96787
G1 X129.01 Y100.99 E142.03977
G1 X129.01 Y134.01 E143.57732
G1 X105.99 Y134.01 E144.64923
G0 F7500 X105.71 Y134.01
G0 X105.774 Y134.197
G0 X128.629 Y134.29
G0 X128.629 Y133.848
G1 F1350 X128.848 Y133.629 E144.66365
G0 F7500 X128.848 Y133.063
G1 F1350 X128.063 Y133.848 E144.71535
G0 F7500 X127.497 Y133.848
