;FLAVOR:Marlin
;TIME:289
;Filament used: 0.0677154m
;Layer height: 0.12
;MINX:8.313
;MINY:30.913
;MINZ:0.12
;MAXX:50.313
;MAXY:55.913
;MAXZ:3.96
;Generated with Cura_SteamEngine 4.5.0
M140 S50
M105
M190 S50
M104 S200
M105
M109 S200
M82 ;absolute extrusion mode
; Ender 3 Custom Start G-code
G92 E0 ; Reset Extruder
G28 ; Home all axes
G1 Z2.0 F3000 ; Move Z Axis up little to prevent scratching of Heat Bed
G1 X0.1 Y20 Z0.3 F5000.0 ; Move to start position
G1 X0.1 Y200.0 Z0.3 F1500.0 E15 ; Draw the first line
G1 X0.4 Y200.0 Z0.3 F5000.0 ; Move to side a little
G1 X0.4 Y20 Z0.3 F1500.0 E30 ; Draw the second line
G92 E0 ; Reset Extruder
G1 Z2.0 F3000 ; Move Z Axis up little to prevent scratching of Heat Bed
G1 X5 Y20 Z0.3 F5000.0 ; Move over to prevent blob squish
G92 E0
G92 E0
G1 F2700 E-5
;LAYER_COUNT:33
;LAYER:0
M107
G0 F6000 X14.552 Y32.01 Z0.12
;TYPE:SKIRT
G1 F2700 E0
G1 F1200 X15.414 Y31.64 E0.01872
G1 X16.304 Y31.344 E0.03744
G1 X17.216 Y31.126 E0.05615
G1 X18.143 Y30.985 E0.07486
G1 X19.014 Y30.926 E0.09228
G1 X19.643 Y30.913 E0.10484
G1 X38.764 Y30.914 E0.48642
G1 X39.462 Y30.924 E0.50035
G1 X40.398 Y30.978 E0.51906
G1 X41.326 Y31.11 E0.53777
G1 X42.24 Y31.322 E0.55649
G1 X43.132 Y31.611 E0.5752
G1 X43.997 Y31.974 E0.59392
G1 X44.827 Y32.41 E0.61263
G1 X45.618 Y32.915 E0.63136
G1 X46.362 Y33.486 E0.65008
G1 X47.055 Y34.118 E0.66879
G1 X47.692 Y34.806 E0.6875
G1 X48.267 Y35.547 E0.70622
G1 X48.778 Y36.333 E0.72493
G1 X49.22 Y37.161 E0.74366
G1 X49.589 Y38.023 E0.76237
G1 X49.884 Y38.913 E0.78108
G1 X50.102 Y39.825 E0.7998
G1 X50.242 Y40.753 E0.81852
G1 X50.3 Y41.614 E0.83575
G1 X50.313 Y42.243 E0.8483
G1 X50.312 Y44.313 E0.88961
G1 X50.303 Y45.04 E0.90412
G1 X50.252 Y45.977 E0.92285
G1 X50.12 Y46.905 E0.94155
G1 X49.911 Y47.819 E0.96026
G1 X49.624 Y48.712 E0.97898
G1 X49.262 Y49.578 E0.99771
G1 X48.828 Y50.409 E1.01642
G1 X48.324 Y51.2 E1.03514
G1 X47.755 Y51.945 E1.05385
G1 X47.124 Y52.64 E1.07258
G1 X46.437 Y53.278 E1.09129
G1 X45.698 Y53.855 E1.11
G1 X44.912 Y54.367 E1.12872
G1 X44.086 Y54.81 E1.14742
G1 X43.224 Y55.182 E1.16616
G1 X42.335 Y55.478 E1.18486
G1 X41.423 Y55.698 E1.20358
G1 X40.496 Y55.839 E1.22229
G1 X39.612 Y55.9 E1.23997
G1 X38.983 Y55.913 E1.25253
G1 X19.878 Y55.912 E1.63379
G1 X19.18 Y55.903 E1.64772
G1 X18.244 Y55.851 E1.66643
G1 X17.315 Y55.719 E1.68515
G1 X16.401 Y55.509 E1.70387
G1 X15.508 Y55.222 E1.72259
G1 X14.643 Y54.859 E1.74131
G1 X13.812 Y54.425 E1.76002
G1 X13.021 Y53.921 E1.77873
G1 X12.276 Y53.351 E1.79745
G1 X11.582 Y52.72 E1.81617
G1 X10.945 Y52.033 E1.83487
G1 X10.368 Y51.293 E1.85359
G1 X9.856 Y50.507 E1.87231
G1 X9.413 Y49.68 E1.89104
G1 X9.042 Y48.819 E1.90975
G1 X8.746 Y47.929 E1.92846
G1 X8.527 Y47.017 E1.94718
G1 X8.386 Y46.09 E1.96589
G1 X8.326 Y45.201 E1.98367
G1 X8.313 Y44.571 E1.99625
G1 X8.314 Y42.438 E2.03882
G1 X8.323 Y41.773 E2.05209
G1 X8.376 Y40.837 E2.0708
G1 X8.508 Y39.908 E2.08952
G1 X8.719 Y38.994 E2.10824
G1 X9.007 Y38.102 E2.12695
G1 X9.37 Y37.237 E2.14567
G1 X9.805 Y36.406 E2.16439
G1 X10.309 Y35.616 E2.18309
G1 X10.879 Y34.871 E2.20181
G1 X11.511 Y34.177 E2.22054
G1 X12.199 Y33.54 E2.23925
G1 X12.939 Y32.964 E2.25796
G1 X13.725 Y32.452 E2.27668
G1 X14.552 Y32.01 E2.2954
G0 F6000 X14.924 Y32.277
G1 F1200 X15.778 Y31.932 E2.31378
G1 X16.658 Y31.662 E2.33215
G1 X17.558 Y31.47 E2.35051
G1 X18.472 Y31.356 E2.36889
G1 X19.025 Y31.326 E2.37994
G1 X19.643 Y31.313 E2.39228
G1 X38.758 Y31.314 E2.77374
G1 X39.456 Y31.324 E2.78767
G1 X40.375 Y31.377 E2.80604
G1 X41.286 Y31.51 E2.82441
G1 X42.182 Y31.721 E2.84278
G1 X43.056 Y32.009 E2.86115
G1 X43.903 Y32.372 E2.87954
G1 X44.714 Y32.807 E2.8979
G1 X45.484 Y33.311 E2.91627
G1 X46.208 Y33.88 E2.93464
G1 X46.88 Y34.51 E2.95303
G1 X47.495 Y35.195 E2.9714
G1 X48.048 Y35.931 E2.98977
G1 X48.535 Y36.712 E3.00814
G1 X48.952 Y37.533 E3.02651
G1 X49.297 Y38.387 E3.04489
G1 X49.566 Y39.267 E3.06326
G1 X49.758 Y40.168 E3.08164
G1 X49.871 Y41.081 E3.1
G1 X49.9 Y41.625 E3.11087
G1 X49.913 Y42.243 E3.12321
G1 X49.912 Y44.308 E3.16442
G1 X49.903 Y45.035 E3.17892
G1 X49.852 Y45.954 E3.19729
G1 X49.721 Y46.866 E3.21568
G1 X49.511 Y47.762 E3.23404
G1 X49.225 Y48.637 E3.25242
G1 X48.864 Y49.484 E3.27079
G1 X48.43 Y50.296 E3.28916
G1 X47.928 Y51.068 E3.30754
G1 X47.36 Y51.793 E3.32592
G1 X46.732 Y52.466 E3.34429
G1 X46.048 Y53.082 E3.36266
G1 X45.313 Y53.636 E3.38103
G1 X44.533 Y54.125 E3.3994
G1 X43.713 Y54.544 E3.41777
G1 X42.86 Y54.89 E3.43614
G1 X41.98 Y55.161 E3.45452
G1 X41.08 Y55.354 E3.47289
G1 X40.166 Y55.469 E3.49127
G1 X39.601 Y55.5 E3.50256
G1 X38.983 Y55.513 E3.5149
G1 X19.883 Y55.512 E3.89606
G1 X19.185 Y55.503 E3.90999
G1 X18.266 Y55.451 E3.92836
G1 X17.355 Y55.32 E3.94673
G1 X16.459 Y55.11 E3.96509
G1 X15.584 Y54.823 E3.98347
G1 X14.737 Y54.461 E4.00185
G1 X13.925 Y54.027 E4.02022
G1 X13.154 Y53.525 E4.03858
G1 X12.429 Y52.957 E4.05696
G1 X11.756 Y52.328 E4.07535
G1 X11.141 Y51.644 E4.0937
G1 X10.587 Y50.909 E4.11207
G1 X10.099 Y50.128 E4.13045
G1 X9.68 Y49.308 E4.14883
G1 X9.334 Y48.455 E4.1672
G1 X9.064 Y47.575 E4.18556
G1 X8.871 Y46.674 E4.20395
G1 X8.757 Y45.761 E4.22231
G1 X8.726 Y45.19 E4.23373
G1 X8.713 Y44.571 E4.24608
G1 X8.714 Y42.444 E4.28853
G1 X8.723 Y41.779 E4.3018
G1 X8.775 Y40.859 E4.32019
G1 X8.907 Y39.948 E4.33856
G1 X9.118 Y39.052 E4.35693
G1 X9.405 Y38.177 E4.37531
G1 X9.768 Y37.331 E4.39368
G1 X10.202 Y36.519 E4.41205
G1 X10.705 Y35.748 E4.43042
G1 X11.274 Y35.024 E4.4488
G1 X11.902 Y34.352 E4.46715
G1 X12.587 Y33.736 E4.48554
G1 X13.323 Y33.183 E4.50391
G1 X14.104 Y32.695 E4.52229
G1 X14.924 Y32.277 E4.54065
G0 F6000 X15.295 Y32.551
G1 F1200 X16.14 Y32.231 E4.55869
G1 X17.009 Y31.988 E4.57669
G1 X17.897 Y31.822 E4.59472
G1 X19.036 Y31.726 E4.61753
G1 X19.643 Y31.713 E4.62965
G1 X38.752 Y31.714 E5.01099
G1 X39.45 Y31.724 E5.02492
G1 X40.352 Y31.777 E5.04295
G1 X41.245 Y31.909 E5.06096
G1 X42.123 Y32.12 E5.07899
G1 X42.979 Y32.408 E5.09701
G1 X43.806 Y32.77 E5.11502
G1 X44.598 Y33.205 E5.13306
G1 X45.349 Y33.707 E5.15108
G1 X46.052 Y34.274 E5.16911
G1 X46.702 Y34.901 E5.18713
G1 X47.294 Y35.583 E5.20515
G1 X47.824 Y36.314 E5.22317
G1 X48.286 Y37.09 E5.24119
G1 X48.679 Y37.903 E5.25921
G1 X48.997 Y38.748 E5.27723
G1 X49.24 Y39.618 E5.29526
G1 X49.405 Y40.506 E5.31328
G1 X49.5 Y41.636 E5.33591
G1 X49.513 Y42.243 E5.34803
G1 X49.512 Y44.303 E5.38914
G1 X49.503 Y45.03 E5.40365
G1 X49.452 Y45.932 E5.42168
G1 X49.321 Y46.826 E5.43971
G1 X49.112 Y47.704 E5.45772
G1 X48.826 Y48.561 E5.47575
G1 X48.465 Y49.389 E5.49377
G1 X48.033 Y50.181 E5.51178
G1 X47.532 Y50.933 E5.52981
G1 X46.966 Y51.637 E5.54784
G1 X46.341 Y52.288 E5.56585
G1 X45.66 Y52.882 E5.58388
G1 X44.929 Y53.413 E5.60191
G1 X44.155 Y53.877 E5.61992
G1 X43.342 Y54.271 E5.63795
G1 X42.498 Y54.591 E5.65596
G1 X41.628 Y54.836 E5.674
G1 X40.741 Y55.002 E5.69201
G1 X39.59 Y55.1 E5.71506
G1 X38.983 Y55.113 E5.72717
G1 X19.888 Y55.112 E6.10824
G1 X19.19 Y55.103 E6.12217
G1 X18.289 Y55.052 E6.14018
G1 X17.395 Y54.92 E6.15821
G1 X16.517 Y54.711 E6.17622
G1 X15.66 Y54.424 E6.19426
G1 X14.833 Y54.063 E6.21226
G1 X14.04 Y53.63 E6.23029
G1 X13.289 Y53.129 E6.24831
G1 X12.585 Y52.563 E6.26634
G1 X11.934 Y51.937 E6.28436
G1 X11.341 Y51.256 E6.30238
G1 X10.811 Y50.525 E6.3204
G1 X10.347 Y49.75 E6.33843
G1 X9.953 Y48.937 E6.35645
G1 X9.633 Y48.093 E6.37447
G1 X9.389 Y47.223 E6.3925
G1 X9.223 Y46.335 E6.41053
G1 X9.126 Y45.18 E6.43366
G1 X9.113 Y44.571 E6.44581
G1 X9.114 Y42.449 E6.48816
G1 X9.123 Y41.784 E6.50143
G1 X9.175 Y40.882 E6.51946
G1 X9.307 Y39.989 E6.53748
G1 X9.517 Y39.111 E6.55549
G1 X9.804 Y38.254 E6.57353
G1 X10.166 Y37.427 E6.59154
G1 X10.599 Y36.635 E6.60956
G1 X11.101 Y35.884 E6.62758
G1 X11.668 Y35.18 E6.64562
G1 X12.294 Y34.53 E6.66363
G1 X12.975 Y33.937 E6.68165
G1 X13.707 Y33.407 E6.69969
G1 X14.482 Y32.944 E6.7177
G1 X15.295 Y32.551 E6.73572
G1 F2700 E1.73572
;MESH:nail_v02_5mm_encaixe.stl
G0 F6000 X19.727 Y41.248
G0 X19.727 Y42.327
G0 X38.131 Y43.095
G0 X38.313 Y43.913
;TYPE:WALL-INNER
G1 F2700 E6.73572
G1 F1200 X20.313 Y43.913 E7.09493
G1 X20.313 Y42.913 E7.11489
G1 X38.313 Y42.913 E7.4741
G1 X38.313 Y43.913 E7.49405
G0 F6000 X38.713 Y44.313
G1 F1200 X19.913 Y44.313 E7.86923
G1 X19.913 Y42.513 E7.90515
G1 X38.713 Y42.513 E8.28032
G1 X38.713 Y44.313 E8.31625
G0 F6000 X39.113 Y44.713
;TYPE:WALL-OUTER
G1 F1200 X19.513 Y44.713 E8.70738
G1 X19.513 Y42.113 E8.75927
G1 X39.113 Y42.113 E9.15041
G1 X39.113 Y44.713 E9.20229
G0 F6000 X38.843 Y44.443
G0 X38.203 Y43.523
G0 X37.923 Y43.523
;TYPE:SKIN
G1 F1200 X20.703 Y43.523 E9.54594
G1 X20.703 Y43.303 E9.55033
G1 X37.923 Y43.303 E9.89397
G1 X37.923 Y43.523 E9.89836
G0 F6000 X37.923 Y44.103
;MESH:NONMESH
G0 F300 X37.923 Y44.103 Z0.24
G0 F6000 X38.313 Y43.913
;TIME_ELAPSED:31.089386
;LAYER:1
M140 S50
M106 S85
;TYPE:WALL-INNER
;MESH:nail_v02_5mm_encaixe.stl
G1 F953.9 X20.313 Y43.913 E10.25757
G1 X20.313 Y42.913 E10.27753
G1 X38.313 Y42.913 E10.63674
G1 X38.313 Y43.913 E10.65669
G0 F7500 X38.713 Y44.313
G1 F953.9 X19.913 Y44.313 E11.03187
G1 X19.913 Y42.513 E11.06779
G1 X38.713 Y42.513 E11.44296
G1 X38.713 Y44.313 E11.47888
G0 F7500 X39.113 Y44.713
;TYPE:WALL-OUTER
G1 F953.9 X19.513 Y44.713 E11.87002
G1 X19.513 Y42.113 E11.92191
G1 X39.113 Y42.113 E12.31305
G1 X39.113 Y44.713 E12.36493
G0 F7500 X38.843 Y44.443
G0 X38.203 Y43.523
G0 X37.923 Y43.523
;TYPE:SKIN
G1 F953.9 X20.703 Y43.523 E12.70858
G1 X20.703 Y43.303 E12.71297
G1 X37.923 Y43.303 E13.05661
G1 X37.923 Y43.523 E13.061
G0 F7500 X37.923 Y44.103
;MESH:NONMESH
G0 F300 X37.923 Y44.103 Z0.36
G0 F7500 X38.313 Y43.913
;TIME_ELAPSED:41.585106
;LAYER:2
M106 S170
;TYPE:WALL-INNER
;MESH:nail_v02_5mm_encaixe.stl
G1 F953.4 X20.313 Y43.913 E13.42021
G1 X20.313 Y42.913 E13.44017
G1 X38.313 Y42.913 E13.79938
G1 X38.313 Y43.913 E13.81933
G0 F9000 X38.713 Y44.313
G1 F953.4 X19.913 Y44.313 E14.19451
G1 X19.913 Y42.513 E14.23043
G1 X38.713 Y42.513 E14.6056
G1 X38.713 Y44.313 E14.64152
G0 F9000 X39.113 Y44.713
;TYPE:WALL-OUTER
G1 F953.4 X19.513 Y44.713 E15.03266
G1 X19.513 Y42.113 E15.08455
G1 X39.113 Y42.113 E15.47569
G1 X39.113 Y44.713 E15.52757
G0 F9000 X38.843 Y44.443
G0 X38.203 Y43.523
G0 X37.923 Y43.523
;TYPE:SKIN
G1 F953.4 X20.703 Y43.523 E15.87122
G1 X20.703 Y43.303 E15.87561
G1 X37.923 Y43.303 E16.21925
G1 X37.923 Y43.523 E16.22364
G0 F9000 X37.923 Y44.103
;MESH:NONMESH
G0 F300 X37.923 Y44.103 Z0.48
G0 F9000 X38.313 Y43.913
;TIME_ELAPSED:52.089447
;LAYER:3
M106 S255
;TYPE:WALL-INNER
;MESH:nail_v02_5mm_encaixe.stl
G1 F953.4 X20.313 Y43.913 E16.58285
G1 X20.313 Y42.913 E16.60281
G1 X38.313 Y42.913 E16.96202
G1 X38.313 Y43.913 E16.98197
G0 F9000 X38.713 Y44.313
G1 F953.4 X19.913 Y44.313 E17.35715
G1 X19.913 Y42.513 E17.39307
G1 X38.713 Y42.513 E17.76824
G1 X38.713 Y44.313 E17.80416
G0 F9000 X39.113 Y44.713
;TYPE:WALL-OUTER
G1 F953.4 X19.513 Y44.713 E18.1953
G1 X19.513 Y42.113 E18.24719
G1 X39.113 Y42.113 E18.63833
G1 X39.113 Y44.713 E18.69021
G0 F9000 X38.843 Y44.443
G0 X38.203 Y43.523
G0 X37.923 Y43.523
;TYPE:SKIN
G1 F953.4 X20.703 Y43.523 E19.03386
G1 X20.703 Y43.303 E19.03825
G1 X37.923 Y43.303 E19.38189
G1 X37.923 Y43.523 E19.38628
G0 F9000 X37.923 Y44.103
;MESH:NONMESH
G0 F300 X37.923 Y44.103 Z0.6
G0 F9000 X38.313 Y43.913
;TIME_ELAPSED:62.593789
;LAYER:4
;TYPE:WALL-INNER
;MESH:nail_v02_5mm_encaixe.stl
G1 F953.4 X20.313 Y43.913 E19.74549
G1 X20.313 Y42.913 E19.76545
G1 X38.313 Y42.913 E20.12466
G1 X38.313 Y43.913 E20.14461
G0 F9000 X38.713 Y44.313
G1 F953.4 X19.913 Y44.313 E20.51979
G1 X19.913 Y42.513 E20.55571
G1 X38.713 Y42.513 E20.93088
G1 X38.713 Y44.313 E20.9668
G0 F9000 X39.113 Y44.713
;TYPE:WALL-OUTER
G1 F953.4 X19.513 Y44.713 E21.35794
G1 X19.513 Y42.113 E21.40983
G1 X39.113 Y42.113 E21.80097
G1 X39.113 Y44.713 E21.85285
G0 F9000 X38.843 Y44.443
G0 X38.203 Y43.523
G0 X37.923 Y43.523
;TYPE:SKIN
G1 F953.4 X20.703 Y43.523 E22.1965
G1 X20.703 Y43.303 E22.20089
G1 X37.923 Y43.303 E22.54453
G1 X37.923 Y43.523 E22.54892
G0 F9000 X37.923 Y44.103
;MESH:NONMESH
G0 F300 X37.923 Y44.103 Z0.72
G0 F9000 X38.313 Y43.913
;TIME_ELAPSED:73.098131
;LAYER:5
;TYPE:WALL-INNER
;MESH:nail_v02_5mm_encaixe.stl
G1 F953.4 X20.313 Y43.913 E22.90813
G1 X20.313 Y42.913 E22.92809
G1 X38.313 Y42.913 E23.2873
G1 X38.313 Y43.913 E23.30725
G0 F9000 X38.713 Y44.313
G1 F953.4 X19.913 Y44.313 E23.68243
G1 X19.913 Y42.513 E23.71835
G1 X38.713 Y42.513 E24.09352
G1 X38.713 Y44.313 E24.12944
G0 F9000 X39.113 Y44.713
;TYPE:WALL-OUTER
G1 F953.4 X19.513 Y44.713 E24.52058
G1 X19.513 Y42.113 E24.57247
G1 X39.113 Y42.113 E24.96361
G1 X39.113 Y44.713 E25.01549
G0 F9000 X38.843 Y44.443
G0 X38.203 Y43.523
G0 X37.923 Y43.523
;TYPE:SKIN
G1 F953.4 X20.703 Y43.523 E25.35914
G1 X20.703 Y43.303 E25.36353
G1 X37.923 Y43.303 E25.70717
G1 X37.923 Y43.523 E25.71156
G0 F9000 X37.923 Y44.103
;MESH:NONMESH
G0 F300 X37.923 Y44.103 Z0.84
G0 F9000 X38.313 Y43.913
;TIME_ELAPSED:83.602472
;LAYER:6
;TYPE:WALL-INNER
;MESH:nail_v02_5mm_encaixe.stl
G1 F953.4 X20.313 Y43.913 E26.07077
G1 X20.313 Y42.913 E26.09073
G1 X38.313 Y42.913 E26.44994
G1 X38.313 Y43.913 E26.46989
G0 F9000 X38.713 Y44.313
G1 F953.4 X19.913 Y44.313 E26.84507
G1 X19.913 Y42.513 E26.88099
G1 X38.713 Y42.513 E27.25616
G1 X38.713 Y44.313 E27.29208
G0 F9000 X39.113 Y44.713
;TYPE:WALL-OUTER
G1 F953.4 X19.513 Y44.713 E27.68322
G1 X19.513 Y42.113 E27.73511
G1 X39.113 Y42.113 E28.12625
G1 X39.113 Y44.713 E28.17813
G0 F9000 X38.843 Y44.443
G0 X38.203 Y43.523
G0 X37.923 Y43.523
;TYPE:SKIN
G1 F953.4 X20.703 Y43.523 E28.52178
G1 X20.703 Y43.303 E28.52617
G1 X37.923 Y43.303 E28.86981
G1 X37.923 Y43.523 E28.8742
G0 F9000 X37.923 Y44.103
;MESH:NONMESH
G0 F300 X37.923 Y44.103 Z0.96
G0 F9000 X38.313 Y43.913
;TIME_ELAPSED:94.106814
;LAYER:7
;TYPE:WALL-INNER
;MESH:nail_v02_5mm_encaixe.stl
G1 F774.1 X20.313 Y43.913 E29.23341
G1 X20.313 Y42.913 E29.25337
G1 X38.313 Y42.913 E29.61258
G1 X38.313 Y43.913 E29.63253
G0 F9000 X38.713 Y44.313
G1 F774.1 X19.913 Y44.313 E30.00771
G1 X19.913 Y42.513 E30.04363
G1 X38.713 Y42.513 E30.4188
G1 X38.713 Y44.313 E30.45472
G0 F9000 X39.113 Y44.713
;TYPE:WALL-OUTER
G1 F774.1 X19.513 Y44.713 E30.84586
G1 X19.513 Y42.113 E30.89775
G1 X39.113 Y42.113 E31.28889
G1 X39.113 Y44.713 E31.34077
G0 F9000 X38.843 Y44.443
G0 X34.71 Y43.832
;TYPE:FILL
G1 F1548.2 X34.935 Y42.991 E31.35815
G0 F9000 X33.498 Y42.992
G1 F1548.2 X30.365 Y43.832 E31.42288
G0 F9000 X30.691 Y43.832
G1 F1548.2 X29.851 Y42.992 E31.44658
G0 F9000 X28.723 Y42.991
G1 F1548.2 X28.498 Y43.832 E31.46396
G0 F9000 X22.512 Y42.991
G1 F1548.2 X22.286 Y43.832 E31.48134
G0 F9000 X22.205 Y43.832
G1 F1548.2 X21.365 Y42.992 E31.50504
;MESH:NONMESH
G0 F300 X21.365 Y42.992 Z1.08
G0 F9000 X38.313 Y43.913
;TIME_ELAPSED:105.383867
;LAYER:8
;TYPE:WALL-INNER
;MESH:nail_v02_5mm_encaixe.stl
G1 F781.9 X20.334 Y43.913 E31.86383
G1 X20.333 Y43.112 E31.87982
G1 X20.333 Y42.913 E31.88379
G1 X20.532 Y42.913 E31.88636
G1 X38.313 Y42.913 E32.2412
G1 X38.313 Y43.913 E32.26115
G0 F9000 X38.713 Y44.313
G1 F781.9 X19.934 Y44.313 E32.63591
G1 X19.933 Y42.712 E32.66786
G1 X19.933 Y42.513 E32.67183
G1 X20.132 Y42.513 E32.6744
G1 X38.713 Y42.513 E33.0452
G1 X38.713 Y44.313 E33.08112
G0 F9000 X39.113 Y44.713
;TYPE:WALL-OUTER
G1 F781.9 X19.534 Y44.713 E33.47184
G1 X19.533 Y42.113 E33.52373
G1 X39.113 Y42.113 E33.91447
G1 X39.113 Y44.713 E33.96636
G0 F9000 X38.843 Y44.443
G0 X34.622 Y43.832
;TYPE:FILL
G1 F1563.8 X34.847 Y42.992 E33.98371
G0 F9000 X33.827 Y42.992
G1 F1563.8 X30.693 Y43.832 E34.04846
G0 F9000 X30.811 Y43.832
G1 F1563.8 X29.971 Y42.992 E34.07217
G0 F9000 X28.635 Y42.992
G1 F1563.8 X28.41 Y43.832 E34.08952
G0 F9000 X22.424 Y42.991
G1 F1563.8 X22.198 Y43.832 E34.1069
G0 F9000 X22.326 Y43.832
G1 F1563.8 X21.486 Y42.992 E34.13061
;MESH:NONMESH
G0 F300 X21.486 Y42.992 Z1.2
G0 F9000 X38.313 Y43.913
;TIME_ELAPSED:116.537629
;LAYER:9
;TYPE:WALL-INNER
;MESH:nail_v02_5mm_encaixe.stl
G1 F777.6 X20.454 Y43.913 E34.487
G1 X20.453 Y43.112 E34.50299
G1 X20.453 Y42.913 E34.50696
G1 X20.652 Y42.913 E34.50953
G1 X38.313 Y42.913 E34.86197
G1 X38.313 Y43.913 E34.88193
G0 F9000 X38.713 Y44.313
G1 F777.6 X20.054 Y44.313 E35.25429
G1 X20.053 Y42.712 E35.28624
G1 X20.053 Y42.513 E35.29021
