;FLAVOR:Marlin
;TIME:1526
;Filament used: 0.584763m
;Layer height: 0.12
;MINX:10.568
;MINY:32.494
;MINZ:0.12
;MAXX:52.568
;MAXY:79.494
;MAXZ:6.96
;Generated with Cura_SteamEngine 4.5.0
M140 S50
M105
M190 S50
M104 S200
M105
M109 S200
M82 ;absolute extrusion mode
; Ender 3 Custom Start G-code
G92 E0 ; Reset Extruder
G28 ; Home all axes
G1 Z2.0 F3000 ; Move Z Axis up little to prevent scratching of Heat Bed
G1 X0.1 Y20 Z0.3 F5000.0 ; Move to start position
G1 X0.1 Y200.0 Z0.3 F1500.0 E15 ; Draw the first line
G1 X0.4 Y200.0 Z0.3 F5000.0 ; Move to side a little
G1 X0.4 Y20 Z0.3 F1500.0 E30 ; Draw the second line
G92 E0 ; Reset Extruder
G1 Z2.0 F3000 ; Move Z Axis up little to prevent scratching of Heat Bed
G1 X5 Y20 Z0.3 F5000.0 ; Move over to prevent blob squish
G92 E0
G92 E0
G1 F2700 E-5
;LAYER_COUNT:58
;LAYER:0
M107
G0 F6000 X16.807 Y33.591 Z0.12
;TYPE:SKIRT
G1 F2700 E0
G1 F1200 X17.669 Y33.221 E0.01872
G1 X18.559 Y32.925 E0.03744
G1 X19.471 Y32.707 E0.05615
G1 X20.398 Y32.566 E0.07486
G1 X21.269 Y32.507 E0.09228
G1 X21.898 Y32.494 E0.10484
G1 X41.019 Y32.495 E0.48642
G1 X41.717 Y32.505 E0.50035
G1 X42.653 Y32.559 E0.51906
G1 X43.581 Y32.691 E0.53777
G1 X44.495 Y32.903 E0.55649
G1 X45.387 Y33.192 E0.5752
G1 X46.252 Y33.555 E0.59392
G1 X47.082 Y33.991 E0.61263
G1 X47.873 Y34.496 E0.63136
G1 X48.617 Y35.067 E0.65008
G1 X49.31 Y35.699 E0.66879
G1 X49.947 Y36.387 E0.6875
G1 X50.522 Y37.128 E0.70622
G1 X51.033 Y37.914 E0.72493
G1 X51.475 Y38.742 E0.74366
G1 X51.844 Y39.604 E0.76237
G1 X52.139 Y40.494 E0.78108
G1 X52.357 Y41.406 E0.7998
G1 X52.497 Y42.334 E0.81852
G1 X52.555 Y43.195 E0.83575
G1 X52.568 Y43.824 E0.8483
G1 X52.567 Y67.894 E1.32864
G1 X52.558 Y68.621 E1.34315
G1 X52.507 Y69.558 E1.36188
G1 X52.375 Y70.486 E1.38059
G1 X52.166 Y71.4 E1.3993
G1 X51.879 Y72.293 E1.41801
G1 X51.517 Y73.159 E1.43675
G1 X51.083 Y73.99 E1.45545
G1 X50.579 Y74.781 E1.47417
G1 X50.01 Y75.526 E1.49288
G1 X49.379 Y76.221 E1.51161
G1 X48.692 Y76.859 E1.53032
G1 X47.953 Y77.436 E1.54903
G1 X47.167 Y77.948 E1.56775
G1 X46.341 Y78.391 E1.58646
G1 X45.479 Y78.763 E1.60519
G1 X44.59 Y79.059 E1.62389
G1 X43.678 Y79.279 E1.64261
G1 X42.751 Y79.42 E1.66133
G1 X41.867 Y79.481 E1.67901
G1 X41.238 Y79.494 E1.69156
G1 X22.133 Y79.493 E2.07282
G1 X21.435 Y79.484 E2.08675
G1 X20.499 Y79.432 E2.10546
G1 X19.57 Y79.3 E2.12419
G1 X18.656 Y79.09 E2.1429
G1 X17.763 Y78.803 E2.16162
G1 X16.898 Y78.44 E2.18034
G1 X16.067 Y78.006 E2.19905
G1 X15.276 Y77.502 E2.21777
G1 X14.531 Y76.932 E2.23649
G1 X13.837 Y76.301 E2.25521
G1 X13.2 Y75.614 E2.2739
G1 X12.623 Y74.874 E2.29263
G1 X12.111 Y74.088 E2.31135
G1 X11.668 Y73.261 E2.33007
G1 X11.297 Y72.4 E2.34878
G1 X11.001 Y71.51 E2.3675
G1 X10.782 Y70.598 E2.38622
G1 X10.641 Y69.671 E2.40493
G1 X10.581 Y68.782 E2.42271
G1 X10.568 Y68.152 E2.43528
G1 X10.569 Y44.019 E2.91688
G1 X10.578 Y43.354 E2.93016
G1 X10.631 Y42.418 E2.94886
G1 X10.763 Y41.489 E2.96759
G1 X10.974 Y40.575 E2.98631
G1 X11.262 Y39.683 E3.00502
G1 X11.625 Y38.818 E3.02374
G1 X12.06 Y37.987 E3.04245
G1 X12.564 Y37.197 E3.06115
G1 X13.134 Y36.452 E3.07987
G1 X13.766 Y35.758 E3.09861
G1 X14.454 Y35.121 E3.11732
G1 X15.194 Y34.545 E3.13603
G1 X15.98 Y34.033 E3.15475
G1 X16.807 Y33.591 E3.17346
G0 F6000 X17.179 Y33.858
G1 F1200 X18.033 Y33.513 E3.19184
G1 X18.913 Y33.243 E3.21021
G1 X19.813 Y33.051 E3.22858
G1 X20.727 Y32.937 E3.24696
G1 X21.28 Y32.907 E3.25801
G1 X21.898 Y32.894 E3.27035
G1 X41.013 Y32.895 E3.65181
G1 X41.711 Y32.905 E3.66574
G1 X42.63 Y32.958 E3.68411
G1 X43.541 Y33.091 E3.70248
G1 X44.437 Y33.302 E3.72085
G1 X45.311 Y33.59 E3.73921
G1 X46.158 Y33.953 E3.7576
G1 X46.969 Y34.388 E3.77597
G1 X47.739 Y34.892 E3.79433
G1 X48.463 Y35.461 E3.81271
G1 X49.135 Y36.091 E3.83109
G1 X49.75 Y36.776 E3.84946
G1 X50.303 Y37.512 E3.86784
G1 X50.79 Y38.293 E3.8862
G1 X51.207 Y39.114 E3.90458
G1 X51.552 Y39.968 E3.92296
G1 X51.821 Y40.848 E3.94132
G1 X52.013 Y41.749 E3.95971
G1 X52.126 Y42.662 E3.97807
G1 X52.155 Y43.206 E3.98894
G1 X52.168 Y43.824 E4.00127
G1 X52.167 Y67.889 E4.48152
G1 X52.158 Y68.616 E4.49603
G1 X52.107 Y69.535 E4.51439
G1 X51.976 Y70.447 E4.53278
G1 X51.766 Y71.343 E4.55115
G1 X51.48 Y72.218 E4.56952
G1 X51.119 Y73.065 E4.58789
G1 X50.685 Y73.877 E4.60626
G1 X50.183 Y74.649 E4.62464
G1 X49.615 Y75.374 E4.64302
G1 X48.987 Y76.047 E4.66139
G1 X48.303 Y76.663 E4.67976
G1 X47.568 Y77.217 E4.69813
G1 X46.788 Y77.706 E4.7165
G1 X45.968 Y78.125 E4.73488
G1 X45.115 Y78.471 E4.75325
G1 X44.235 Y78.742 E4.77162
G1 X43.335 Y78.935 E4.78999
G1 X42.421 Y79.05 E4.80837
G1 X41.856 Y79.081 E4.81966
G1 X41.238 Y79.094 E4.832
G1 X22.138 Y79.093 E5.21316
G1 X21.44 Y79.084 E5.22709
G1 X20.521 Y79.032 E5.24546
G1 X19.61 Y78.901 E5.26383
G1 X18.714 Y78.691 E5.28219
G1 X17.839 Y78.404 E5.30057
G1 X16.992 Y78.042 E5.31895
G1 X16.18 Y77.608 E5.33733
G1 X15.409 Y77.106 E5.35569
G1 X14.684 Y76.538 E5.37407
G1 X14.011 Y75.909 E5.39245
G1 X13.396 Y75.225 E5.4108
G1 X12.842 Y74.49 E5.42917
G1 X12.354 Y73.709 E5.44755
G1 X11.935 Y72.889 E5.46593
G1 X11.589 Y72.036 E5.4843
G1 X11.319 Y71.156 E5.50267
G1 X11.126 Y70.255 E5.52105
G1 X11.012 Y69.342 E5.53942
G1 X10.981 Y68.771 E5.55083
G1 X10.968 Y68.152 E5.56318
G1 X10.969 Y44.025 E6.04466
G1 X10.978 Y43.36 E6.05794
G1 X11.03 Y42.44 E6.07632
G1 X11.162 Y41.529 E6.09469
G1 X11.373 Y40.633 E6.11306
G1 X11.66 Y39.758 E6.13144
G1 X12.023 Y38.912 E6.14981
G1 X12.457 Y38.1 E6.16819
G1 X12.96 Y37.329 E6.18656
G1 X13.529 Y36.605 E6.20493
G1 X14.157 Y35.933 E6.22329
G1 X14.842 Y35.317 E6.24167
G1 X15.578 Y34.764 E6.26004
G1 X16.359 Y34.276 E6.27842
G1 X17.179 Y33.858 E6.29679
G0 F6000 X17.55 Y34.132
G1 F1200 X18.395 Y33.812 E6.31482
G1 X19.264 Y33.569 E6.33283
G1 X20.152 Y33.403 E6.35086
G1 X21.291 Y33.307 E6.37367
G1 X21.898 Y33.294 E6.38578
G1 X41.007 Y33.295 E6.76712
G1 X41.705 Y33.305 E6.78105
G1 X42.607 Y33.358 E6.79909
G1 X43.5 Y33.49 E6.8171
G1 X44.378 Y33.701 E6.83512
G1 X45.234 Y33.989 E6.85314
G1 X46.061 Y34.351 E6.87116
G1 X46.853 Y34.786 E6.88919
G1 X47.604 Y35.288 E6.90722
G1 X48.307 Y35.855 E6.92524
G1 X48.957 Y36.482 E6.94326
G1 X49.549 Y37.164 E6.96129
G1 X50.079 Y37.895 E6.97931
G1 X50.541 Y38.671 E6.99733
G1 X50.934 Y39.484 E7.01535
G1 X51.252 Y40.329 E7.03337
G1 X51.495 Y41.199 E7.05139
G1 X51.66 Y42.087 E7.06942
G1 X51.755 Y43.217 E7.09205
G1 X51.768 Y43.824 E7.10416
G1 X51.767 Y67.884 E7.58431
G1 X51.758 Y68.611 E7.59882
G1 X51.707 Y69.513 E7.61684
G1 X51.576 Y70.407 E7.63488
G1 X51.367 Y71.285 E7.65289
G1 X51.081 Y72.142 E7.67092
G1 X50.72 Y72.97 E7.68894
G1 X50.288 Y73.762 E7.70695
G1 X49.787 Y74.514 E7.72498
G1 X49.221 Y75.218 E7.743
G1 X48.596 Y75.869 E7.76101
G1 X47.915 Y76.463 E7.77905
G1 X47.184 Y76.994 E7.79708
G1 X46.41 Y77.458 E7.81509
G1 X45.597 Y77.852 E7.83312
G1 X44.753 Y78.172 E7.85113
G1 X43.883 Y78.417 E7.86917
G1 X42.996 Y78.583 E7.88717
G1 X41.845 Y78.681 E7.91023
G1 X41.238 Y78.694 E7.92234
G1 X22.143 Y78.693 E8.3034
G1 X21.445 Y78.684 E8.31733
G1 X20.544 Y78.633 E8.33534
G1 X19.65 Y78.501 E8.35338
G1 X18.772 Y78.292 E8.37139
G1 X17.915 Y78.005 E8.38943
G1 X17.088 Y77.644 E8.40743
G1 X16.295 Y77.211 E8.42546
G1 X15.544 Y76.71 E8.44348
G1 X14.84 Y76.144 E8.46151
G1 X14.189 Y75.518 E8.47953
G1 X13.596 Y74.837 E8.49755
G1 X13.066 Y74.106 E8.51557
G1 X12.602 Y73.331 E8.53359
G1 X12.208 Y72.518 E8.55162
G1 X11.888 Y71.674 E8.56964
G1 X11.644 Y70.804 E8.58767
G1 X11.478 Y69.916 E8.6057
G1 X11.381 Y68.761 E8.62883
G1 X11.368 Y68.152 E8.64098
G1 X11.369 Y44.03 E9.12236
G1 X11.378 Y43.365 E9.13563
G1 X11.43 Y42.463 E9.15367
G1 X11.562 Y41.57 E9.17168
G1 X11.772 Y40.692 E9.1897
G1 X12.059 Y39.835 E9.20773
G1 X12.421 Y39.008 E9.22575
G1 X12.854 Y38.216 E9.24376
G1 X13.356 Y37.465 E9.26179
G1 X13.923 Y36.761 E9.27983
G1 X14.549 Y36.111 E9.29783
G1 X15.23 Y35.518 E9.31585
G1 X15.962 Y34.988 E9.33389
G1 X16.737 Y34.525 E9.35191
G1 X17.55 Y34.132 E9.36993
G1 F2700 E4.36993
;MESH:nail_v02_5mm.stl
G0 F6000 X21.982 Y42.829
G0 X21.982 Y43.908
G0 X22.75 Y67.312
G0 X40.568 Y67.494
;TYPE:WALL-INNER
G1 F2700 E9.36993
G1 F1200 X22.568 Y67.494 E9.72914
G1 X22.568 Y44.494 E10.18813
G1 X40.568 Y44.494 E10.54733
G1 X40.568 Y67.494 E11.00632
G0 F6000 X40.968 Y67.894
G1 F1200 X22.168 Y67.894 E11.3815
G1 X22.168 Y44.094 E11.85645
G1 X40.968 Y44.094 E12.23163
G1 X40.968 Y67.894 E12.70658
G0 F6000 X41.368 Y68.294
;TYPE:WALL-OUTER
G1 F1200 X21.768 Y68.294 E13.09772
G1 X21.768 Y43.694 E13.58864
G1 X41.368 Y43.694 E13.97978
G1 X41.368 Y68.294 E14.4707
G0 F6000 X41.098 Y68.024
G0 X40.458 Y67.104
G0 X40.178 Y67.104
;TYPE:SKIN
G1 F1200 X22.958 Y67.104 E14.81434
G1 X22.958 Y44.884 E15.25777
G1 X40.178 Y44.884 E15.60141
G1 X40.178 Y67.104 E16.04484
G0 F6000 X40.458 Y67.104
G0 X40.394 Y67.291
G0 X23.385 Y67.384
G0 X23.385 Y66.943
G1 F1200 X23.117 Y66.675 E16.0524
G0 F6000 X23.117 Y66.109
G1 F1200 X23.951 Y66.943 E16.07594
G0 F6000 X24.516 Y66.943
G1 F1200 X23.117 Y65.543 E16.11543
G0 F6000 X23.117 Y64.978
G1 F1200 X25.082 Y66.943 E16.17089
G0 F6000 X25.648 Y66.943
G1 F1200 X23.117 Y64.412 E16.24232
G0 F6000 X23.117 Y63.846
G1 F1200 X26.213 Y66.943 E16.32971
G0 F6000 X26.779 Y66.943
G1 F1200 X23.117 Y63.281 E16.43306
G0 F6000 X23.117 Y62.715
G1 F1200 X27.345 Y66.943 E16.55238
G0 F6000 X27.91 Y66.943
G1 F1200 X23.117 Y62.149 E16.68767
G0 F6000 X23.117 Y61.584
G1 F1200 X28.476 Y66.943 E16.83891
G0 F6000 X29.042 Y66.943
G1 F1200 X23.117 Y61.018 E17.00613
G0 F6000 X23.117 Y60.452
G1 F1200 X29.607 Y66.943 E17.1893
G0 F6000 X30.173 Y66.943
G1 F1200 X23.117 Y59.886 E17.38845
G0 F6000 X23.117 Y59.321
G1 F1200 X30.739 Y66.943 E17.60356
G0 F6000 X31.305 Y66.943
G1 F1200 X23.117 Y58.755 E17.83464
G0 F6000 X23.117 Y58.189
G1 F1200 X31.87 Y66.943 E18.08169
G0 F6000 X32.436 Y66.943
G1 F1200 X23.117 Y57.624 E18.34469
G0 F6000 X23.117 Y57.058
G1 F1200 X33.002 Y66.943 E18.62366
G0 F6000 X33.567 Y66.943
G1 F1200 X23.117 Y56.492 E18.9186
G0 F6000 X23.117 Y55.927
G1 F1200 X34.133 Y66.943 E19.2295
G0 F6000 X34.699 Y66.943
G1 F1200 X23.117 Y55.361 E19.55636
G0 F6000 X23.117 Y54.795
G1 F1200 X35.264 Y66.943 E19.89919
G0 F6000 X35.83 Y66.943
G1 F1200 X23.117 Y54.23 E20.25798
G0 F6000 X23.117 Y53.664
G1 F1200 X36.396 Y66.943 E20.63274
G0 F6000 X36.961 Y66.943
G1 F1200 X23.117 Y53.098 E21.02347
G0 F6000 X23.117 Y52.533
G1 F1200 X37.527 Y66.943 E21.43015
G0 F6000 X38.093 Y66.943
G1 F1200 X23.117 Y51.967 E21.8528
G0 F6000 X23.117 Y51.401
G1 F1200 X38.658 Y66.943 E22.29142
G0 F6000 X39.224 Y66.943
G1 F1200 X23.117 Y50.836 E22.74599
G0 F6000 X23.117 Y50.27
G1 F1200 X39.79 Y66.943 E23.21654
G0 F6000 X40.018 Y66.605
G1 F1200 X23.117 Y49.704 E23.69352
G0 F6000 X23.117 Y49.138
G1 F1200 X40.018 Y66.039 E24.1705
G0 F6000 X40.018 Y65.473
G1 F1200 X23.117 Y48.573 E24.64747
G0 F6000 X23.117 Y48.007
G1 F1200 X40.018 Y64.908 E25.12446
G0 F6000 X40.018 Y64.342
G1 F1200 X23.117 Y47.441 E25.60144
G0 F6000 X23.117 Y46.876
G1 F1200 X40.018 Y63.776 E26.07841
G0 F6000 X40.018 Y63.211
G1 F1200 X23.117 Y46.31 E26.55539
G0 F6000 X23.117 Y45.744
G1 F1200 X40.018 Y62.645 E27.03237
G0 F6000 X40.018 Y62.079
G1 F1200 X23.117 Y45.179 E27.50934
G0 F6000 X23.547 Y45.043
G1 F1200 X40.018 Y61.514 E27.97419
G0 F6000 X40.018 Y60.948
G1 F1200 X24.113 Y45.043 E28.42306
G0 F6000 X24.678 Y45.043
G1 F1200 X40.018 Y60.382 E28.85598
G0 F6000 X40.018 Y59.816
G1 F1200 X25.244 Y45.043 E29.27292
G0 F6000 X25.81 Y45.043
G1 F1200 X40.018 Y59.251 E29.6739
G0 F6000 X40.018 Y58.685
G1 F1200 X26.375 Y45.043 E30.05892
G0 F6000 X26.941 Y45.043
G1 F1200 X40.018 Y58.119 E30.42796
G0 F6000 X40.018 Y57.554
G1 F1200 X27.507 Y45.043 E30.78105
G0 F6000 X28.072 Y45.043
G1 F1200 X40.018 Y56.988 E31.11818
G0 F6000 X40.018 Y56.422
G1 F1200 X28.638 Y45.043 E31.43933
G0 F6000 X29.204 Y45.043
G1 F1200 X40.018 Y55.857 E31.74453
G0 F6000 X40.018 Y55.291
G1 F1200 X29.769 Y45.043 E32.03376
G0 F6000 X30.335 Y45.043
G1 F1200 X40.018 Y54.725 E32.30702
G0 F6000 X40.018 Y54.16
G1 F1200 X30.901 Y45.043 E32.56432
G0 F6000 X31.466 Y45.043
G1 F1200 X40.018 Y53.594 E32.80567
G0 F6000 X40.018 Y53.028
G1 F1200 X32.032 Y45.043 E33.03103
G0 F6000 X32.598 Y45.043
G1 F1200 X40.018 Y52.463 E33.24044
G0 F6000 X40.018 Y51.897
G1 F1200 X33.164 Y45.043 E33.43388
G0 F6000 X33.729 Y45.043
G1 F1200 X40.018 Y51.331 E33.61135
G0 F6000 X40.018 Y50.766
G1 F1200 X34.295 Y45.043 E33.77287
G0 F6000 X34.861 Y45.043
G1 F1200 X40.018 Y50.2 E33.91841
G0 F6000 X40.018 Y49.634
G1 F1200 X35.426 Y45.043 E34.04799
G0 F6000 X35.992 Y45.043
G1 F1200 X40.018 Y49.068 E34.1616
G0 F6000 X40.018 Y48.503
G1 F1200 X36.558 Y45.043 E34.25925
G0 F6000 X37.123 Y45.043
G1 F1200 X40.018 Y47.937 E34.34094
G0 F6000 X40.018 Y47.371
G1 F1200 X37.689 Y45.043 E34.40665
G0 F6000 X38.255 Y45.043
G1 F1200 X40.018 Y46.806 E34.45641
G0 F6000 X40.018 Y46.24
G1 F1200 X38.82 Y45.043 E34.49021
G0 F6000 X39.386 Y45.043
G1 F1200 X40.018 Y45.674 E34.50803
G0 F6000 X40.018 Y45.109
G1 F1200 X39.952 Y45.043 E34.50989
G0 F6000 X39.952 Y44.304
;MESH:NONMESH
G0 F300 X39.952 Y44.304 Z0.24
G0 F6000 X40.386 Y44.676
G0 X40.568 Y67.494
;TIME_ELAPSED:98.667974
;LAYER:1
M140 S50
M106 S85
;TYPE:WALL-INNER
;MESH:nail_v02_5mm.stl
G1 F1350 X22.568 Y67.494 E34.8691
G1 X22.568 Y44.494 E35.32809
G1 X40.568 Y44.494 E35.6873
G1 X40.568 Y67.494 E36.14629
G0 F7500 X40.968 Y67.894
G1 F1350 X22.168 Y67.894 E36.52146
G1 X22.168 Y44.094 E36.99642
G1 X40.968 Y44.094 E37.37159
G1 X40.968 Y67.894 E37.84655
G0 F7500 X41.368 Y68.294
;TYPE:WALL-OUTER
G1 F1350 X21.768 Y68.294 E38.23769
G1 X21.768 Y43.694 E38.72861
G1 X41.368 Y43.694 E39.11974
G1 X41.368 Y68.294 E39.61066
G0 F7500 X41.098 Y68.024
G0 X40.458 Y67.104
G0 X40.178 Y67.104
;TYPE:SKIN
G1 F1350 X22.958 Y67.104 E39.95431
G1 X22.958 Y44.884 E40.39773
G1 X40.178 Y44.884 E40.74138
G1 X40.178 Y67.104 E41.1848
G0 F7500 X39.405 Y66.943
G1 F1350 X40.018 Y66.33 E41.2021
G0 F7500 X40.018 Y65.765
G1 F1350 X38.839 Y66.943 E41.23536
G0 F7500 X38.274 Y66.943
G1 F1350 X40.018 Y65.199 E41.28458
G0 F7500 X40.018 Y64.633
G1 F1350 X37.708 Y66.943 E41.34977
G0 F7500 X37.142 Y66.943
G1 F1350 X40.018 Y64.068 E41.43093
G0 F7500 X40.018 Y63.502
G1 F1350 X36.577 Y66.943 E41.52804
G0 F7500 X36.011 Y66.943
G1 F1350 X40.018 Y62.936 E41.64112
G0 F7500 X40.018 Y62.371
G1 F1350 X35.445 Y66.943 E41.77017
G0 F7500 X34.88 Y66.943
G1 F1350 X40.018 Y61.805 E41.91518
G0 F7500 X40.018 Y61.239
G1 F1350 X34.314 Y66.943 E42.07615
G0 F7500 X33.748 Y66.943
G1 F1350 X40.018 Y60.674 E42.25309
G0 F7500 X40.018 Y60.108
G1 F1350 X33.183 Y66.943 E42.44599
G0 F7500 X32.617 Y66.943
G1 F1350 X40.018 Y59.542 E42.65486
G0 F7500 X40.018 Y58.976
G1 F1350 X32.051 Y66.943 E42.87971
G0 F7500 X31.486 Y66.943
G1 F1350 X40.018 Y58.411 E43.1205
G0 F7500 X40.018 Y57.845
G1 F1350 X30.92 Y66.943 E43.37727
G0 F7500 X30.354 Y66.943
G1 F1350 X40.018 Y57.279 E43.65001
G0 F7500 X40.018 Y56.714
G1 F1350 X29.788 Y66.943 E43.9387
G0 F7500 X29.223 Y66.943
G1 F1350 X40.018 Y56.148 E44.24336
G0 F7500 X40.018 Y55.582
G1 F1350 X28.657 Y66.943 E44.56399
G0 F7500 X28.091 Y66.943
G1 F1350 X40.018 Y55.017 E44.90059
G0 F7500 X40.018 Y54.451
G1 F1350 X27.526 Y66.943 E45.25314
G0 F7500 X26.96 Y66.943
G1 F1350 X40.018 Y53.885 E45.62166
G0 F7500 X40.018 Y53.32
G1 F1350 X26.394 Y66.943 E46.00615
G0 F7500 X25.829 Y66.943
G1 F1350 X40.018 Y52.754 E46.40659
G0 F7500 X40.018 Y52.188
G1 F1350 X25.263 Y66.943 E46.82301
G0 F7500 X24.697 Y66.943
G1 F1350 X40.018 Y51.623 E47.25539
G0 F7500 X40.018 Y51.057
G1 F1350 X24.132 Y66.943 E47.70372
G0 F7500 X23.566 Y66.943
G1 F1350 X40.018 Y50.491 E48.16804
G0 F7500 X40.018 Y49.925
G1 F1350 X23.118 Y66.825 E48.64499
G0 F7500 X23.118 Y66.26
G1 F1350 X40.018 Y49.36 E49.12194
G0 F7500 X40.018 Y48.794
G1 F1350 X23.118 Y65.694 E49.5989
G0 F7500 X23.118 Y65.128
G1 F1350 X40.018 Y48.228 E50.07585
G0 F7500 X40.018 Y47.663
G1 F1350 X23.118 Y64.563 E50.55281
G0 F7500 X23.118 Y63.997
G1 F1350 X40.018 Y47.097 E51.02976
G0 F7500 X40.018 Y46.531
G1 F1350 X23.118 Y63.431 E51.50672
G0 F7500 X23.118 Y62.866
G1 F1350 X40.018 Y45.966 E51.98367
G0 F7500 X40.018 Y45.4
G1 F1350 X23.118 Y62.3 E52.46063
G0 F7500 X23.118 Y61.734
G1 F1350 X39.81 Y45.042 E52.93171
G0 F7500 X39.244 Y45.042
G1 F1350 X23.118 Y61.168 E53.38682
