;FLAVOR:Marlin
;TIME:288
;Filament used: 0.0677563m
;Layer height: 0.12
;MINX:96.5
;MINY:105
;MINZ:0.12
;MAXX:138.5
;MAXY:130
;MAXZ:3.96
;Generated with Cura_SteamEngine 4.5.0
M140 S50
M105
M190 S50
M104 S200
M105
M109 S200
M82 ;absolute extrusion mode
; Ender 3 Custom Start G-code
G92 E0 ; Reset Extruder
G28 ; Home all axes
G1 Z2.0 F3000 ; Move Z Axis up little to prevent scratching of Heat Bed
G1 X0.1 Y20 Z0.3 F5000.0 ; Move to start position
G1 X0.1 Y200.0 Z0.3 F1500.0 E15 ; Draw the first line
G1 X0.4 Y200.0 Z0.3 F5000.0 ; Move to side a little
G1 X0.4 Y20 Z0.3 F1500.0 E30 ; Draw the second line
G92 E0 ; Reset Extruder
G1 Z2.0 F3000 ; Move Z Axis up little to prevent scratching of Heat Bed
G1 X5 Y20 Z0.3 F5000.0 ; Move over to prevent blob squish
G92 E0
G92 E0
G1 F2700 E-5
;LAYER_COUNT:33
;LAYER:0
M107
G0 F6000 X99.698 Y108.264 Z0.12
;TYPE:SKIRT
G1 F2700 E0
G1 F1200 X100.386 Y107.627 E0.01871
G1 X101.126 Y107.051 E0.03742
G1 X101.912 Y106.539 E0.05614
G1 X102.739 Y106.097 E0.07486
G1 X103.601 Y105.727 E0.09358
G1 X104.491 Y105.431 E0.11229
G1 X105.403 Y105.213 E0.13101
G1 X106.33 Y105.072 E0.14972
G1 X107.201 Y105.013 E0.16714
G1 X107.83 Y105 E0.1797
G1 X126.951 Y105.001 E0.56128
G1 X127.649 Y105.011 E0.57521
G1 X128.585 Y105.065 E0.59392
G1 X129.513 Y105.197 E0.61262
G1 X130.427 Y105.409 E0.63135
G1 X131.319 Y105.698 E0.65006
G1 X132.184 Y106.061 E0.66878
G1 X133.014 Y106.497 E0.68749
G1 X133.805 Y107.002 E0.70622
G1 X134.549 Y107.573 E0.72493
G1 X135.242 Y108.205 E0.74365
G1 X135.879 Y108.893 E0.76236
G1 X136.454 Y109.634 E0.78108
G1 X136.965 Y110.42 E0.79979
G1 X137.407 Y111.248 E0.81852
G1 X137.776 Y112.11 E0.83723
G1 X138.071 Y113 E0.85594
G1 X138.289 Y113.912 E0.87465
G1 X138.429 Y114.84 E0.89338
G1 X138.487 Y115.701 E0.9106
G1 X138.5 Y116.33 E0.92316
G1 X138.499 Y118.4 E0.96447
G1 X138.49 Y119.127 E0.97898
G1 X138.439 Y120.064 E0.9977
G1 X138.307 Y120.992 E1.01641
G1 X138.098 Y121.906 E1.03512
G1 X137.811 Y122.799 E1.05384
G1 X137.449 Y123.665 E1.07257
G1 X137.015 Y124.496 E1.09128
G1 X136.511 Y125.287 E1.11
G1 X135.942 Y126.032 E1.1287
G1 X135.311 Y126.727 E1.14744
G1 X134.624 Y127.365 E1.16615
G1 X133.885 Y127.942 E1.18486
G1 X133.099 Y128.454 E1.20358
G1 X132.273 Y128.897 E1.22228
G1 X131.411 Y129.269 E1.24102
G1 X130.522 Y129.565 E1.25972
G1 X129.61 Y129.785 E1.27844
G1 X128.683 Y129.926 E1.29715
G1 X127.799 Y129.987 E1.31483
G1 X127.17 Y130 E1.32739
G1 X108.065 Y129.999 E1.70865
G1 X107.367 Y129.99 E1.72258
G1 X106.431 Y129.938 E1.74129
G1 X105.502 Y129.806 E1.76001
G1 X104.588 Y129.596 E1.77873
G1 X103.695 Y129.309 E1.79745
G1 X102.83 Y128.946 E1.81617
G1 X101.999 Y128.512 E1.83487
G1 X101.208 Y128.008 E1.85359
G1 X100.463 Y127.438 E1.87231
G1 X99.769 Y126.807 E1.89103
G1 X99.132 Y126.12 E1.90973
G1 X98.555 Y125.38 E1.92845
G1 X98.043 Y124.594 E1.94717
G1 X97.6 Y123.767 E1.96589
G1 X97.229 Y122.906 E1.9846
G1 X96.933 Y122.016 E2.00332
G1 X96.714 Y121.104 E2.02204
G1 X96.573 Y120.177 E2.04075
G1 X96.513 Y119.288 E2.05853
G1 X96.5 Y118.658 E2.07111
G1 X96.501 Y116.525 E2.11367
G1 X96.51 Y115.86 E2.12695
G1 X96.563 Y114.924 E2.14565
G1 X96.695 Y113.995 E2.16438
G1 X96.906 Y113.081 E2.1831
G1 X97.194 Y112.189 E2.20181
G1 X97.557 Y111.324 E2.22053
G1 X97.992 Y110.493 E2.23924
G1 X98.496 Y109.703 E2.25794
G1 X99.066 Y108.958 E2.27666
G1 X99.698 Y108.264 E2.2954
G0 F6000 X100.089 Y108.439
G1 F1200 X100.774 Y107.823 E2.31378
G1 X101.51 Y107.27 E2.33215
G1 X102.291 Y106.782 E2.35053
G1 X103.111 Y106.364 E2.3689
G1 X103.965 Y106.019 E2.38728
G1 X104.845 Y105.749 E2.40565
G1 X105.745 Y105.557 E2.42401
G1 X106.659 Y105.443 E2.44239
G1 X107.212 Y105.413 E2.45344
G1 X107.83 Y105.4 E2.46578
G1 X126.945 Y105.401 E2.84724
G1 X127.643 Y105.411 E2.86117
G1 X128.562 Y105.464 E2.87954
G1 X129.473 Y105.597 E2.89791
G1 X130.369 Y105.808 E2.91628
G1 X131.243 Y106.096 E2.93465
G1 X132.09 Y106.459 E2.95304
G1 X132.901 Y106.894 E2.9714
G1 X133.671 Y107.398 E2.98977
G1 X134.395 Y107.967 E3.00814
G1 X135.067 Y108.597 E3.02653
G1 X135.682 Y109.282 E3.0449
G1 X136.235 Y110.018 E3.06327
G1 X136.722 Y110.799 E3.08164
G1 X137.139 Y111.62 E3.10001
G1 X137.484 Y112.474 E3.11839
G1 X137.753 Y113.354 E3.13676
G1 X137.945 Y114.255 E3.15514
G1 X138.058 Y115.168 E3.1735
G1 X138.087 Y115.712 E3.18437
G1 X138.1 Y116.33 E3.19671
G1 X138.099 Y118.395 E3.23792
G1 X138.09 Y119.122 E3.25243
G1 X138.039 Y120.041 E3.27079
G1 X137.908 Y120.953 E3.28918
G1 X137.698 Y121.849 E3.30755
G1 X137.412 Y122.724 E3.32592
G1 X137.051 Y123.571 E3.34429
G1 X136.617 Y124.383 E3.36266
G1 X136.115 Y125.155 E3.38104
G1 X135.547 Y125.88 E3.39942
G1 X134.919 Y126.553 E3.41779
G1 X134.235 Y127.169 E3.43616
G1 X133.5 Y127.723 E3.45453
G1 X132.72 Y128.212 E3.4729
G1 X131.9 Y128.631 E3.49128
G1 X131.047 Y128.977 E3.50965
G1 X130.167 Y129.248 E3.52802
G1 X129.267 Y129.441 E3.54639
G1 X128.353 Y129.556 E3.56477
G1 X127.788 Y129.587 E3.57607
G1 X127.17 Y129.6 E3.5884
G1 X108.07 Y129.599 E3.96956
G1 X107.372 Y129.59 E3.98349
G1 X106.453 Y129.538 E4.00186
G1 X105.542 Y129.407 E4.02023
G1 X104.646 Y129.197 E4.03859
G1 X103.771 Y128.91 E4.05697
G1 X102.924 Y128.548 E4.07535
G1 X102.112 Y128.114 E4.09373
G1 X101.341 Y127.612 E4.11209
G1 X100.616 Y127.044 E4.13047
G1 X99.943 Y126.415 E4.14885
G1 X99.328 Y125.731 E4.1672
G1 X98.774 Y124.996 E4.18557
G1 X98.286 Y124.215 E4.20395
G1 X97.867 Y123.395 E4.22233
G1 X97.521 Y122.542 E4.2407
G1 X97.251 Y121.662 E4.25907
G1 X97.058 Y120.761 E4.27745
G1 X96.944 Y119.848 E4.29582
G1 X96.913 Y119.277 E4.30723
G1 X96.9 Y118.658 E4.31958
G1 X96.901 Y116.531 E4.36203
G1 X96.91 Y115.866 E4.3753
G1 X96.962 Y114.946 E4.39369
G1 X97.094 Y114.035 E4.41206
G1 X97.305 Y113.139 E4.43043
G1 X97.592 Y112.264 E4.44881
G1 X97.955 Y111.418 E4.46718
G1 X98.389 Y110.606 E4.48555
G1 X98.892 Y109.835 E4.50392
G1 X99.461 Y109.111 E4.5223
G1 X100.089 Y108.439 E4.54065
G0 F6000 X100.481 Y108.617
G1 F1200 X101.162 Y108.024 E4.55867
G1 X101.894 Y107.494 E4.57671
G1 X102.669 Y107.031 E4.59473
G1 X103.482 Y106.638 E4.61275
G1 X104.327 Y106.318 E4.63078
G1 X105.196 Y106.075 E4.64878
G1 X106.084 Y105.909 E4.66681
G1 X107.223 Y105.813 E4.68962
G1 X107.83 Y105.8 E4.70174
G1 X126.939 Y105.801 E5.08308
G1 X127.637 Y105.811 E5.09701
G1 X128.539 Y105.864 E5.11504
G1 X129.432 Y105.996 E5.13306
G1 X130.31 Y106.207 E5.15108
G1 X131.166 Y106.495 E5.1691
G1 X131.993 Y106.857 E5.18712
G1 X132.785 Y107.292 E5.20515
G1 X133.536 Y107.794 E5.22317
G1 X134.239 Y108.361 E5.2412
G1 X134.889 Y108.988 E5.25922
G1 X135.481 Y109.67 E5.27724
G1 X136.011 Y110.401 E5.29526
G1 X136.473 Y111.177 E5.31328
G1 X136.866 Y111.99 E5.33131
G1 X137.184 Y112.835 E5.34932
G1 X137.427 Y113.705 E5.36735
G1 X137.592 Y114.593 E5.38537
G1 X137.687 Y115.723 E5.408
G1 X137.7 Y116.33 E5.42012
G1 X137.699 Y118.39 E5.46123
G1 X137.69 Y119.117 E5.47574
G1 X137.639 Y120.019 E5.49377
G1 X137.508 Y120.913 E5.5118
G1 X137.299 Y121.791 E5.52981
G1 X137.013 Y122.648 E5.54784
G1 X136.652 Y123.476 E5.56586
G1 X136.22 Y124.268 E5.58387
G1 X135.719 Y125.02 E5.6019
G1 X135.153 Y125.724 E5.61993
G1 X134.528 Y126.375 E5.63794
G1 X133.847 Y126.969 E5.65597
G1 X133.116 Y127.5 E5.674
G1 X132.342 Y127.964 E5.69201
G1 X131.529 Y128.358 E5.71004
G1 X130.685 Y128.678 E5.72805
G1 X129.815 Y128.923 E5.74609
G1 X128.928 Y129.089 E5.7641
G1 X127.777 Y129.187 E5.78715
G1 X127.17 Y129.2 E5.79927
G1 X108.075 Y129.199 E6.18033
G1 X107.377 Y129.19 E6.19426
G1 X106.476 Y129.139 E6.21227
G1 X105.582 Y129.007 E6.2303
G1 X104.704 Y128.798 E6.24831
G1 X103.847 Y128.511 E6.26635
G1 X103.02 Y128.15 E6.28436
G1 X102.227 Y127.717 E6.30239
G1 X101.476 Y127.216 E6.3204
G1 X100.772 Y126.65 E6.33843
G1 X100.121 Y126.024 E6.35645
G1 X99.528 Y125.343 E6.37447
G1 X98.998 Y124.612 E6.39249
G1 X98.534 Y123.837 E6.41052
G1 X98.14 Y123.024 E6.42855
G1 X97.82 Y122.18 E6.44656
G1 X97.576 Y121.31 E6.46459
G1 X97.41 Y120.422 E6.48262
G1 X97.313 Y119.267 E6.50575
G1 X97.3 Y118.658 E6.5179
G1 X97.301 Y116.536 E6.56025
G1 X97.31 Y115.871 E6.57352
G1 X97.362 Y114.969 E6.59155
G1 X97.494 Y114.076 E6.60957
G1 X97.704 Y113.198 E6.62758
G1 X97.991 Y112.341 E6.64562
G1 X98.353 Y111.514 E6.66364
G1 X98.786 Y110.722 E6.68165
G1 X99.288 Y109.971 E6.69968
G1 X99.855 Y109.267 E6.71771
G1 X100.481 Y108.617 E6.73572
G1 F2700 E1.73572
;MESH:nail_v02_5mm_encaixe.stl
G0 F6000 X107.914 Y115.335
G0 X107.914 Y116.414
G0 X108.5 Y118
;TYPE:WALL-INNER
G1 F2700 E6.73572
G1 F1200 X108.5 Y117 E6.75568
G1 X126.5 Y117 E7.11489
G1 X126.5 Y118 E7.13485
G1 X108.5 Y118 E7.49405
G0 F6000 X108.1 Y118.4
G1 F1200 X108.1 Y116.6 E7.52998
G1 X126.9 Y116.6 E7.90515
G1 X126.9 Y118.4 E7.94107
G1 X108.1 Y118.4 E8.31625
G0 F6000 X107.7 Y118.8
;TYPE:WALL-OUTER
G1 F1200 X107.7 Y116.2 E8.36813
G1 X127.3 Y116.2 E8.75927
G1 X127.3 Y118.8 E8.81116
G1 X107.7 Y118.8 E9.20229
G0 F6000 X107.97 Y118.53
G0 X108.61 Y117.61
G0 X108.89 Y117.61
;TYPE:SKIN
G1 F1200 X108.89 Y117.39 E9.20669
G1 X126.11 Y117.39 E9.55033
G1 X126.11 Y117.61 E9.55472
G1 X108.89 Y117.61 E9.89836
G0 F6000 X108.31 Y117.61
;MESH:NONMESH
G0 F300 X108.31 Y117.61 Z0.24
G0 F6000 X108.5 Y118
;TIME_ELAPSED:30.705728
;LAYER:1
M140 S50
M106 S85
;TYPE:WALL-INNER
;MESH:nail_v02_5mm_encaixe.stl
G1 F953.9 X108.5 Y117 E9.91832
G1 X126.5 Y117 E10.27753
G1 X126.5 Y118 E10.29748
G1 X108.5 Y118 E10.65669
G0 F7500 X108.1 Y118.4
G1 F953.9 X108.1 Y116.6 E10.69262
G1 X126.9 Y116.6 E11.06779
G1 X126.9 Y118.4 E11.10371
G1 X108.1 Y118.4 E11.47888
G0 F7500 X107.7 Y118.8
;TYPE:WALL-OUTER
G1 F953.9 X107.7 Y116.2 E11.53077
G1 X127.3 Y116.2 E11.92191
G1 X127.3 Y118.8 E11.9738
G1 X107.7 Y118.8 E12.36493
G0 F7500 X107.97 Y118.53
G0 X108.61 Y117.61
G0 X108.89 Y117.61
;TYPE:SKIN
G1 F953.9 X108.89 Y117.39 E12.36933
G1 X126.11 Y117.39 E12.71297
G1 X126.11 Y117.61 E12.71736
G1 X108.89 Y117.61 E13.061
G0 F7500 X108.31 Y117.61
;MESH:NONMESH
G0 F300 X108.31 Y117.61 Z0.36
G0 F7500 X108.5 Y118
;TIME_ELAPSED:41.200270
;LAYER:2
M106 S170
;TYPE:WALL-INNER
;MESH:nail_v02_5mm_encaixe.stl
G1 F953.4 X108.5 Y117 E13.08096
G1 X126.5 Y117 E13.44017
G1 X126.5 Y118 E13.46012
G1 X108.5 Y118 E13.81933
G0 F9000 X108.1 Y118.4
G1 F953.4 X108.1 Y116.6 E13.85525
G1 X126.9 Y116.6 E14.23043
G1 X126.9 Y118.4 E14.26635
G1 X108.1 Y118.4 E14.64152
G0 F9000 X107.7 Y118.8
;TYPE:WALL-OUTER
G1 F953.4 X107.7 Y116.2 E14.69341
G1 X127.3 Y116.2 E15.08455
G1 X127.3 Y118.8 E15.13644
G1 X107.7 Y118.8 E15.52757
G0 F9000 X107.97 Y118.53
G0 X108.61 Y117.61
G0 X108.89 Y117.61
;TYPE:SKIN
G1 F953.4 X108.89 Y117.39 E15.53196
G1 X126.11 Y117.39 E15.87561
G1 X126.11 Y117.61 E15.88
G1 X108.89 Y117.61 E16.22364
G0 F9000 X108.31 Y117.61
;MESH:NONMESH
G0 F300 X108.31 Y117.61 Z0.48
G0 F9000 X108.5 Y118
;TIME_ELAPSED:51.703251
;LAYER:3
M106 S255
;TYPE:WALL-INNER
;MESH:nail_v02_5mm_encaixe.stl
G1 F953.4 X108.5 Y117 E16.2436
G1 X126.5 Y117 E16.60281
G1 X126.5 Y118 E16.62276
G1 X108.5 Y118 E16.98197
G0 F9000 X108.1 Y118.4
G1 F953.4 X108.1 Y116.6 E17.01789
G1 X126.9 Y116.6 E17.39307
G1 X126.9 Y118.4 E17.42899
G1 X108.1 Y118.4 E17.80416
G0 F9000 X107.7 Y118.8
;TYPE:WALL-OUTER
G1 F953.4 X107.7 Y116.2 E17.85605
G1 X127.3 Y116.2 E18.24719
G1 X127.3 Y118.8 E18.29907
G1 X107.7 Y118.8 E18.69021
G0 F9000 X107.97 Y118.53
G0 X108.61 Y117.61
G0 X108.89 Y117.61
;TYPE:SKIN
G1 F953.4 X108.89 Y117.39 E18.6946
G1 X126.11 Y117.39 E19.03825
G1 X126.11 Y117.61 E19.04264
G1 X108.89 Y117.61 E19.38628
G0 F9000 X108.31 Y117.61
;MESH:NONMESH
G0 F300 X108.31 Y117.61 Z0.6
G0 F9000 X108.5 Y118
;TIME_ELAPSED:62.206233
;LAYER:4
;TYPE:WALL-INNER
;MESH:nail_v02_5mm_encaixe.stl
G1 F953.4 X108.5 Y117 E19.40624
G1 X126.5 Y117 E19.76545
G1 X126.5 Y118 E19.7854
G1 X108.5 Y118 E20.14461
G0 F9000 X108.1 Y118.4
G1 F953.4 X108.1 Y116.6 E20.18053
G1 X126.9 Y116.6 E20.55571
G1 X126.9 Y118.4 E20.59163
G1 X108.1 Y118.4 E20.9668
G0 F9000 X107.7 Y118.8
;TYPE:WALL-OUTER
G1 F953.4 X107.7 Y116.2 E21.01869
G1 X127.3 Y116.2 E21.40983
G1 X127.3 Y118.8 E21.46171
G1 X107.7 Y118.8 E21.85285
G0 F9000 X107.97 Y118.53
G0 X108.61 Y117.61
G0 X108.89 Y117.61
;TYPE:SKIN
G1 F953.4 X108.89 Y117.39 E21.85724
G1 X126.11 Y117.39 E22.20089
G1 X126.11 Y117.61 E22.20528
G1 X108.89 Y117.61 E22.54892
G0 F9000 X108.31 Y117.61
;MESH:NONMESH
G0 F300 X108.31 Y117.61 Z0.72
G0 F9000 X108.5 Y118
;TIME_ELAPSED:72.709214
;LAYER:5
;TYPE:WALL-INNER
;MESH:nail_v02_5mm_encaixe.stl
G1 F953.4 X108.5 Y117 E22.56888
G1 X126.5 Y117 E22.92809
G1 X126.5 Y118 E22.94804
G1 X108.5 Y118 E23.30725
G0 F9000 X108.1 Y118.4
G1 F953.4 X108.1 Y116.6 E23.34317
G1 X126.9 Y116.6 E23.71835
G1 X126.9 Y118.4 E23.75427
G1 X108.1 Y118.4 E24.12944
G0 F9000 X107.7 Y118.8
;TYPE:WALL-OUTER
G1 F953.4 X107.7 Y116.2 E24.18133
G1 X127.3 Y116.2 E24.57247
G1 X127.3 Y118.8 E24.62435
G1 X107.7 Y118.8 E25.01549
G0 F9000 X107.97 Y118.53
G0 X108.61 Y117.61
G0 X108.89 Y117.61
;TYPE:SKIN
G1 F953.4 X108.89 Y117.39 E25.01988
G1 X126.11 Y117.39 E25.36353
G1 X126.11 Y117.61 E25.36792
G1 X108.89 Y117.61 E25.71156
G0 F9000 X108.31 Y117.61
;MESH:NONMESH
G0 F300 X108.31 Y117.61 Z0.84
G0 F9000 X108.5 Y118
;TIME_ELAPSED:83.212195
;LAYER:6
;TYPE:WALL-INNER
;MESH:nail_v02_5mm_encaixe.stl
G1 F953.4 X108.5 Y117 E25.73152
G1 X126.5 Y117 E26.09073
G1 X126.5 Y118 E26.11068
G1 X108.5 Y118 E26.46989
G0 F9000 X108.1 Y118.4
G1 F953.4 X108.1 Y116.6 E26.50581
G1 X126.9 Y116.6 E26.88099
G1 X126.9 Y118.4 E26.91691
G1 X108.1 Y118.4 E27.29208
G0 F9000 X107.7 Y118.8
;TYPE:WALL-OUTER
G1 F953.4 X107.7 Y116.2 E27.34397
G1 X127.3 Y116.2 E27.73511
G1 X127.3 Y118.8 E27.78699
G1 X107.7 Y118.8 E28.17813
G0 F9000 X107.97 Y118.53
G0 X108.61 Y117.61
G0 X108.89 Y117.61
;TYPE:SKIN
G1 F953.4 X108.89 Y117.39 E28.18252
G1 X126.11 Y117.39 E28.52617
G1 X126.11 Y117.61 E28.53056
G1 X108.89 Y117.61 E28.8742
G0 F9000 X108.31 Y117.61
;MESH:NONMESH
G0 F300 X108.31 Y117.61 Z0.96
G0 F9000 X108.5 Y118
;TIME_ELAPSED:93.715177
;LAYER:7
;TYPE:WALL-INNER
;MESH:nail_v02_5mm_encaixe.stl
G1 F773.1 X108.5 Y117 E28.89416
G1 X126.5 Y117 E29.25337
G1 X126.5 Y118 E29.27332
G1 X108.5 Y118 E29.63253
G0 F9000 X108.1 Y118.4
G1 F773.1 X108.1 Y116.6 E29.66845
G1 X126.9 Y116.6 E30.04363
G1 X126.9 Y118.4 E30.07955
G1 X108.1 Y118.4 E30.45472
G0 F9000 X107.7 Y118.8
;TYPE:WALL-OUTER
G1 F773.1 X107.7 Y116.2 E30.50661
G1 X127.3 Y116.2 E30.89775
G1 X127.3 Y118.8 E30.94963
G1 X107.7 Y118.8 E31.34077
G0 F9000 X107.97 Y118.53
G0 X109.553 Y117.079
;TYPE:FILL
G1 F1546.1 X110.392 Y117.919 E31.36447
G0 F9000 X110.473 Y117.919
G1 F1546.1 X110.698 Y117.079 E31.38182
G0 F9000 X116.684 Y117.92
G1 F1546.1 X116.91 Y117.078 E31.39922
G0 F9000 X118.038 Y117.079
G1 F1546.1 X118.878 Y117.919 E31.42292
G0 F9000 X118.552 Y117.919
G1 F1546.1 X121.685 Y117.079 E31.48765
G0 F9000 X123.122 Y117.078
G1 F1546.1 X122.896 Y117.92 E31.50505
;MESH:NONMESH
G0 F300 X122.896 Y117.92 Z1.08
G0 F9000 X108.521 Y118
;TIME_ELAPSED:104.916643
;LAYER:8
;TYPE:WALL-INNER
;MESH:nail_v02_5mm_encaixe.stl
G1 F779.5 X108.52 Y117.199 E31.52104
G1 X108.52 Y117 E31.52501
G1 X108.719 Y117 E31.52758
G1 X126.5 Y117 E31.88242
G1 X126.5 Y118 E31.90237
G1 X108.521 Y118 E32.26116
G0 F9000 X108.121 Y118.4
G1 F779.5 X108.12 Y116.799 E32.29311
G1 X108.12 Y116.6 E32.29708
G1 X108.319 Y116.6 E32.29965
G1 X126.9 Y116.6 E32.67046
G1 X126.9 Y118.4 E32.70638
G1 X108.121 Y118.4 E33.08113
G0 F9000 X107.721 Y118.8
;TYPE:WALL-OUTER
G1 F779.5 X107.72 Y116.2 E33.13302
G1 X127.3 Y116.2 E33.52376
G1 X127.3 Y118.8 E33.57565
G1 X107.721 Y118.8 E33.96637
G0 F9000 X107.991 Y118.53
G0 X109.673 Y117.079
;TYPE:FILL
G1 F1558.9 X110.513 Y117.919 E33.99007
G0 F9000 X110.385 Y117.919
G1 F1558.9 X110.61 Y117.079 E34.00743
G0 F9000 X116.596 Y117.92
G1 F1558.9 X116.822 Y117.079 E34.0248
G0 F9000 X118.158 Y117.079
G1 F1558.9 X118.998 Y117.919 E34.04851
G0 F9000 X118.88 Y117.919
G1 F1558.9 X122.014 Y117.079 E34.11326
G0 F9000 X123.034 Y117.078
G1 F1558.9 X122.808 Y117.92 E34.13066
;MESH:NONMESH
G0 F300 X122.808 Y117.92 Z1.2
G0 F9000 X108.641 Y118
;TIME_ELAPSED:116.010756
;LAYER:9
;TYPE:WALL-INNER
;MESH:nail_v02_5mm_encaixe.stl
G1 F774.9 X108.64 Y117.199 E34.14664
G1 X108.64 Y117 E34.15062
G1 X108.839 Y117 E34.15318
G1 X126.5 Y117 E34.50563
G1 X126.5 Y118 E34.52558
G1 X108.641 Y118 E34.88198
G0 F9000 X108.241 Y118.4
