;FLAVOR:Marlin
;TIME:1741
;Filament used: 0.647793m
;Layer height: 0.12
;MINX:5.836
;MINY:19.817
;MINZ:0.12
;MAXX:50.509
;MAXY:83.239
;MAXZ:6.96
;Generated with Cura_SteamEngine 4.5.0
M140 S50
M105
M190 S50
M104 S200
M105
M109 S200
M82 ;absolute extrusion mode
; Ender 3 Custom Start G-code
G92 E0 ; Reset Extruder
G28 ; Home all axes
G1 Z2.0 F3000 ; Move Z Axis up little to prevent scratching of Heat Bed
G1 X0.1 Y20 Z0.3 F5000.0 ; Move to start position
G1 X0.1 Y200.0 Z0.3 F1500.0 E15 ; Draw the first line
G1 X0.4 Y200.0 Z0.3 F5000.0 ; Move to side a little
G1 X0.4 Y20 Z0.3 F1500.0 E30 ; Draw the second line
G92 E0 ; Reset Extruder
G1 Z2.0 F3000 ; Move Z Axis up little to prevent scratching of Heat Bed
G1 X5 Y20 Z0.3 F5000.0 ; Move over to prevent blob squish
G92 E0
G92 E0
G1 F2700 E-5
;LAYER_COUNT:58
;LAYER:0
M107
G0 F6000 X11.248 Y21.356 Z0.12
;TYPE:SKIRT
G1 F2700 E0
G1 F1200 X12.075 Y20.914 E0.01871
G1 X12.937 Y20.544 E0.03743
G1 X13.827 Y20.248 E0.05615
G1 X14.739 Y20.03 E0.07486
G1 X15.666 Y19.889 E0.09357
G1 X16.537 Y19.83 E0.111
G1 X17.166 Y19.817 E0.12355
G1 X36.287 Y19.818 E0.50513
G1 X36.985 Y19.828 E0.51906
G1 X37.921 Y19.882 E0.53777
G1 X38.849 Y20.014 E0.55648
G1 X39.763 Y20.226 E0.5752
G1 X40.655 Y20.515 E0.59391
G1 X41.52 Y20.878 E0.61263
G1 X42.35 Y21.314 E0.63134
G1 X43.141 Y21.819 E0.65007
G1 X43.885 Y22.39 E0.66879
G1 X44.578 Y23.022 E0.68751
G1 X45.215 Y23.71 E0.70622
G1 X45.79 Y24.451 E0.72493
G1 X46.301 Y25.237 E0.74364
G1 X46.743 Y26.065 E0.76237
G1 X47.112 Y26.927 E0.78109
G1 X47.407 Y27.817 E0.7998
G1 X47.625 Y28.729 E0.81851
G1 X47.787 Y29.885 E0.8418
G1 X47.847 Y30.585 E0.85582
G1 X48.108 Y33.181 E0.90789
G1 X48.424 Y35.626 E0.95709
G1 X48.819 Y38.126 E1.0076
G1 X49.289 Y40.64 E1.05864
G1 X49.813 Y43.056 E1.10797
G1 X49.979 Y43.733 E1.12188
G1 X50.213 Y44.744 E1.14259
G1 X50.385 Y45.665 E1.16129
G1 X50.488 Y46.81 E1.18423
G1 X50.501 Y47.155 E1.19112
G1 X50.509 Y47.569 E1.19938
G1 X50.508 Y71.639 E1.67973
G1 X50.499 Y72.366 E1.69424
G1 X50.448 Y73.303 E1.71296
G1 X50.316 Y74.231 E1.73167
G1 X50.107 Y75.145 E1.75038
G1 X49.82 Y76.038 E1.7691
G1 X49.458 Y76.904 E1.78783
G1 X49.024 Y77.735 E1.80654
G1 X48.52 Y78.526 E1.82525
G1 X47.951 Y79.271 E1.84396
G1 X47.32 Y79.966 E1.8627
G1 X46.633 Y80.604 E1.88141
G1 X45.894 Y81.181 E1.90012
G1 X45.108 Y81.693 E1.91884
G1 X44.282 Y82.136 E1.93754
G1 X43.42 Y82.508 E1.95628
G1 X42.531 Y82.804 E1.97497
G1 X41.619 Y83.024 E1.9937
G1 X40.692 Y83.165 E2.01241
G1 X39.808 Y83.226 E2.03009
G1 X39.179 Y83.239 E2.04265
G1 X20.074 Y83.238 E2.42391
G1 X19.376 Y83.229 E2.43784
G1 X18.44 Y83.177 E2.45655
G1 X17.511 Y83.045 E2.47527
G1 X16.597 Y82.835 E2.49399
G1 X15.704 Y82.548 E2.5127
G1 X14.839 Y82.185 E2.53143
G1 X14.008 Y81.751 E2.55013
G1 X13.217 Y81.247 E2.56885
G1 X12.472 Y80.677 E2.58757
G1 X11.778 Y80.046 E2.60629
G1 X11.141 Y79.359 E2.62499
G1 X10.564 Y78.619 E2.64371
G1 X10.052 Y77.833 E2.66243
G1 X9.609 Y77.006 E2.68115
G1 X9.238 Y76.145 E2.69986
G1 X8.942 Y75.255 E2.71858
G1 X8.723 Y74.343 E2.7373
G1 X8.582 Y73.416 E2.75601
G1 X8.522 Y72.527 E2.77379
G1 X8.509 Y71.897 E2.78637
G1 X8.509 Y56.829 E3.08706
G1 X8.472 Y54.221 E3.13912
G1 X8.365 Y51.699 E3.18949
G1 X8.188 Y49.204 E3.23941
G1 X7.94 Y46.705 E3.28952
G1 X7.622 Y44.216 E3.3396
G1 X7.228 Y41.707 E3.39028
G1 X6.769 Y39.239 E3.44037
G1 X6.127 Y36.286 E3.50068
G1 X5.956 Y35.364 E3.5194
G1 X5.851 Y34.15 E3.54371
G1 X5.841 Y33.823 E3.55024
G1 X5.836 Y33.487 E3.55695
G1 X5.837 Y31.342 E3.59975
G1 X5.846 Y30.677 E3.61302
G1 X5.899 Y29.741 E3.63173
G1 X6.031 Y28.812 E3.65046
G1 X6.242 Y27.898 E3.66918
G1 X6.53 Y27.006 E3.68788
G1 X6.893 Y26.141 E3.7066
G1 X7.328 Y25.31 E3.72532
G1 X7.832 Y24.52 E3.74402
G1 X8.402 Y23.775 E3.76274
G1 X9.034 Y23.081 E3.78147
G1 X9.722 Y22.444 E3.80019
G1 X10.462 Y21.868 E3.8189
G1 X11.248 Y21.356 E3.83762
G0 F6000 X11.627 Y21.599
G1 F1200 X12.447 Y21.181 E3.85599
G1 X13.301 Y20.836 E3.87437
G1 X14.181 Y20.566 E3.89274
G1 X15.081 Y20.374 E3.9111
G1 X15.995 Y20.26 E3.92948
G1 X16.548 Y20.23 E3.94053
G1 X17.166 Y20.217 E3.95287
G1 X36.281 Y20.218 E4.33433
G1 X36.979 Y20.228 E4.34826
G1 X37.898 Y20.281 E4.36663
G1 X38.809 Y20.414 E4.385
G1 X39.705 Y20.625 E4.40337
G1 X40.579 Y20.913 E4.42174
G1 X41.426 Y21.276 E4.44013
G1 X42.237 Y21.711 E4.45849
G1 X43.007 Y22.215 E4.47686
G1 X43.731 Y22.784 E4.49523
G1 X44.403 Y23.414 E4.51362
G1 X45.018 Y24.099 E4.53199
G1 X45.571 Y24.835 E4.55036
G1 X46.058 Y25.616 E4.56873
G1 X46.475 Y26.437 E4.5871
G1 X46.82 Y27.291 E4.60548
G1 X47.089 Y28.171 E4.62385
G1 X47.281 Y29.072 E4.64223
G1 X47.388 Y29.919 E4.65927
G1 X47.446 Y30.592 E4.67275
G1 X47.708 Y33.2 E4.72506
G1 X48.032 Y35.708 E4.77552
G1 X48.43 Y38.226 E4.8264
G1 X48.885 Y40.66 E4.87581
G1 X49.428 Y43.165 E4.92696
G1 X49.589 Y43.823 E4.94048
G1 X49.823 Y44.834 E4.96119
G1 X49.991 Y45.739 E4.97956
G1 X50.088 Y46.825 E5.00132
G1 X50.101 Y47.17 E5.00821
G1 X50.109 Y47.569 E5.01617
G1 X50.108 Y71.634 E5.49641
G1 X50.099 Y72.361 E5.51092
G1 X50.048 Y73.28 E5.52929
G1 X49.917 Y74.192 E5.54768
G1 X49.707 Y75.088 E5.56604
G1 X49.421 Y75.963 E5.58441
G1 X49.06 Y76.81 E5.60279
G1 X48.626 Y77.622 E5.62116
G1 X48.124 Y78.394 E5.63954
G1 X47.556 Y79.119 E5.65792
G1 X46.928 Y79.792 E5.67629
G1 X46.244 Y80.408 E5.69466
G1 X45.509 Y80.962 E5.71302
G1 X44.729 Y81.451 E5.73139
G1 X43.909 Y81.87 E5.74977
G1 X43.056 Y82.216 E5.76814
G1 X42.176 Y82.487 E5.78652
G1 X41.276 Y82.68 E5.80488
G1 X40.362 Y82.795 E5.82327
G1 X39.797 Y82.826 E5.83456
G1 X39.179 Y82.839 E5.8469
G1 X20.079 Y82.838 E6.22806
G1 X19.381 Y82.829 E6.24199
G1 X18.462 Y82.777 E6.26036
G1 X17.551 Y82.646 E6.27872
G1 X16.655 Y82.436 E6.29709
G1 X15.78 Y82.149 E6.31547
G1 X14.933 Y81.787 E6.33385
G1 X14.121 Y81.353 E6.35222
G1 X13.35 Y80.851 E6.37058
G1 X12.625 Y80.283 E6.38896
G1 X11.952 Y79.654 E6.40734
G1 X11.337 Y78.97 E6.4257
G1 X10.783 Y78.235 E6.44407
G1 X10.295 Y77.454 E6.46245
G1 X9.876 Y76.634 E6.48082
G1 X9.53 Y75.781 E6.49919
G1 X9.26 Y74.901 E6.51756
G1 X9.067 Y74 E6.53595
G1 X8.953 Y73.087 E6.55431
G1 X8.922 Y72.516 E6.56572
G1 X8.909 Y71.897 E6.57808
G1 X8.909 Y56.823 E6.8789
G1 X8.872 Y54.198 E6.93129
G1 X8.765 Y51.69 E6.98138
G1 X8.587 Y49.169 E7.03182
G1 X8.337 Y46.651 E7.08231
G1 X8.016 Y44.14 E7.13283
G1 X7.629 Y41.678 E7.18257
G1 X7.16 Y39.153 E7.23382
G1 X6.517 Y36.196 E7.29421
G1 X6.349 Y35.29 E7.31259
G1 X6.251 Y34.138 E7.33567
G1 X6.236 Y33.487 E7.34866
G1 X6.237 Y31.348 E7.39135
G1 X6.246 Y30.683 E7.40462
G1 X6.298 Y29.763 E7.42301
G1 X6.43 Y28.852 E7.44138
G1 X6.641 Y27.956 E7.45975
G1 X6.928 Y27.081 E7.47812
G1 X7.291 Y26.235 E7.4965
G1 X7.725 Y25.423 E7.51487
G1 X8.228 Y24.652 E7.53324
G1 X8.797 Y23.928 E7.55162
G1 X9.425 Y23.256 E7.56997
G1 X10.11 Y22.64 E7.58836
G1 X10.846 Y22.087 E7.60673
G1 X11.627 Y21.599 E7.62511
G0 F6000 X12.005 Y21.848
G1 F1200 X12.818 Y21.455 E7.64313
G1 X13.663 Y21.135 E7.66116
G1 X14.532 Y20.892 E7.67916
G1 X15.42 Y20.726 E7.69719
G1 X16.559 Y20.63 E7.72
G1 X17.166 Y20.617 E7.73212
G1 X36.275 Y20.618 E8.11346
G1 X36.973 Y20.628 E8.12739
G1 X37.875 Y20.681 E8.14542
G1 X38.768 Y20.813 E8.16344
G1 X39.646 Y21.024 E8.18146
G1 X40.502 Y21.312 E8.19948
G1 X41.329 Y21.674 E8.2175
G1 X42.121 Y22.109 E8.23553
G1 X42.872 Y22.611 E8.25356
G1 X43.575 Y23.178 E8.27158
G1 X44.225 Y23.805 E8.2896
G1 X44.817 Y24.487 E8.30762
G1 X45.347 Y25.218 E8.32564
G1 X45.809 Y25.994 E8.34367
G1 X46.202 Y26.807 E8.36169
G1 X46.52 Y27.652 E8.3797
G1 X46.763 Y28.522 E8.39773
G1 X46.928 Y29.41 E8.41575
G1 X46.99 Y29.954 E8.42668
G1 X47.051 Y30.662 E8.44086
G1 X47.312 Y33.255 E8.49287
G1 X47.634 Y35.75 E8.54307
G1 X48.036 Y38.29 E8.59439
G1 X48.496 Y40.753 E8.64439
G1 X49.042 Y43.274 E8.69587
G1 X49.199 Y43.913 E8.709
G1 X49.433 Y44.924 E8.72971
G1 X49.598 Y45.812 E8.74773
G1 X49.689 Y46.84 E8.76833
G1 X49.702 Y47.185 E8.77522
G1 X49.709 Y47.569 E8.78288
G1 X49.708 Y71.629 E9.26303
G1 X49.699 Y72.356 E9.27754
G1 X49.648 Y73.258 E9.29556
G1 X49.517 Y74.152 E9.3136
G1 X49.308 Y75.03 E9.33161
G1 X49.022 Y75.887 E9.34964
G1 X48.661 Y76.715 E9.36766
G1 X48.229 Y77.507 E9.38567
G1 X47.728 Y78.259 E9.4037
G1 X47.162 Y78.963 E9.42172
G1 X46.537 Y79.614 E9.43973
G1 X45.856 Y80.208 E9.45777
G1 X45.125 Y80.739 E9.4758
G1 X44.351 Y81.203 E9.49381
G1 X43.538 Y81.597 E9.51184
G1 X42.694 Y81.917 E9.52985
G1 X41.824 Y82.162 E9.54789
G1 X40.937 Y82.328 E9.56589
G1 X39.786 Y82.426 E9.58895
G1 X39.179 Y82.439 E9.60106
G1 X20.084 Y82.438 E9.98212
G1 X19.386 Y82.429 E9.99605
G1 X18.485 Y82.378 E10.01406
G1 X17.591 Y82.246 E10.0321
G1 X16.713 Y82.037 E10.05011
G1 X15.856 Y81.75 E10.06815
G1 X15.029 Y81.389 E10.08615
G1 X14.236 Y80.956 E10.10418
G1 X13.485 Y80.455 E10.1222
G1 X12.781 Y79.889 E10.14023
G1 X12.13 Y79.263 E10.15825
G1 X11.537 Y78.582 E10.17627
G1 X11.007 Y77.851 E10.19429
G1 X10.543 Y77.076 E10.21231
G1 X10.149 Y76.263 E10.23034
G1 X9.829 Y75.419 E10.24836
G1 X9.585 Y74.549 E10.26639
G1 X9.419 Y73.661 E10.28442
G1 X9.322 Y72.506 E10.30755
G1 X9.309 Y71.897 E10.3197
G1 X9.309 Y56.817 E10.62064
G1 X9.272 Y54.211 E10.67265
G1 X9.163 Y51.643 E10.72394
G1 X8.986 Y49.141 E10.774
G1 X8.737 Y46.628 E10.82439
G1 X8.409 Y44.065 E10.87596
G1 X8.018 Y41.58 E10.92616
G1 X7.556 Y39.094 E10.97662
G1 X6.907 Y36.106 E11.03764
G1 X6.743 Y35.218 E11.05566
G1 X6.651 Y34.126 E11.07753
G1 X6.636 Y33.487 E11.09028
G1 X6.637 Y31.353 E11.13287
G1 X6.646 Y30.688 E11.14614
G1 X6.698 Y29.786 E11.16417
G1 X6.83 Y28.893 E11.18219
G1 X7.04 Y28.015 E11.2002
G1 X7.327 Y27.158 E11.21824
G1 X7.689 Y26.331 E11.23625
G1 X8.122 Y25.539 E11.25427
G1 X8.624 Y24.788 E11.27229
G1 X9.191 Y24.084 E11.29033
G1 X9.817 Y23.434 E11.30834
G1 X10.498 Y22.841 E11.32636
G1 X11.23 Y22.311 E11.3444
G1 X12.005 Y21.848 E11.36241
G1 F2700 E6.36241
;MESH:nail_v02_5mm_encaixe.stl
G0 F6000 X17.25 Y30.152
G0 X17.25 Y31.231
G0 X35.654 Y31.999
G0 X35.836 Y32.817
;TYPE:WALL-INNER
G1 F2700 E11.36241
G1 F1200 X17.836 Y32.817 E11.72162
G1 X17.836 Y31.817 E11.74158
G1 X35.836 Y31.817 E12.10079
G1 X35.836 Y32.817 E12.12074
G0 F6000 X36.236 Y33.217
G1 F1200 X17.436 Y33.217 E12.49592
G1 X17.436 Y31.417 E12.53184
G1 X36.236 Y31.417 E12.90701
G1 X36.236 Y33.217 E12.94294
G0 F6000 X36.636 Y33.617
;TYPE:WALL-OUTER
G1 F1200 X17.036 Y33.617 E13.33407
G1 X17.036 Y31.017 E13.38596
G1 X36.636 Y31.017 E13.7771
G1 X36.636 Y33.617 E13.82899
G0 F6000 X36.366 Y33.347
G0 X35.446 Y32.707
G0 X35.446 Y32.427
;TYPE:SKIN
G1 F1200 X18.226 Y32.427 E14.17263
G1 X18.226 Y32.207 E14.17702
G1 X35.446 Y32.207 E14.52066
G1 X35.446 Y32.427 E14.52505
G0 F6000 X35.446 Y33.007
G1 F2700 E9.52505
;MESH:nail_v02_5mm.stl
G0 F6000 X36.422 Y33.403
G0 X36.422 Y34.482
G0 X36.422 Y46.574
G0 X36.422 Y47.659
G0 X38.327 Y48.421
G0 X38.509 Y71.239
;TYPE:WALL-INNER
G1 F2700 E14.52505
G1 F1200 X20.509 Y71.239 E14.88426
G1 X20.509 Y48.239 E15.34325
G1 X38.509 Y48.239 E15.70246
G1 X38.509 Y71.239 E16.16145
G0 F6000 X38.909 Y71.639
G1 F1200 X20.109 Y71.639 E16.53663
G1 X20.109 Y47.839 E17.01158
G1 X38.909 Y47.839 E17.38676
G1 X38.909 Y71.639 E17.86171
G0 F6000 X39.309 Y72.039
;TYPE:WALL-OUTER
G1 F1200 X19.709 Y72.039 E18.25285
G1 X19.709 Y47.439 E18.74377
G1 X39.309 Y47.439 E19.13491
G1 X39.309 Y72.039 E19.62583
G0 F6000 X39.039 Y71.769
G0 X38.399 Y70.849
G0 X38.119 Y70.849
;TYPE:SKIN
G1 F1200 X20.899 Y70.849 E19.96947
G1 X20.899 Y48.629 E20.4129
G1 X38.119 Y48.629 E20.75654
G1 X38.119 Y70.849 E21.19996
G0 F6000 X38.399 Y70.849
G0 X38.335 Y71.036
G0 X21.473 Y71.129
G0 X21.473 Y70.688
G1 F1200 X21.058 Y70.272 E21.21169
G0 F6000 X21.058 Y69.707
G1 F1200 X22.039 Y70.688 E21.23938
G0 F6000 X22.604 Y70.688
G1 F1200 X21.058 Y69.141 E21.28302
G0 F6000 X21.058 Y68.575
G1 F1200 X23.17 Y70.688 E21.34264
G0 F6000 X23.736 Y70.688
G1 F1200 X21.058 Y68.01 E21.41822
G0 F6000 X21.058 Y67.444
G1 F1200 X24.301 Y70.688 E21.50976
G0 F6000 X24.867 Y70.688
G1 F1200 X21.058 Y66.878 E21.61727
G0 F6000 X21.058 Y66.313
G1 F1200 X25.433 Y70.688 E21.74074
G0 F6000 X25.998 Y70.688
G1 F1200 X21.058 Y65.747 E21.88017
G0 F6000 X21.058 Y65.181
G1 F1200 X26.564 Y70.688 E22.03558
G0 F6000 X27.13 Y70.688
G1 F1200 X21.058 Y64.616 E22.20694
G0 F6000 X21.058 Y64.05
G1 F1200 X27.695 Y70.688 E22.39427
G0 F6000 X28.261 Y70.688
G1 F1200 X21.058 Y63.484 E22.59757
G0 F6000 X21.058 Y62.919
G1 F1200 X28.827 Y70.688 E22.81682
G0 F6000 X29.393 Y70.688
G1 F1200 X21.058 Y62.353 E23.05206
G0 F6000 X21.058 Y61.787
G1 F1200 X29.958 Y70.688 E23.30325
G0 F6000 X30.524 Y70.688
G1 F1200 X21.058 Y61.222 E23.5704
G0 F6000 X21.058 Y60.656
G1 F1200 X31.09 Y70.688 E23.85352
G0 F6000 X31.655 Y70.688
G1 F1200 X21.058 Y60.09 E24.15261
G0 F6000 X21.058 Y59.524
G1 F1200 X32.221 Y70.688 E24.46767
G0 F6000 X32.787 Y70.688
G1 F1200 X21.058 Y58.959 E24.79868
G0 F6000 X21.058 Y58.393
G1 F1200 X33.352 Y70.688 E25.14566
G0 F6000 X33.918 Y70.688
G1 F1200 X21.058 Y57.827 E25.50861
G0 F6000 X21.058 Y57.262
G1 F1200 X34.484 Y70.688 E25.88752
G0 F6000 X35.049 Y70.688
G1 F1200 X21.058 Y56.696 E26.28239
G0 F6000 X21.058 Y56.13
G1 F1200 X35.615 Y70.688 E26.69324
G0 F6000 X36.181 Y70.688
G1 F1200 X21.058 Y55.565 E27.12004
G0 F6000 X21.058 Y54.999
G1 F1200 X36.746 Y70.688 E27.5628
G0 F6000 X37.312 Y70.688
G1 F1200 X21.058 Y54.433 E28.02154
G0 F6000 X21.058 Y53.868
G1 F1200 X37.878 Y70.688 E28.49624
G0 F6000 X37.959 Y70.203
G1 F1200 X21.058 Y53.302 E28.97322
G0 F6000 X21.058 Y52.736
G1 F1200 X37.959 Y69.637 E29.4502
G0 F6000 X37.959 Y69.072
G1 F1200 X21.058 Y52.171 E29.92719
G0 F6000 X21.058 Y51.605
G1 F1200 X37.959 Y68.506 E30.40417
G0 F6000 X37.959 Y67.94
G1 F1200 X21.058 Y51.039 E30.88115
G0 F6000 X21.058 Y50.473
G1 F1200 X37.959 Y67.375 E31.35815
G0 F6000 X37.959 Y66.809
G1 F1200 X21.058 Y49.908 E31.83513
G0 F6000 X21.058 Y49.342
G1 F1200 X37.959 Y66.243 E32.31211
G0 F6000 X37.959 Y65.678
G1 F1200 X21.069 Y48.788 E32.78879
G0 F6000 X21.635 Y48.788
G1 F1200 X37.959 Y65.112 E33.24949
G0 F6000 X37.959 Y64.546
G1 F1200 X22.201 Y48.788 E33.69421
G0 F6000 X22.766 Y48.788
G1 F1200 X37.959 Y63.981 E34.12299
G0 F6000 X37.959 Y63.415
G1 F1200 X23.332 Y48.788 E34.53579
G0 F6000 X23.898 Y48.788
G1 F1200 X37.959 Y62.849 E34.93263
G0 F6000 X37.959 Y62.284
G1 F1200 X24.463 Y48.788 E35.31351
G0 F6000 X25.029 Y48.788
G1 F1200 X37.959 Y61.718 E35.67843
G0 F6000 X37.959 Y61.152
G1 F1200 X25.595 Y48.788 E36.02736
G0 F6000 X26.16 Y48.788
G1 F1200 X37.959 Y60.587 E36.36036
G0 F6000 X37.959 Y60.021
G1 F1200 X26.726 Y48.788 E36.67738
G0 F6000 X27.292 Y48.788
G1 F1200 X37.959 Y59.455 E36.97842
G0 F6000 X37.959 Y58.889
G1 F1200 X27.857 Y48.788 E37.26351
G0 F6000 X28.423 Y48.788
G1 F1200 X37.959 Y58.324 E37.53264
G0 F6000 X37.959 Y57.758
G1 F1200 X28.989 Y48.788 E37.78579
G0 F6000 X29.554 Y48.788
G1 F1200 X37.959 Y57.192 E38.02298
G0 F6000 X37.959 Y56.627
G1 F1200 X30.12 Y48.788 E38.24421
G0 F6000 X30.686 Y48.788
G1 F1200 X37.959 Y56.061 E38.44947
G0 F6000 X37.959 Y55.495
G1 F1200 X31.251 Y48.788 E38.63877
G0 F6000 X31.817 Y48.788
G1 F1200 X37.959 Y54.93 E38.81212
G0 F6000 X37.959 Y54.364
G1 F1200 X32.383 Y48.788 E38.96948
G0 F6000 X32.949 Y48.788
G1 F1200 X37.959 Y53.798 E39.11088
G0 F6000 X37.959 Y53.233
G1 F1200 X33.514 Y48.788 E39.23632
G0 F6000 X34.08 Y48.788
G1 F1200 X37.959 Y52.667 E39.3458
G0 F6000 X37.959 Y52.101
G1 F1200 X34.646 Y48.788 E39.4393
G0 F6000 X35.211 Y48.788
G1 F1200 X37.959 Y51.536 E39.51685
G0 F6000 X37.959 Y50.97
G1 F1200 X35.777 Y48.788 E39.57843
G0 F6000 X36.343 Y48.788
G1 F1200 X37.959 Y50.404 E39.62404
G0 F6000 X37.959 Y49.839
G1 F1200 X36.908 Y48.788 E39.6537
G0 F6000 X37.474 Y48.788
G1 F1200 X37.959 Y49.273 E39.66739
G0 F6000 X38.699 Y49.273
G1 F2700 E34.66739
;MESH:NONMESH
G0 F300 X38.699 Y49.273 Z0.24
G0 F6000 X38.327 Y48.421
G0 X35.836 Y47.659
G0 X35.836 Y46.574
G0 X35.836 Y34.482
G0 X35.836 Y33.397
G0 X35.836 Y32.817
;TIME_ELAPSED:113.192804
;LAYER:1
M140 S50
M106 S85
;TYPE:WALL-INNER
;MESH:nail_v02_5mm_encaixe.stl
G1 F2700 E39.66739
G1 F1350 X17.836 Y32.817 E40.0266
G1 X17.836 Y31.817 E40.04655
G1 X35.836 Y31.817 E40.40576
G1 X35.836 Y32.817 E40.42572
G0 F7500 X36.236 Y33.217
G1 F1350 X17.436 Y33.217 E40.80089
G1 X17.436 Y31.417 E40.83681
G1 X36.236 Y31.417 E41.21199
