;FLAVOR:Marlin
;TIME:1742
;Filament used: 0.647235m
;Layer height: 0.12
;MINX:96.5
;MINY:81.796
;MINZ:0.12
;MAXX:140.864
;MAXY:141
;MAXZ:6.96
;Generated with Cura_SteamEngine 4.5.0
M140 S50
M105
M190 S50
M104 S200
M105
M109 S200
M82 ;absolute extrusion mode
; Ender 3 Custom Start G-code
G92 E0 ; Reset Extruder
G28 ; Home all axes
G1 Z2.0 F3000 ; Move Z Axis up little to prevent scratching of Heat Bed
G1 X0.1 Y20 Z0.3 F5000.0 ; Move to start position
G1 X0.1 Y200.0 Z0.3 F1500.0 E15 ; Draw the first line
G1 X0.4 Y200.0 Z0.3 F5000.0 ; Move to side a little
G1 X0.4 Y20 Z0.3 F1500.0 E30 ; Draw the second line
G92 E0 ; Reset Extruder
G1 Z2.0 F3000 ; Move Z Axis up little to prevent scratching of Heat Bed
G1 X5 Y20 Z0.3 F5000.0 ; Move over to prevent blob squish
G92 E0
G92 E0
G1 F2700 E-5
;LAYER_COUNT:58
;LAYER:0
M107
G0 F6000 X101.746 Y85.409 Z0.12
;TYPE:SKIRT
G1 F2700 E0
G1 F1200 X102.407 Y84.744 E0.01871
G1 X103.123 Y84.137 E0.03744
G1 X103.887 Y83.594 E0.05615
G1 X104.695 Y83.118 E0.07486
G1 X105.541 Y82.713 E0.09358
G1 X106.418 Y82.381 E0.11229
G1 X107.321 Y82.125 E0.13102
G1 X108.241 Y81.946 E0.14973
G1 X108.889 Y81.869 E0.16275
G1 X109.213 Y81.84 E0.16924
G1 X110.194 Y81.796 E0.18884
G1 X129.315 Y81.797 E0.57042
G1 X130.013 Y81.807 E0.58435
G1 X130.949 Y81.861 E0.60306
G1 X131.877 Y81.993 E0.62177
G1 X132.791 Y82.205 E0.64049
G1 X133.683 Y82.494 E0.6592
G1 X134.548 Y82.857 E0.67792
G1 X135.378 Y83.293 E0.69663
G1 X136.169 Y83.798 E0.71536
G1 X136.913 Y84.369 E0.73408
G1 X137.606 Y85.001 E0.75279
G1 X138.243 Y85.689 E0.7715
G1 X138.818 Y86.43 E0.79022
G1 X139.329 Y87.216 E0.80893
G1 X139.771 Y88.044 E0.82766
G1 X140.14 Y88.906 E0.84637
G1 X140.435 Y89.796 E0.86508
G1 X140.653 Y90.708 E0.8838
G1 X140.793 Y91.636 E0.90253
G1 X140.851 Y92.497 E0.91975
G1 X140.864 Y93.126 E0.9323
G1 X140.863 Y95.247 E0.97463
G1 X140.853 Y95.945 E0.98856
G1 X140.799 Y96.881 E1.00727
G1 X140.615 Y98.066 E1.0312
G1 X140.51 Y98.561 E1.0413
G1 X140.005 Y101.081 E1.09259
G1 X139.574 Y103.591 E1.14341
G1 X139.219 Y106.091 E1.1938
G1 X138.936 Y108.582 E1.24383
G1 X138.721 Y111.124 E1.29474
G1 X138.583 Y113.547 E1.34317
G1 X138.5 Y117.508 E1.42224
G1 X138.499 Y129.415 E1.65985
G1 X138.489 Y130.142 E1.67436
G1 X138.436 Y131.079 E1.69309
G1 X138.304 Y132.007 E1.7118
G1 X138.093 Y132.921 E1.73052
G1 X137.804 Y133.813 E1.74923
G1 X137.441 Y134.678 E1.76795
G1 X137.006 Y135.509 E1.78667
G1 X136.501 Y136.299 E1.80538
G1 X135.931 Y137.044 E1.8241
G1 X135.3 Y137.738 E1.84282
G1 X134.611 Y138.375 E1.86154
G1 X133.871 Y138.951 E1.88026
G1 X133.085 Y139.462 E1.89897
G1 X132.258 Y139.904 E1.91768
G1 X131.396 Y140.274 E1.9364
G1 X130.506 Y140.569 E1.95511
G1 X129.594 Y140.788 E1.97383
G1 X128.667 Y140.928 E1.99254
G1 X127.799 Y140.987 E2.0099
G1 X127.17 Y141 E2.02245
G1 X108.065 Y140.999 E2.40371
G1 X107.367 Y140.99 E2.41764
G1 X106.431 Y140.938 E2.43635
G1 X105.502 Y140.806 E2.45508
G1 X104.588 Y140.596 E2.47379
G1 X103.695 Y140.309 E2.49251
G1 X102.83 Y139.946 E2.51123
G1 X101.999 Y139.512 E2.52994
G1 X101.208 Y139.008 E2.54866
G1 X100.463 Y138.438 E2.56738
G1 X99.769 Y137.807 E2.58609
G1 X99.132 Y137.12 E2.60479
G1 X98.555 Y136.38 E2.62352
G1 X98.043 Y135.594 E2.64224
G1 X97.6 Y134.767 E2.66096
G1 X97.229 Y133.906 E2.67967
G1 X96.933 Y133.016 E2.69839
G1 X96.714 Y132.104 E2.7171
G1 X96.573 Y131.177 E2.73582
G1 X96.513 Y130.288 E2.7536
G1 X96.5 Y129.658 E2.76617
G1 X96.501 Y105.549 E3.24729
G1 X96.511 Y104.852 E3.2612
G1 X96.565 Y103.916 E3.27991
G1 X96.698 Y102.987 E3.29864
G1 X96.825 Y102.398 E3.31067
G1 X97.125 Y101.172 E3.33585
G1 X97.715 Y98.609 E3.38834
G1 X98.217 Y96.117 E3.43907
G1 X98.635 Y93.674 E3.48853
G1 X98.982 Y91.259 E3.53722
G1 X99.155 Y90.337 E3.55594
G1 X99.406 Y89.433 E3.57466
G1 X99.733 Y88.554 E3.59338
G1 X100.134 Y87.706 E3.6121
G1 X100.605 Y86.895 E3.63081
G1 X101.144 Y86.128 E3.64952
G1 X101.746 Y85.409 E3.66824
G0 F6000 X102.122 Y85.591
G1 F1200 X102.779 Y84.946 E3.68661
G1 X103.489 Y84.361 E3.70497
G1 X104.248 Y83.839 E3.72335
G1 X105.048 Y83.385 E3.74171
G1 X105.886 Y83.002 E3.76009
G1 X106.753 Y82.694 E3.77846
G1 X107.644 Y82.461 E3.79683
G1 X108.925 Y82.267 E3.82269
G1 X109.249 Y82.238 E3.82918
G1 X110.194 Y82.196 E3.84806
G1 X129.309 Y82.197 E4.22952
G1 X130.007 Y82.207 E4.24345
G1 X130.926 Y82.26 E4.26182
G1 X131.837 Y82.393 E4.28019
G1 X132.733 Y82.604 E4.29856
G1 X133.607 Y82.892 E4.31693
G1 X134.454 Y83.255 E4.33532
G1 X135.265 Y83.69 E4.35368
G1 X136.035 Y84.194 E4.37205
G1 X136.759 Y84.763 E4.39042
G1 X137.431 Y85.393 E4.40881
G1 X138.046 Y86.078 E4.42718
G1 X138.599 Y86.814 E4.44555
G1 X139.086 Y87.595 E4.46392
G1 X139.503 Y88.416 E4.48229
G1 X139.848 Y89.27 E4.50067
G1 X140.117 Y90.15 E4.51904
G1 X140.309 Y91.051 E4.53742
G1 X140.422 Y91.964 E4.55578
G1 X140.451 Y92.508 E4.56665
G1 X140.464 Y93.126 E4.57899
G1 X140.463 Y95.241 E4.62119
G1 X140.453 Y95.939 E4.63512
G1 X140.4 Y96.858 E4.65349
G1 X140.224 Y97.983 E4.67622
G1 X140.109 Y98.526 E4.68729
G1 X139.604 Y101.046 E4.73858
G1 X139.183 Y103.505 E4.78837
G1 X138.819 Y106.061 E4.83989
G1 X138.538 Y108.54 E4.88968
G1 X138.324 Y111.066 E4.94027
G1 X138.183 Y113.546 E4.98984
G1 X138.1 Y117.499 E5.06874
G1 X138.099 Y129.41 E5.30644
G1 X138.089 Y130.137 E5.32095
G1 X138.036 Y131.056 E5.33932
G1 X137.904 Y131.967 E5.35769
G1 X137.693 Y132.863 E5.37606
G1 X137.406 Y133.738 E5.39444
G1 X137.043 Y134.584 E5.41281
G1 X136.609 Y135.396 E5.43118
G1 X136.105 Y136.167 E5.44956
G1 X135.537 Y136.891 E5.46793
G1 X134.908 Y137.563 E5.4863
G1 X134.223 Y138.178 E5.50467
G1 X133.487 Y138.731 E5.52304
G1 X132.706 Y139.219 E5.54142
G1 X131.886 Y139.637 E5.55978
G1 X131.032 Y139.982 E5.57816
G1 X130.152 Y140.251 E5.59653
G1 X129.251 Y140.444 E5.61492
G1 X128.338 Y140.557 E5.63328
G1 X127.788 Y140.587 E5.64427
G1 X127.17 Y140.6 E5.6566
G1 X108.07 Y140.599 E6.03776
G1 X107.372 Y140.59 E6.05169
G1 X106.453 Y140.538 E6.07006
G1 X105.542 Y140.407 E6.08843
G1 X104.646 Y140.197 E6.1068
G1 X103.771 Y139.91 E6.12517
G1 X102.924 Y139.548 E6.14355
G1 X102.112 Y139.114 E6.16193
G1 X101.341 Y138.612 E6.18029
G1 X100.616 Y138.044 E6.19867
G1 X99.943 Y137.415 E6.21705
G1 X99.328 Y136.731 E6.23541
G1 X98.774 Y135.996 E6.25378
G1 X98.286 Y135.215 E6.27215
G1 X97.867 Y134.395 E6.29053
G1 X97.521 Y133.542 E6.3089
G1 X97.251 Y132.662 E6.32727
G1 X97.058 Y131.761 E6.34566
G1 X96.944 Y130.848 E6.36402
G1 X96.913 Y130.277 E6.37543
G1 X96.9 Y129.658 E6.38779
G1 X96.901 Y105.555 E6.86879
G1 X96.911 Y104.858 E6.8827
G1 X96.964 Y103.939 E6.90107
G1 X97.097 Y103.028 E6.91944
G1 X97.213 Y102.493 E6.93037
G1 X97.535 Y101.176 E6.95742
G1 X98.1 Y98.721 E7.00769
G1 X98.609 Y96.198 E7.05906
G1 X99.032 Y93.72 E7.10922
G1 X99.378 Y91.316 E7.15769
G1 X99.549 Y90.411 E7.17607
G1 X99.797 Y89.524 E7.19445
G1 X100.121 Y88.663 E7.21281
G1 X100.519 Y87.833 E7.23118
G1 X100.988 Y87.04 E7.24957
G1 X101.523 Y86.291 E7.26794
G1 X102.122 Y85.591 E7.28632
G0 F6000 X102.497 Y85.777
G1 F1200 X103.149 Y85.152 E7.30434
G1 X103.854 Y84.588 E7.32236
G1 X104.606 Y84.088 E7.34038
G1 X105.4 Y83.657 E7.35841
G1 X106.228 Y83.297 E7.37643
G1 X107.085 Y83.012 E7.39445
G1 X107.964 Y82.805 E7.41247
G1 X108.961 Y82.666 E7.43256
G1 X109.285 Y82.637 E7.43905
G1 X110.194 Y82.596 E7.45721
G1 X129.303 Y82.597 E7.83855
G1 X130.001 Y82.607 E7.85248
G1 X130.903 Y82.66 E7.87052
G1 X131.796 Y82.792 E7.88853
G1 X132.674 Y83.003 E7.90655
G1 X133.53 Y83.291 E7.92457
G1 X134.357 Y83.653 E7.94259
G1 X135.149 Y84.088 E7.96062
G1 X135.9 Y84.59 E7.97865
G1 X136.603 Y85.157 E7.99667
G1 X137.253 Y85.784 E8.0147
G1 X137.845 Y86.466 E8.03272
G1 X138.375 Y87.197 E8.05074
G1 X138.837 Y87.973 E8.06876
G1 X139.23 Y88.786 E8.08678
G1 X139.548 Y89.631 E8.1048
G1 X139.791 Y90.501 E8.12282
G1 X139.956 Y91.389 E8.14085
G1 X140.051 Y92.519 E8.16348
G1 X140.064 Y93.126 E8.17559
G1 X140.063 Y95.235 E8.21768
G1 X140.053 Y95.933 E8.23161
G1 X140 Y96.835 E8.24964
G1 X139.833 Y97.9 E8.27116
G1 X139.718 Y98.443 E8.28223
G1 X139.21 Y100.977 E8.33381
G1 X138.786 Y103.452 E8.38392
G1 X138.425 Y105.991 E8.4351
G1 X138.141 Y108.497 E8.48543
G1 X137.925 Y111.045 E8.53646
G1 X137.783 Y113.542 E8.58637
G1 X137.7 Y117.491 E8.66519
G1 X137.699 Y129.404 E8.90293
G1 X137.689 Y130.131 E8.91744
G1 X137.637 Y131.033 E8.93547
G1 X137.505 Y131.926 E8.95348
G1 X137.294 Y132.805 E8.97152
G1 X137.007 Y133.661 E8.98954
G1 X136.645 Y134.488 E9.00755
G1 X136.211 Y135.28 E9.02558
G1 X135.709 Y136.031 E9.0436
G1 X135.143 Y136.734 E9.06162
G1 X134.516 Y137.385 E9.07965
G1 X133.835 Y137.977 E9.09766
G1 X133.104 Y138.507 E9.11568
G1 X132.328 Y138.97 E9.13371
G1 X131.515 Y139.363 E9.15173
G1 X130.67 Y139.683 E9.16976
G1 X129.801 Y139.926 E9.18777
G1 X128.913 Y140.091 E9.20579
G1 X127.777 Y140.187 E9.22855
G1 X127.17 Y140.2 E9.24066
G1 X108.075 Y140.199 E9.62172
G1 X107.377 Y140.19 E9.63565
G1 X106.476 Y140.139 E9.65366
G1 X105.582 Y140.007 E9.6717
G1 X104.704 Y139.798 E9.68971
G1 X103.847 Y139.511 E9.70774
G1 X103.02 Y139.15 E9.72575
G1 X102.227 Y138.717 E9.74378
G1 X101.476 Y138.216 E9.7618
G1 X100.772 Y137.65 E9.77982
G1 X100.121 Y137.024 E9.79785
G1 X99.528 Y136.343 E9.81587
G1 X98.998 Y135.612 E9.83389
G1 X98.534 Y134.837 E9.85191
G1 X98.14 Y134.024 E9.86994
G1 X97.82 Y133.18 E9.88796
G1 X97.576 Y132.31 E9.90599
G1 X97.41 Y131.422 E9.92401
G1 X97.313 Y130.267 E9.94715
G1 X97.3 Y129.658 E9.9593
G1 X97.301 Y105.561 E10.44018
G1 X97.311 Y104.864 E10.45409
G1 X97.364 Y103.962 E10.47213
G1 X97.496 Y103.069 E10.49014
G1 X97.602 Y102.588 E10.49997
G1 X97.896 Y101.384 E10.5247
G1 X98.495 Y98.784 E10.57795
G1 X99.002 Y96.273 E10.62907
G1 X99.429 Y93.773 E10.67968
G1 X99.774 Y91.373 E10.72807
G1 X99.942 Y90.485 E10.7461
G1 X100.188 Y89.616 E10.76413
G1 X100.51 Y88.772 E10.78215
G1 X100.905 Y87.96 E10.80017
G1 X101.37 Y87.186 E10.81819
G1 X101.902 Y86.457 E10.8362
G1 X102.497 Y85.777 E10.85423
G1 F2700 E5.85423
;MESH:nail_v02_5mm_encaixe.stl
G0 F6000 X109.199 Y93.21
G0 X110.278 Y93.21
G0 X110.864 Y94.796
;TYPE:WALL-INNER
G1 F2700 E10.85423
G1 F1200 X110.864 Y93.796 E10.87419
G1 X128.864 Y93.796 E11.2334
G1 X128.864 Y94.796 E11.25336
G1 X110.864 Y94.796 E11.61256
G0 F6000 X110.464 Y95.196
G1 F1200 X110.464 Y93.396 E11.64849
G1 X129.264 Y93.396 E12.02366
G1 X129.264 Y95.196 E12.05958
G1 X110.464 Y95.196 E12.43476
G0 F6000 X110.064 Y95.596
;TYPE:WALL-OUTER
G1 F1200 X110.064 Y92.996 E12.48664
G1 X129.664 Y92.996 E12.87778
G1 X129.664 Y95.596 E12.92967
G1 X110.064 Y95.596 E13.32081
G0 F6000 X110.334 Y95.326
G0 X110.974 Y94.406
G0 X111.254 Y94.406
;TYPE:SKIN
G1 F1200 X111.254 Y94.186 E13.3252
G1 X128.474 Y94.186 E13.66884
G1 X128.474 Y94.406 E13.67323
G1 X111.254 Y94.406 E14.01687
G0 F6000 X110.674 Y94.406
G1 F2700 E9.01687
;MESH:nail_v02_5mm.stl
G0 F6000 X110.278 Y95.382
G0 X110.278 Y96.461
G0 X110.278 Y104.335
G0 X110.278 Y105.42
G0 X108.682 Y106.182
G0 X108.5 Y129
;TYPE:WALL-INNER
G1 F2700 E14.01687
G1 F1200 X108.5 Y106 E14.47586
G1 X126.5 Y106 E14.83507
G1 X126.5 Y129 E15.29406
G1 X108.5 Y129 E15.65327
G0 F6000 X108.1 Y129.4
G1 F1200 X108.1 Y105.6 E16.12823
G1 X126.9 Y105.6 E16.5034
G1 X126.9 Y129.4 E16.97836
G1 X108.1 Y129.4 E17.35353
G0 F6000 X107.7 Y129.8
;TYPE:WALL-OUTER
G1 F1200 X107.7 Y105.2 E17.84445
G1 X127.3 Y105.2 E18.23559
G1 X127.3 Y129.8 E18.72651
G1 X107.7 Y129.8 E19.11765
G0 F6000 X107.97 Y129.53
G0 X108.61 Y128.61
G0 X108.89 Y128.61
;TYPE:SKIN
G1 F1200 X108.89 Y106.39 E19.56107
G1 X126.11 Y106.39 E19.90472
G1 X126.11 Y128.61 E20.34814
G1 X108.89 Y128.61 E20.69178
G0 F6000 X109.215 Y128.448
G1 F1200 X109.049 Y128.282 E20.69647
G0 F6000 X109.049 Y127.716
G1 F1200 X109.781 Y128.448 E20.71713
G0 F6000 X110.346 Y128.448
G1 F1200 X109.049 Y127.151 E20.75373
G0 F6000 X109.049 Y126.585
G1 F1200 X110.912 Y128.448 E20.80631
G0 F6000 X111.478 Y128.448
G1 F1200 X109.049 Y126.019 E20.87486
G0 F6000 X109.049 Y125.454
G1 F1200 X112.043 Y128.448 E20.95936
G0 F6000 X112.609 Y128.448
G1 F1200 X109.049 Y124.888 E21.05983
G0 F6000 X109.049 Y124.322
G1 F1200 X113.175 Y128.448 E21.17627
G0 F6000 X113.74 Y128.448
G1 F1200 X109.049 Y123.757 E21.30866
G0 F6000 X109.049 Y123.191
G1 F1200 X114.306 Y128.448 E21.45703
G0 F6000 X114.872 Y128.448
G1 F1200 X109.049 Y122.625 E21.62136
G0 F6000 X109.049 Y122.06
G1 F1200 X115.438 Y128.448 E21.80166
G0 F6000 X116.003 Y128.448
G1 F1200 X109.049 Y121.494 E21.99792
G0 F6000 X109.049 Y120.928
G1 F1200 X116.569 Y128.448 E22.21015
G0 F6000 X117.135 Y128.448
G1 F1200 X109.049 Y120.363 E22.43834
G0 F6000 X109.049 Y119.797
G1 F1200 X117.7 Y128.448 E22.68249
G0 F6000 X118.266 Y128.448
G1 F1200 X109.049 Y119.231 E22.94261
G0 F6000 X109.049 Y118.665
G1 F1200 X118.832 Y128.448 E23.21871
G0 F6000 X119.397 Y128.448
G1 F1200 X109.049 Y118.1 E23.51075
G0 F6000 X109.049 Y117.534
G1 F1200 X119.963 Y128.448 E23.81877
G0 F6000 X120.529 Y128.448
G1 F1200 X109.049 Y116.968 E24.14276
G0 F6000 X109.049 Y116.403
G1 F1200 X121.094 Y128.448 E24.4827
G0 F6000 X121.66 Y128.448
G1 F1200 X109.049 Y115.837 E24.83861
G0 F6000 X109.049 Y115.271
G1 F1200 X122.226 Y128.448 E25.21049
G0 F6000 X122.791 Y128.448
G1 F1200 X109.049 Y114.706 E25.59832
G0 F6000 X109.049 Y114.14
G1 F1200 X123.357 Y128.448 E26.00212
G0 F6000 X123.923 Y128.448
G1 F1200 X109.049 Y113.574 E26.4219
G0 F6000 X109.049 Y113.009
G1 F1200 X124.488 Y128.448 E26.85762
G0 F6000 X125.054 Y128.448
G1 F1200 X109.049 Y112.443 E27.30932
G0 F6000 X109.049 Y111.877
G1 F1200 X125.62 Y128.448 E27.77698
G0 F6000 X125.949 Y128.212
G1 F1200 X109.049 Y111.312 E28.25394
G0 F6000 X109.049 Y110.746
G1 F1200 X125.949 Y127.646 E28.73089
G0 F6000 X125.949 Y127.081
G1 F1200 X109.049 Y110.18 E29.20786
G0 F6000 X109.049 Y109.614
G1 F1200 X125.949 Y126.515 E29.68483
G0 F6000 X125.949 Y125.949
G1 F1200 X109.049 Y109.049 E30.16179
G0 F6000 X109.049 Y108.483
G1 F1200 X125.949 Y125.384 E30.63875
G0 F6000 X125.949 Y124.818
G1 F1200 X109.049 Y107.917 E31.11572
G0 F6000 X109.049 Y107.352
G1 F1200 X125.949 Y124.252 E31.59268
G0 F6000 X125.949 Y123.687
G1 F1200 X109.049 Y106.786 E32.06965
G0 F6000 X109.378 Y106.55
G1 F1200 X125.949 Y123.121 E32.53732
G0 F6000 X125.949 Y122.555
G1 F1200 X109.944 Y106.55 E32.98901
G0 F6000 X110.51 Y106.55
G1 F1200 X125.949 Y121.99 E33.42475
G0 F6000 X125.949 Y121.424
G1 F1200 X111.075 Y106.55 E33.84452
G0 F6000 X111.641 Y106.55
G1 F1200 X125.949 Y120.858 E34.24833
G0 F6000 X125.949 Y120.293
G1 F1200 X112.207 Y106.55 E34.63617
G0 F6000 X112.772 Y106.55
G1 F1200 X125.949 Y119.727 E35.00805
G0 F6000 X125.949 Y119.161
G1 F1200 X113.338 Y106.55 E35.36396
G0 F6000 X113.904 Y106.55
G1 F1200 X125.949 Y118.595 E35.7039
G0 F6000 X125.949 Y118.03
G1 F1200 X114.469 Y106.55 E36.02789
G0 F6000 X115.035 Y106.55
G1 F1200 X125.949 Y117.464 E36.33591
G0 F6000 X125.949 Y116.898
G1 F1200 X115.601 Y106.55 E36.62795
G0 F6000 X116.167 Y106.55
G1 F1200 X125.949 Y116.333 E36.90403
G0 F6000 X125.949 Y115.767
G1 F1200 X116.732 Y106.55 E37.16416
G0 F6000 X117.298 Y106.55
G1 F1200 X125.949 Y115.201 E37.40831
G0 F6000 X125.949 Y114.636
G1 F1200 X117.864 Y106.55 E37.6365
G0 F6000 X118.429 Y106.55
G1 F1200 X125.949 Y114.07 E37.84873
G0 F6000 X125.949 Y113.504
G1 F1200 X118.995 Y106.55 E38.04498
G0 F6000 X119.561 Y106.55
G1 F1200 X125.949 Y112.939 E38.22528
G0 F6000 X125.949 Y112.373
G1 F1200 X120.126 Y106.55 E38.38962
G0 F6000 X120.692 Y106.55
G1 F1200 X125.949 Y111.807 E38.53798
G0 F6000 X125.949 Y111.242
G1 F1200 X121.258 Y106.55 E38.67039
G0 F6000 X121.823 Y106.55
G1 F1200 X125.949 Y110.676 E38.78683
G0 F6000 X125.949 Y110.11
G1 F1200 X122.389 Y106.55 E38.8873
G0 F6000 X122.955 Y106.55
G1 F1200 X125.949 Y109.544 E38.9718
G0 F6000 X125.949 Y108.979
G1 F1200 X123.52 Y106.55 E39.04035
G0 F6000 X124.086 Y106.55
G1 F1200 X125.949 Y108.413 E39.09293
G0 F6000 X125.949 Y107.847
G1 F1200 X124.652 Y106.55 E39.12953
G0 F6000 X125.218 Y106.55
G1 F1200 X125.949 Y107.282 E39.15018
G0 F6000 X125.949 Y106.716
G1 F1200 X125.783 Y106.55 E39.15486
G0 F6000 X125.783 Y105.81
G1 F2700 E34.15486
;MESH:NONMESH
G0 F300 X125.783 Y105.81 Z0.24
G0 F6000 X110.864 Y105.42
G0 X110.864 Y104.335
G0 X110.864 Y96.461
G0 X110.864 Y95.376
G0 X110.864 Y94.796
;TIME_ELAPSED:111.237725
;LAYER:1
M140 S50
M106 S85
