;FLAVOR:Marlin
;TIME:1527
;Filament used: 0.584699m
;Layer height: 0.12
;MINX:96.5
;MINY:94
;MINZ:0.12
;MAXX:138.5
;MAXY:141
;MAXZ:6.96
;Generated with Cura_SteamEngine 4.5.0
M140 S50
M105
M190 S50
M104 S200
M105
M109 S200
M82 ;absolute extrusion mode
; Ender 3 Custom Start G-code
G92 E0 ; Reset Extruder
G28 ; Home all axes
G1 Z2.0 F3000 ; Move Z Axis up little to prevent scratching of Heat Bed
G1 X0.1 Y20 Z0.3 F5000.0 ; Move to start position
G1 X0.1 Y200.0 Z0.3 F1500.0 E15 ; Draw the first line
G1 X0.4 Y200.0 Z0.3 F5000.0 ; Move to side a little
G1 X0.4 Y20 Z0.3 F1500.0 E30 ; Draw the second line
G92 E0 ; Reset Extruder
G1 Z2.0 F3000 ; Move Z Axis up little to prevent scratching of Heat Bed
G1 X5 Y20 Z0.3 F5000.0 ; Move over to prevent blob squish
G92 E0
G92 E0
G1 F2700 E-5
;LAYER_COUNT:58
;LAYER:0
M107
G0 F6000 X99.698 Y97.264 Z0.12
;TYPE:SKIRT
G1 F2700 E0
G1 F1200 X100.386 Y96.627 E0.01871
G1 X101.126 Y96.051 E0.03742
G1 X101.912 Y95.539 E0.05614
G1 X102.739 Y95.097 E0.07486
G1 X103.601 Y94.727 E0.09358
G1 X104.491 Y94.431 E0.11229
G1 X105.403 Y94.213 E0.13101
G1 X106.33 Y94.072 E0.14972
G1 X107.201 Y94.013 E0.16714
G1 X107.83 Y94 E0.1797
G1 X126.951 Y94.001 E0.56128
G1 X127.649 Y94.011 E0.57521
G1 X128.585 Y94.065 E0.59392
G1 X129.513 Y94.197 E0.61262
G1 X130.427 Y94.409 E0.63135
G1 X131.319 Y94.698 E0.65006
G1 X132.184 Y95.061 E0.66878
G1 X133.014 Y95.497 E0.68749
G1 X133.805 Y96.002 E0.70622
G1 X134.549 Y96.573 E0.72493
G1 X135.242 Y97.205 E0.74365
G1 X135.879 Y97.893 E0.76236
G1 X136.454 Y98.634 E0.78108
G1 X136.965 Y99.42 E0.79979
G1 X137.407 Y100.248 E0.81852
G1 X137.776 Y101.11 E0.83723
G1 X138.071 Y102 E0.85594
G1 X138.289 Y102.912 E0.87465
G1 X138.429 Y103.84 E0.89338
G1 X138.487 Y104.701 E0.9106
G1 X138.5 Y105.33 E0.92316
G1 X138.499 Y129.4 E1.4035
G1 X138.49 Y130.127 E1.41801
G1 X138.439 Y131.064 E1.43674
G1 X138.307 Y131.992 E1.45544
G1 X138.098 Y132.906 E1.47415
G1 X137.811 Y133.799 E1.49287
G1 X137.449 Y134.665 E1.5116
G1 X137.015 Y135.496 E1.53031
G1 X136.511 Y136.287 E1.54903
G1 X135.942 Y137.032 E1.56774
G1 X135.311 Y137.727 E1.58647
G1 X134.624 Y138.365 E1.60518
G1 X133.885 Y138.942 E1.62389
G1 X133.099 Y139.454 E1.64261
G1 X132.273 Y139.897 E1.66131
G1 X131.411 Y140.269 E1.68005
G1 X130.522 Y140.565 E1.69875
G1 X129.61 Y140.785 E1.71747
G1 X128.683 Y140.926 E1.73618
G1 X127.799 Y140.987 E1.75387
G1 X127.17 Y141 E1.76642
G1 X108.065 Y140.999 E2.14768
G1 X107.367 Y140.99 E2.16161
G1 X106.431 Y140.938 E2.18032
G1 X105.502 Y140.806 E2.19905
G1 X104.588 Y140.596 E2.21776
G1 X103.695 Y140.309 E2.23648
G1 X102.83 Y139.946 E2.2552
G1 X101.999 Y139.512 E2.27391
G1 X101.208 Y139.008 E2.29263
G1 X100.463 Y138.438 E2.31135
G1 X99.769 Y137.807 E2.33006
G1 X99.132 Y137.12 E2.34876
G1 X98.555 Y136.38 E2.36749
G1 X98.043 Y135.594 E2.38621
G1 X97.6 Y134.767 E2.40493
G1 X97.229 Y133.906 E2.42364
G1 X96.933 Y133.016 E2.44236
G1 X96.714 Y132.104 E2.46107
G1 X96.573 Y131.177 E2.47978
G1 X96.513 Y130.288 E2.49757
G1 X96.5 Y129.658 E2.51014
G1 X96.501 Y105.525 E2.99174
G1 X96.51 Y104.86 E3.00501
G1 X96.563 Y103.924 E3.02372
G1 X96.695 Y102.995 E3.04245
G1 X96.906 Y102.081 E3.06117
G1 X97.194 Y101.189 E3.07987
G1 X97.557 Y100.324 E3.09859
G1 X97.992 Y99.493 E3.11731
G1 X98.496 Y98.703 E3.13601
G1 X99.066 Y97.958 E3.15473
G1 X99.698 Y97.264 E3.17346
G0 F6000 X100.089 Y97.439
G1 F1200 X100.774 Y96.823 E3.19185
G1 X101.51 Y96.27 E3.21022
G1 X102.291 Y95.782 E3.2286
G1 X103.111 Y95.364 E3.24696
G1 X103.965 Y95.019 E3.26535
G1 X104.845 Y94.749 E3.28371
G1 X105.745 Y94.557 E3.30208
G1 X106.659 Y94.443 E3.32046
G1 X107.212 Y94.413 E3.33151
G1 X107.83 Y94.4 E3.34385
G1 X126.945 Y94.401 E3.72531
G1 X127.643 Y94.411 E3.73924
G1 X128.562 Y94.464 E3.75761
G1 X129.473 Y94.597 E3.77598
G1 X130.369 Y94.808 E3.79435
G1 X131.243 Y95.096 E3.81272
G1 X132.09 Y95.459 E3.83111
G1 X132.901 Y95.894 E3.84947
G1 X133.671 Y96.398 E3.86784
G1 X134.395 Y96.967 E3.88621
G1 X135.067 Y97.597 E3.90459
G1 X135.682 Y98.282 E3.92297
G1 X136.235 Y99.018 E3.94134
G1 X136.722 Y99.799 E3.9597
G1 X137.139 Y100.62 E3.97808
G1 X137.484 Y101.474 E3.99646
G1 X137.753 Y102.354 E4.01483
G1 X137.945 Y103.255 E4.03321
G1 X138.058 Y104.168 E4.05157
G1 X138.087 Y104.712 E4.06244
G1 X138.1 Y105.33 E4.07478
G1 X138.099 Y129.395 E4.55502
G1 X138.09 Y130.122 E4.56953
G1 X138.039 Y131.041 E4.5879
G1 X137.908 Y131.953 E4.60628
G1 X137.698 Y132.849 E4.62465
G1 X137.412 Y133.724 E4.64302
G1 X137.051 Y134.571 E4.66139
G1 X136.617 Y135.383 E4.67977
G1 X136.115 Y136.155 E4.69814
G1 X135.547 Y136.88 E4.71652
G1 X134.919 Y137.553 E4.73489
G1 X134.235 Y138.169 E4.75326
G1 X133.5 Y138.723 E4.77163
G1 X132.72 Y139.212 E4.79
G1 X131.9 Y139.631 E4.80838
G1 X131.047 Y139.977 E4.82675
G1 X130.167 Y140.248 E4.84512
G1 X129.267 Y140.441 E4.86349
G1 X128.353 Y140.556 E4.88187
G1 X127.788 Y140.587 E4.89317
G1 X127.17 Y140.6 E4.9055
G1 X108.07 Y140.599 E5.28666
G1 X107.372 Y140.59 E5.30059
G1 X106.453 Y140.538 E5.31896
G1 X105.542 Y140.407 E5.33733
G1 X104.646 Y140.197 E5.35569
G1 X103.771 Y139.91 E5.37407
G1 X102.924 Y139.548 E5.39245
G1 X102.112 Y139.114 E5.41083
G1 X101.341 Y138.612 E5.42919
G1 X100.616 Y138.044 E5.44757
G1 X99.943 Y137.415 E5.46595
G1 X99.328 Y136.731 E5.48431
G1 X98.774 Y135.996 E5.50267
G1 X98.286 Y135.215 E5.52105
G1 X97.867 Y134.395 E5.53943
G1 X97.521 Y133.542 E5.5578
G1 X97.251 Y132.662 E5.57617
G1 X97.058 Y131.761 E5.59456
G1 X96.944 Y130.848 E5.61292
G1 X96.913 Y130.277 E5.62433
G1 X96.9 Y129.658 E5.63668
G1 X96.901 Y105.531 E6.11816
G1 X96.91 Y104.866 E6.13144
G1 X96.962 Y103.946 E6.14983
G1 X97.094 Y103.035 E6.1682
G1 X97.305 Y102.139 E6.18657
G1 X97.592 Y101.264 E6.20494
G1 X97.955 Y100.418 E6.22331
G1 X98.389 Y99.606 E6.24169
G1 X98.892 Y98.835 E6.26006
G1 X99.461 Y98.111 E6.27843
G1 X100.089 Y97.439 E6.29679
G0 F6000 X100.481 Y97.617
G1 F1200 X101.162 Y97.024 E6.31481
G1 X101.894 Y96.494 E6.33284
G1 X102.669 Y96.031 E6.35086
G1 X103.482 Y95.638 E6.36888
G1 X104.327 Y95.318 E6.38691
G1 X105.196 Y95.075 E6.40492
G1 X106.084 Y94.909 E6.42295
G1 X107.223 Y94.813 E6.44576
G1 X107.83 Y94.8 E6.45787
G1 X126.939 Y94.801 E6.83921
G1 X127.637 Y94.811 E6.85315
G1 X128.539 Y94.864 E6.87118
G1 X129.432 Y94.996 E6.88919
G1 X130.31 Y95.207 E6.90721
G1 X131.166 Y95.495 E6.92523
G1 X131.993 Y95.857 E6.94325
G1 X132.785 Y96.292 E6.96128
G1 X133.536 Y96.794 E6.97931
G1 X134.239 Y97.361 E6.99733
G1 X134.889 Y97.988 E7.01536
G1 X135.481 Y98.67 E7.03338
G1 X136.011 Y99.401 E7.0514
G1 X136.473 Y100.177 E7.06942
G1 X136.866 Y100.99 E7.08744
G1 X137.184 Y101.835 E7.10546
G1 X137.427 Y102.705 E7.12348
G1 X137.592 Y103.593 E7.14151
G1 X137.687 Y104.723 E7.16414
G1 X137.7 Y105.33 E7.17625
G1 X137.699 Y129.39 E7.6564
G1 X137.69 Y130.117 E7.67091
G1 X137.639 Y131.019 E7.68894
G1 X137.508 Y131.913 E7.70697
G1 X137.299 Y132.791 E7.72498
G1 X137.013 Y133.648 E7.74301
G1 X136.652 Y134.476 E7.76103
G1 X136.22 Y135.268 E7.77904
G1 X135.719 Y136.02 E7.79707
G1 X135.153 Y136.724 E7.8151
G1 X134.528 Y137.375 E7.83311
G1 X133.847 Y137.969 E7.85114
G1 X133.116 Y138.5 E7.86917
G1 X132.342 Y138.964 E7.88718
G1 X131.529 Y139.358 E7.90521
G1 X130.685 Y139.678 E7.92322
G1 X129.815 Y139.923 E7.94126
G1 X128.928 Y140.089 E7.95927
G1 X127.777 Y140.187 E7.98232
G1 X127.17 Y140.2 E7.99443
G1 X108.075 Y140.199 E8.3755
G1 X107.377 Y140.19 E8.38943
G1 X106.476 Y140.139 E8.40744
G1 X105.582 Y140.007 E8.42547
G1 X104.704 Y139.798 E8.44348
G1 X103.847 Y139.511 E8.46152
G1 X103.02 Y139.15 E8.47952
G1 X102.227 Y138.717 E8.49755
G1 X101.476 Y138.216 E8.51557
G1 X100.772 Y137.65 E8.5336
G1 X100.121 Y137.024 E8.55162
G1 X99.528 Y136.343 E8.56964
G1 X98.998 Y135.612 E8.58766
G1 X98.534 Y134.837 E8.60569
G1 X98.14 Y134.024 E8.62371
G1 X97.82 Y133.18 E8.64173
G1 X97.576 Y132.31 E8.65976
G1 X97.41 Y131.422 E8.67779
G1 X97.313 Y130.267 E8.70092
G1 X97.3 Y129.658 E8.71307
G1 X97.301 Y105.536 E9.19445
G1 X97.31 Y104.871 E9.20773
G1 X97.362 Y103.969 E9.22576
G1 X97.494 Y103.076 E9.24377
G1 X97.704 Y102.198 E9.26179
G1 X97.991 Y101.341 E9.27982
G1 X98.353 Y100.514 E9.29784
G1 X98.786 Y99.722 E9.31585
G1 X99.288 Y98.971 E9.33388
G1 X99.855 Y98.267 E9.35192
G1 X100.481 Y97.617 E9.36993
G1 F2700 E4.36993
;MESH:nail_v02_5mm.stl
G0 F6000 X107.914 Y104.335
G0 X107.914 Y105.414
G0 X108.5 Y129
;TYPE:WALL-INNER
G1 F2700 E9.36993
G1 F1200 X108.5 Y106 E9.82892
G1 X126.5 Y106 E10.18813
G1 X126.5 Y129 E10.64712
G1 X108.5 Y129 E11.00632
G0 F6000 X108.1 Y129.4
G1 F1200 X108.1 Y105.6 E11.48128
G1 X126.9 Y105.6 E11.85645
G1 X126.9 Y129.4 E12.33141
G1 X108.1 Y129.4 E12.70658
G0 F6000 X107.7 Y129.8
;TYPE:WALL-OUTER
G1 F1200 X107.7 Y105.2 E13.1975
G1 X127.3 Y105.2 E13.58864
G1 X127.3 Y129.8 E14.07956
G1 X107.7 Y129.8 E14.4707
G0 F6000 X107.97 Y129.53
G0 X108.61 Y128.61
G0 X108.89 Y128.61
;TYPE:SKIN
G1 F1200 X108.89 Y106.39 E14.91412
G1 X126.11 Y106.39 E15.25777
G1 X126.11 Y128.61 E15.70119
G1 X108.89 Y128.61 E16.04484
G0 F6000 X109.215 Y128.448
G1 F1200 X109.049 Y128.282 E16.04952
G0 F6000 X109.049 Y127.716
G1 F1200 X109.781 Y128.448 E16.07018
G0 F6000 X110.346 Y128.448
G1 F1200 X109.049 Y127.151 E16.10678
G0 F6000 X109.049 Y126.585
G1 F1200 X110.912 Y128.448 E16.15936
G0 F6000 X111.478 Y128.448
G1 F1200 X109.049 Y126.019 E16.22791
G0 F6000 X109.049 Y125.454
G1 F1200 X112.043 Y128.448 E16.31241
G0 F6000 X112.609 Y128.448
G1 F1200 X109.049 Y124.888 E16.41288
G0 F6000 X109.049 Y124.322
G1 F1200 X113.175 Y128.448 E16.52933
G0 F6000 X113.74 Y128.448
G1 F1200 X109.049 Y123.757 E16.66172
G0 F6000 X109.049 Y123.191
G1 F1200 X114.306 Y128.448 E16.81008
G0 F6000 X114.872 Y128.448
G1 F1200 X109.049 Y122.625 E16.97442
G0 F6000 X109.049 Y122.06
G1 F1200 X115.438 Y128.448 E17.15471
G0 F6000 X116.003 Y128.448
G1 F1200 X109.049 Y121.494 E17.35097
G0 F6000 X109.049 Y120.928
G1 F1200 X116.569 Y128.448 E17.5632
G0 F6000 X117.135 Y128.448
G1 F1200 X109.049 Y120.363 E17.79139
G0 F6000 X109.049 Y119.797
G1 F1200 X117.7 Y128.448 E18.03554
G0 F6000 X118.266 Y128.448
G1 F1200 X109.049 Y119.231 E18.29567
G0 F6000 X109.049 Y118.665
G1 F1200 X118.832 Y128.448 E18.57176
G0 F6000 X119.397 Y128.448
G1 F1200 X109.049 Y118.1 E18.86381
G0 F6000 X109.049 Y117.534
G1 F1200 X119.963 Y128.448 E19.17182
G0 F6000 X120.529 Y128.448
G1 F1200 X109.049 Y116.968 E19.49581
G0 F6000 X109.049 Y116.403
G1 F1200 X121.094 Y128.448 E19.83575
G0 F6000 X121.66 Y128.448
G1 F1200 X109.049 Y115.837 E20.19166
G0 F6000 X109.049 Y115.271
G1 F1200 X122.226 Y128.448 E20.56354
G0 F6000 X122.791 Y128.448
G1 F1200 X109.049 Y114.706 E20.95137
G0 F6000 X109.049 Y114.14
G1 F1200 X123.357 Y128.448 E21.35517
G0 F6000 X123.923 Y128.448
G1 F1200 X109.049 Y113.574 E21.77495
G0 F6000 X109.049 Y113.009
G1 F1200 X124.488 Y128.448 E22.21067
G0 F6000 X125.054 Y128.448
G1 F1200 X109.049 Y112.443 E22.66237
G0 F6000 X109.049 Y111.877
G1 F1200 X125.62 Y128.448 E23.13004
G0 F6000 X125.949 Y128.212
G1 F1200 X109.049 Y111.312 E23.60699
G0 F6000 X109.049 Y110.746
G1 F1200 X125.949 Y127.646 E24.08395
G0 F6000 X125.949 Y127.081
G1 F1200 X109.049 Y110.18 E24.56092
G0 F6000 X109.049 Y109.614
G1 F1200 X125.949 Y126.515 E25.03788
G0 F6000 X125.949 Y125.949
G1 F1200 X109.049 Y109.049 E25.51484
G0 F6000 X109.049 Y108.483
G1 F1200 X125.949 Y125.384 E25.99181
G0 F6000 X125.949 Y124.818
G1 F1200 X109.049 Y107.917 E26.46878
G0 F6000 X109.049 Y107.352
G1 F1200 X125.949 Y124.252 E26.94573
G0 F6000 X125.949 Y123.687
G1 F1200 X109.049 Y106.786 E27.4227
G0 F6000 X109.378 Y106.55
G1 F1200 X125.949 Y123.121 E27.89037
G0 F6000 X125.949 Y122.555
G1 F1200 X109.944 Y106.55 E28.34206
G0 F6000 X110.51 Y106.55
G1 F1200 X125.949 Y121.99 E28.7778
G0 F6000 X125.949 Y121.424
G1 F1200 X111.075 Y106.55 E29.19758
G0 F6000 X111.641 Y106.55
G1 F1200 X125.949 Y120.858 E29.60138
G0 F6000 X125.949 Y120.293
G1 F1200 X112.207 Y106.55 E29.98922
G0 F6000 X112.772 Y106.55
G1 F1200 X125.949 Y119.727 E30.36111
G0 F6000 X125.949 Y119.161
G1 F1200 X113.338 Y106.55 E30.71702
G0 F6000 X113.904 Y106.55
G1 F1200 X125.949 Y118.595 E31.05695
G0 F6000 X125.949 Y118.03
G1 F1200 X114.469 Y106.55 E31.38094
G0 F6000 X115.035 Y106.55
G1 F1200 X125.949 Y117.464 E31.68896
G0 F6000 X125.949 Y116.898
G1 F1200 X115.601 Y106.55 E31.981
G0 F6000 X116.167 Y106.55
G1 F1200 X125.949 Y116.333 E32.25708
G0 F6000 X125.949 Y115.767
G1 F1200 X116.732 Y106.55 E32.51721
G0 F6000 X117.298 Y106.55
G1 F1200 X125.949 Y115.201 E32.76136
G0 F6000 X125.949 Y114.636
G1 F1200 X117.864 Y106.55 E32.98955
G0 F6000 X118.429 Y106.55
G1 F1200 X125.949 Y114.07 E33.20178
G0 F6000 X125.949 Y113.504
G1 F1200 X118.995 Y106.55 E33.39804
G0 F6000 X119.561 Y106.55
G1 F1200 X125.949 Y112.939 E33.57833
G0 F6000 X125.949 Y112.373
G1 F1200 X120.126 Y106.55 E33.74267
G0 F6000 X120.692 Y106.55
G1 F1200 X125.949 Y111.807 E33.89103
G0 F6000 X125.949 Y111.242
G1 F1200 X121.258 Y106.55 E34.02344
G0 F6000 X121.823 Y106.55
G1 F1200 X125.949 Y110.676 E34.13988
G0 F6000 X125.949 Y110.11
G1 F1200 X122.389 Y106.55 E34.24035
G0 F6000 X122.955 Y106.55
G1 F1200 X125.949 Y109.544 E34.32485
G0 F6000 X125.949 Y108.979
G1 F1200 X123.52 Y106.55 E34.3934
G0 F6000 X124.086 Y106.55
G1 F1200 X125.949 Y108.413 E34.44598
G0 F6000 X125.949 Y107.847
G1 F1200 X124.652 Y106.55 E34.48259
G0 F6000 X125.218 Y106.55
G1 F1200 X125.949 Y107.282 E34.50323
G0 F6000 X125.949 Y106.716
G1 F1200 X125.783 Y106.55 E34.50791
G0 F6000 X125.783 Y105.81
G1 F2700 E29.50791
;MESH:NONMESH
G0 F300 X125.783 Y105.81 Z0.24
G0 F6000 X108.682 Y106.182
G0 X108.5 Y129
;TIME_ELAPSED:98.383751
;LAYER:1
M140 S50
M106 S85
;TYPE:WALL-INNER
;MESH:nail_v02_5mm.stl
G1 F2700 E34.50791
G1 F1350 X108.5 Y106 E34.9669
G1 X126.5 Y106 E35.32611
G1 X126.5 Y129 E35.7851
G1 X108.5 Y129 E36.14431
G0 F7500 X108.1 Y129.4
G1 F1350 X108.1 Y105.6 E36.61927
G1 X126.9 Y105.6 E36.99444
G1 X126.9 Y129.4 E37.4694
G1 X108.1 Y129.4 E37.84457
G0 F7500 X107.7 Y129.8
;TYPE:WALL-OUTER
G1 F1350 X107.7 Y105.2 E38.33549
G1 X127.3 Y105.2 E38.72663
G1 X127.3 Y129.8 E39.21755
G1 X107.7 Y129.8 E39.60869
G0 F7500 X107.97 Y129.53
G0 X108.61 Y128.61
G0 X108.89 Y128.61
;TYPE:SKIN
G1 F1350 X108.89 Y106.39 E40.05211
G1 X126.11 Y106.39 E40.39576
G1 X126.11 Y128.61 E40.83918
G1 X108.89 Y128.61 E41.18282
G0 F7500 X108.61 Y128.61
G0 X108.674 Y128.797
G0 X125.543 Y128.89
G0 X125.543 Y128.448
G1 F1350 X125.949 Y128.043 E41.19427
G0 F7500 X125.949 Y127.477
G1 F1350 X124.978 Y128.448 E41.22167
G0 F7500 X124.412 Y128.448
G1 F1350 X125.949 Y126.912 E41.26504
G0 F7500 X125.949 Y126.346
G1 F1350 X123.846 Y128.448 E41.32437
G0 F7500 X123.281 Y128.448
G1 F1350 X125.949 Y125.78 E41.39967
G0 F7500 X125.949 Y125.215
G1 F1350 X122.715 Y128.448 E41.49093
G0 F7500 X122.149 Y128.448
G1 F1350 X125.949 Y124.649 E41.59816
G0 F7500 X125.949 Y124.083
G1 F1350 X121.584 Y128.448 E41.72135
G0 F7500 X121.018 Y128.448
G1 F1350 X125.949 Y123.518 E41.8605
G0 F7500 X125.949 Y122.952
G1 F1350 X120.452 Y128.448 E42.01562
G0 F7500 X119.887 Y128.448
G1 F1350 X125.949 Y122.386 E42.1867
G0 F7500 X125.949 Y121.821
G1 F1350 X119.321 Y128.448 E42.37374
G0 F7500 X118.755 Y128.448
G1 F1350 X125.949 Y121.255 E42.57676
G0 F7500 X125.949 Y120.689
G1 F1350 X118.19 Y128.448 E42.79574
G0 F7500 X117.624 Y128.448
G1 F1350 X125.949 Y120.124 E43.03067
G0 F7500 X125.949 Y119.558
G1 F1350 X117.058 Y128.448 E43.28158
G0 F7500 X116.493 Y128.448
G1 F1350 X125.949 Y118.992 E43.54845
G0 F7500 X125.949 Y118.426
G1 F1350 X115.927 Y128.448 E43.83129
G0 F7500 X115.361 Y128.448
G1 F1350 X125.949 Y117.861 E44.13009
G0 F7500 X125.949 Y117.295
G1 F1350 X114.795 Y128.448 E44.44487
G0 F7500 X114.23 Y128.448
G1 F1350 X125.949 Y116.729 E44.7756
G0 F7500 X125.949 Y116.164
G1 F1350 X113.664 Y128.448 E45.1223
G0 F7500 X113.098 Y128.448
G1 F1350 X125.949 Y115.598 E45.48497
G0 F7500 X125.949 Y115.032
G1 F1350 X112.533 Y128.448 E45.8636
G0 F7500 X111.967 Y128.448
G1 F1350 X125.949 Y114.467 E46.25818
G0 F7500 X125.949 Y113.901
G1 F1350 X111.401 Y128.448 E46.66875
G0 F7500 X110.836 Y128.448
G1 F1350 X125.949 Y113.335 E47.09527
G0 F7500 X125.949 Y112.77
G1 F1350 X110.27 Y128.448 E47.53775
G0 F7500 X109.704 Y128.448
G1 F1350 X125.949 Y112.204 E47.9962
G0 F7500 X125.949 Y111.638
