;FLAVOR:Marlin
;TIME:2013
;Filament used: 1.92821m
;Layer height: 0.28
;MINX:76.5
;MINY:76.5
;MINZ:0.28
;MAXX:158.5
;MAXY:158.5
;MAXZ:2.8
;Generated with Cura_SteamEngine 4.5.0
M140 S50
M105
M190 S50
M104 S200
M105
M109 S200
M82 ;absolute extrusion mode
; Ender 3 Custom Start G-code
G92 E0 ; Reset Extruder
G28 ; Home all axes
G1 Z2.0 F3000 ; Move Z Axis up little to prevent scratching of Heat Bed
G1 X0.1 Y20 Z0.3 F5000.0 ; Move to start position
G1 X0.1 Y200.0 Z0.3 F1500.0 E15 ; Draw the first line
G1 X0.4 Y200.0 Z0.3 F5000.0 ; Move to side a little
G1 X0.4 Y20 Z0.3 F1500.0 E30 ; Draw the second line
G92 E0 ; Reset Extruder
G1 Z2.0 F3000 ; Move Z Axis up little to prevent scratching of Heat Bed
G1 X5 Y20 Z0.3 F5000.0 ; Move over to prevent blob squish
G92 E0
G92 E0
G1 F2700 E-5
;LAYER_COUNT:10
;LAYER:0
M107
G0 F6000 X79.698 Y79.764 Z0.28
;TYPE:SKIRT
G1 F2700 E0
G1 F1200 X80.386 Y79.127 E0.04366
G1 X81.126 Y78.551 E0.08732
G1 X81.912 Y78.039 E0.131
G1 X82.739 Y77.597 E0.17467
G1 X83.601 Y77.227 E0.21835
G1 X84.491 Y76.931 E0.26202
G1 X85.403 Y76.713 E0.30568
G1 X86.33 Y76.572 E0.34935
G1 X87.201 Y76.513 E0.39
G1 X87.83 Y76.5 E0.41929
G1 X146.793 Y76.5 E3.16486
G1 X146.951 Y76.501 E3.17221
G1 X147.649 Y76.511 E3.20472
G1 X148.585 Y76.565 E3.24837
G1 X149.513 Y76.697 E3.29202
G1 X150.427 Y76.909 E3.33571
G1 X151.319 Y77.198 E3.37937
G1 X152.184 Y77.561 E3.42305
G1 X153.014 Y77.997 E3.46671
G1 X153.805 Y78.502 E3.51041
G1 X154.549 Y79.073 E3.55408
G1 X155.242 Y79.705 E3.59775
G1 X155.879 Y80.393 E3.64141
G1 X156.454 Y81.134 E3.68508
G1 X156.965 Y81.92 E3.72874
G1 X157.407 Y82.748 E3.77244
G1 X157.776 Y83.61 E3.8161
G1 X158.071 Y84.5 E3.85976
G1 X158.289 Y85.412 E3.90343
G1 X158.429 Y86.34 E3.94713
G1 X158.487 Y87.201 E3.98731
G1 X158.5 Y87.83 E4.0166
G1 X158.5 Y146.764 E6.76082
G1 X158.49 Y147.627 E6.80101
G1 X158.439 Y148.564 E6.8447
G1 X158.307 Y149.492 E6.88835
G1 X158.098 Y150.406 E6.93201
G1 X157.811 Y151.299 E6.97568
G1 X157.449 Y152.165 E7.01939
G1 X157.015 Y152.996 E7.06304
G1 X156.511 Y153.787 E7.10672
G1 X155.942 Y154.532 E7.15037
G1 X155.311 Y155.227 E7.19408
G1 X154.624 Y155.865 E7.23773
G1 X153.885 Y156.442 E7.28139
G1 X153.099 Y156.954 E7.32507
G1 X152.273 Y157.397 E7.36872
G1 X151.411 Y157.769 E7.41243
G1 X150.522 Y158.065 E7.45606
G1 X149.61 Y158.285 E7.49975
G1 X148.683 Y158.426 E7.54341
G1 X147.799 Y158.487 E7.58467
G1 X147.17 Y158.5 E7.61396
G1 X88.207 Y158.5 E10.35953
G1 X87.367 Y158.49 E10.39864
G1 X86.431 Y158.438 E10.4423
G1 X85.502 Y158.306 E10.48599
G1 X84.588 Y158.096 E10.52966
G1 X83.695 Y157.809 E10.57333
G1 X82.83 Y157.446 E10.61701
G1 X81.999 Y157.012 E10.66067
G1 X81.208 Y156.508 E10.70434
G1 X80.463 Y155.938 E10.74802
G1 X79.769 Y155.307 E10.7917
G1 X79.132 Y154.62 E10.83532
G1 X78.555 Y153.88 E10.87902
G1 X78.043 Y153.094 E10.9227
G1 X77.6 Y152.267 E10.96638
G1 X77.229 Y151.406 E11.01004
G1 X76.933 Y150.516 E11.05371
G1 X76.714 Y149.604 E11.09739
G1 X76.573 Y148.677 E11.14105
G1 X76.513 Y147.788 E11.18254
G1 X76.5 Y147.158 E11.21188
G1 X76.5 Y88.174 E13.95842
G1 X76.51 Y87.36 E13.99633
G1 X76.563 Y86.424 E14.03998
G1 X76.695 Y85.495 E14.08367
G1 X76.906 Y84.581 E14.12735
G1 X77.194 Y83.689 E14.171
G1 X77.557 Y82.824 E14.21468
G1 X77.992 Y81.993 E14.25835
G1 X78.496 Y81.203 E14.30199
G1 X79.066 Y80.458 E14.34567
G1 X79.698 Y79.764 E14.38938
G0 F6000 X80.089 Y79.939
G1 F1200 X80.774 Y79.323 E14.43227
G1 X81.51 Y78.77 E14.47514
G1 X82.291 Y78.282 E14.51802
G1 X83.111 Y77.864 E14.56088
G1 X83.965 Y77.519 E14.60377
G1 X84.845 Y77.249 E14.64663
G1 X85.745 Y77.057 E14.68948
G1 X86.659 Y76.943 E14.73237
G1 X87.212 Y76.913 E14.75816
G1 X87.83 Y76.9 E14.78694
G1 X146.793 Y76.9 E17.5325
G1 X146.945 Y76.901 E17.53958
G1 X147.643 Y76.911 E17.57209
G1 X148.562 Y76.964 E17.61495
G1 X149.473 Y77.097 E17.65782
G1 X150.369 Y77.308 E17.70068
G1 X151.243 Y77.596 E17.74353
G1 X152.09 Y77.959 E17.78644
G1 X152.901 Y78.394 E17.8293
G1 X153.671 Y78.898 E17.87215
G1 X154.395 Y79.467 E17.91503
G1 X155.067 Y80.097 E17.95792
G1 X155.682 Y80.782 E18.00078
G1 X156.235 Y81.518 E18.04365
G1 X156.722 Y82.299 E18.08651
G1 X157.139 Y83.12 E18.12939
G1 X157.484 Y83.974 E18.17227
G1 X157.753 Y84.854 E18.21512
G1 X157.945 Y85.755 E18.25802
G1 X158.058 Y86.668 E18.30086
G1 X158.087 Y87.212 E18.32622
G1 X158.1 Y87.83 E18.35501
G1 X158.1 Y146.764 E21.09922
G1 X158.09 Y147.622 E21.13917
G1 X158.039 Y148.541 E21.18203
G1 X157.908 Y149.453 E21.22493
G1 X157.698 Y150.349 E21.26779
G1 X157.412 Y151.224 E21.31065
G1 X157.051 Y152.071 E21.35352
G1 X156.617 Y152.883 E21.3964
G1 X156.115 Y153.655 E21.43928
G1 X155.547 Y154.38 E21.48216
G1 X154.919 Y155.053 E21.52502
G1 X154.235 Y155.669 E21.56789
G1 X153.5 Y156.223 E21.61074
G1 X152.72 Y156.712 E21.65361
G1 X151.9 Y157.131 E21.69649
G1 X151.047 Y157.477 E21.73935
G1 X150.167 Y157.748 E21.78223
G1 X149.267 Y157.941 E21.82509
G1 X148.353 Y158.056 E21.86798
G1 X147.788 Y158.087 E21.89433
G1 X147.17 Y158.1 E21.92311
G1 X88.207 Y158.1 E24.66868
G1 X87.372 Y158.09 E24.70756
G1 X86.453 Y158.038 E24.75042
G1 X85.542 Y157.907 E24.79328
G1 X84.646 Y157.697 E24.83613
G1 X83.771 Y157.41 E24.87901
G1 X82.924 Y157.048 E24.9219
G1 X82.112 Y156.614 E24.96477
G1 X81.341 Y156.112 E25.00761
G1 X80.616 Y155.544 E25.0505
G1 X79.943 Y154.915 E25.09339
G1 X79.328 Y154.231 E25.13623
G1 X78.774 Y153.496 E25.17908
G1 X78.286 Y152.715 E25.22197
G1 X77.867 Y151.895 E25.26484
G1 X77.521 Y151.042 E25.30771
G1 X77.251 Y150.162 E25.35057
G1 X77.058 Y149.261 E25.39347
G1 X76.944 Y148.348 E25.43632
G1 X76.913 Y147.777 E25.46294
G1 X76.9 Y147.158 E25.49177
G1 X76.9 Y88.174 E28.23832
G1 X76.91 Y87.366 E28.27594
G1 X76.962 Y86.446 E28.31885
G1 X77.094 Y85.535 E28.36171
G1 X77.305 Y84.639 E28.40458
G1 X77.592 Y83.764 E28.44746
G1 X77.955 Y82.918 E28.49032
G1 X78.389 Y82.106 E28.53319
G1 X78.892 Y81.335 E28.57606
G1 X79.461 Y80.611 E28.61894
G1 X80.089 Y79.939 E28.66177
G0 F6000 X80.481 Y80.117
G1 F1200 X81.162 Y79.524 E28.70381
G1 X81.894 Y78.994 E28.74589
G1 X82.669 Y78.531 E28.78793
G1 X83.482 Y78.138 E28.82998
G1 X84.327 Y77.818 E28.87205
G1 X85.196 Y77.575 E28.91407
G1 X86.084 Y77.409 E28.95613
G1 X87.223 Y77.313 E29.00936
G1 X87.83 Y77.3 E29.03763
G1 X146.793 Y77.3 E31.78319
G1 X146.939 Y77.301 E31.78999
G1 X147.637 Y77.311 E31.8225
G1 X148.539 Y77.364 E31.86457
G1 X149.432 Y77.496 E31.9066
G1 X150.31 Y77.707 E31.94865
G1 X151.166 Y77.995 E31.99071
G1 X151.993 Y78.357 E32.03274
G1 X152.785 Y78.792 E32.07482
G1 X153.536 Y79.294 E32.11688
G1 X154.239 Y79.861 E32.15894
G1 X154.889 Y80.488 E32.20099
G1 X155.481 Y81.17 E32.24304
G1 X156.011 Y81.901 E32.28508
G1 X156.473 Y82.677 E32.32714
G1 X156.866 Y83.49 E32.36919
G1 X157.184 Y84.335 E32.41123
G1 X157.427 Y85.205 E32.45329
G1 X157.592 Y86.093 E32.49534
G1 X157.687 Y87.223 E32.54815
G1 X157.7 Y87.83 E32.57642
G1 X157.7 Y146.764 E35.32063
G1 X157.69 Y147.617 E35.36035
G1 X157.639 Y148.519 E35.40242
G1 X157.508 Y149.413 E35.4445
G1 X157.299 Y150.291 E35.48652
G1 X157.013 Y151.148 E35.52859
G1 X156.652 Y151.976 E35.57065
G1 X156.22 Y152.768 E35.61266
G1 X155.719 Y153.52 E35.65473
G1 X155.153 Y154.224 E35.6968
G1 X154.528 Y154.875 E35.73882
G1 X153.847 Y155.469 E35.7809
G1 X153.116 Y156 E35.82297
G1 X152.342 Y156.464 E35.86499
G1 X151.529 Y156.858 E35.90706
G1 X150.685 Y157.178 E35.94909
G1 X149.815 Y157.423 E35.99117
G1 X148.928 Y157.589 E36.03319
G1 X147.777 Y157.687 E36.08698
G1 X147.17 Y157.7 E36.11525
G1 X88.207 Y157.7 E38.86082
G1 X87.377 Y157.69 E38.89947
G1 X86.476 Y157.639 E38.94149
G1 X85.582 Y157.507 E38.98357
G1 X84.704 Y157.298 E39.02559
G1 X83.847 Y157.011 E39.06768
G1 X83.02 Y156.65 E39.1097
G1 X82.227 Y156.217 E39.15177
G1 X81.476 Y155.716 E39.1938
G1 X80.772 Y155.15 E39.23587
G1 X80.121 Y154.524 E39.27792
G1 X79.528 Y153.843 E39.31997
G1 X78.998 Y153.112 E39.36201
G1 X78.534 Y152.337 E39.40407
G1 X78.14 Y151.524 E39.44614
G1 X77.82 Y150.68 E39.48817
G1 X77.576 Y149.81 E39.53024
G1 X77.41 Y148.922 E39.57231
G1 X77.313 Y147.767 E39.62628
G1 X77.3 Y147.158 E39.65464
G1 X77.3 Y88.174 E42.40119
G1 X77.31 Y87.371 E42.43858
G1 X77.362 Y86.469 E42.48065
G1 X77.494 Y85.576 E42.52269
G1 X77.704 Y84.698 E42.56472
G1 X77.991 Y83.841 E42.60681
G1 X78.353 Y83.014 E42.64884
G1 X78.786 Y82.222 E42.69087
G1 X79.288 Y81.471 E42.73294
G1 X79.855 Y80.767 E42.77503
G1 X80.481 Y80.117 E42.81705
G1 F2700 E37.81705
;MESH:AdpatadorSerraV00.stl
G0 F6000 X97.415 Y108.745
G0 X95.98 Y108.745
G0 X96.311 Y110.929
G0 X95.679 Y113.47
G0 X95.351 Y116.151
G0 X95.351 Y118.849
G0 X95.679 Y121.53
G0 X96.311 Y124.071
G0 X96.322 Y138.678
G0 X110.929 Y138.689
G0 X112.986 Y139.2
G0 X116.141 Y139.81
;TYPE:WALL-INNER
G1 F2700 E42.81705
G1 F1200 X118.859 Y139.81 E42.94361
G1 X121.56 Y139.479 E43.07032
G1 X124.091 Y138.85 E43.19176
G1 X138.85 Y138.85 E43.879
G1 X138.85 Y124.096 E44.56601
G1 X139.392 Y122.005 E44.66659
G1 X139.735 Y119.764 E44.77216
G1 X139.85 Y117.501 E44.87767
G1 X139.845 Y117.368 E44.88386
G1 X139.735 Y115.237 E44.98322
G1 X139.715 Y115.104 E44.98949
G1 X139.392 Y112.994 E45.08888
G1 X138.85 Y110.904 E45.18942
G1 X138.85 Y96.15 E45.87643
G1 X124.091 Y96.15 E46.56367
G1 X121.56 Y95.521 E46.68511
G1 X118.859 Y95.19 E46.81182
G1 X116.141 Y95.19 E46.93838
G1 X113.44 Y95.521 E47.06509
G1 X110.909 Y96.15 E47.18653
G1 X96.15 Y96.15 E47.87377
G1 X96.15 Y110.909 E48.56101
G1 X95.521 Y113.44 E48.68245
G1 X95.19 Y116.141 E48.80916
G1 X95.19 Y118.859 E48.93572
G1 X95.521 Y121.56 E49.06243
G1 X96.15 Y124.091 E49.18387
G1 X96.15 Y138.85 E49.87111
G1 X110.909 Y138.85 E50.55835
G1 X113.44 Y139.479 E50.67979
G1 X116.141 Y139.81 E50.8065
G0 F6000 X116.165 Y139.41
;TYPE:WALL-OUTER
G1 F1200 X118.835 Y139.41 E50.93083
G1 X121.487 Y139.085 E51.05524
G1 X124.043 Y138.45 E51.17788
G1 X138.45 Y138.45 E51.84873
G1 X138.45 Y124.046 E52.51944
G1 X139 Y121.924 E52.62151
G1 X139.337 Y119.723 E52.7252
G1 X139.45 Y117.5 E52.82884
G1 X139.445 Y117.387 E52.83411
G1 X139.337 Y115.277 E52.93249
G1 X139.32 Y115.164 E52.93781
G1 X139 Y113.075 E53.03622
G1 X138.45 Y110.954 E53.13824
G1 X138.45 Y96.55 E53.80896
G1 X124.043 Y96.55 E54.47981
G1 X121.487 Y95.915 E54.60244
G1 X118.835 Y95.59 E54.72685
G1 X116.165 Y95.59 E54.85118
G1 X113.513 Y95.915 E54.97559
G1 X110.957 Y96.55 E55.09823
G1 X96.55 Y96.55 E55.76908
G1 X96.55 Y110.957 E56.43993
G1 X95.915 Y113.513 E56.56256
G1 X95.59 Y116.165 E56.68698
G1 X95.59 Y118.835 E56.8113
G1 X95.915 Y121.487 E56.93572
G1 X96.55 Y124.043 E57.05835
G1 X96.55 Y138.45 E57.7292
G1 X110.957 Y138.45 E58.40005
G1 X113.513 Y139.085 E58.52269
G1 X116.165 Y139.41 E58.6471
G0 F6000 X116.139 Y139.849
G1 F2700 E53.6471
G0 F6000 X113.405 Y139.667
G0 X113.677 Y138.234
G0 X113.405 Y148.165
G0 X113.405 Y146.69
G0 X88.1 Y146.9
;TYPE:WALL-INNER
G1 F2700 E58.6471
G1 F1200 X88.1 Y88.1 E61.38507
G1 X146.9 Y88.1 E64.12305
G1 X146.9 Y146.9 E66.86102
G1 X88.1 Y146.9 E69.599
G0 F6000 X87.7 Y147.3
;TYPE:WALL-OUTER
G1 F1200 X87.7 Y87.7 E72.37422
G1 X147.3 Y87.7 E75.14945
G1 X147.3 Y147.3 E77.92467
G1 X87.7 Y147.3 E80.6999
G0 F6000 X87.97 Y147.03
G0 X88.21 Y146.51
G0 X88.49 Y146.51
;TYPE:SKIN
G1 F1200 X88.49 Y88.49 E83.40155
G1 X146.51 Y88.49 E86.10321
G1 X146.51 Y146.51 E88.80486
G1 X88.49 Y146.51 E91.50652
G1 F2700 E86.50652
G0 F6000 X88.21 Y146.51
G0 X88.31 Y138.99
G0 X86.835 Y138.99
G0 X97.403 Y137.597
G0 X95.96 Y138.99
G0 X96.04 Y138.99
G0 X95.76 Y139.24
G1 F2700 E91.50652
G1 F1200 X110.863 Y139.24 E92.20978
G1 X113.369 Y139.863 E92.33002
G1 X116.117 Y140.2 E92.45893
G1 X118.883 Y140.2 E92.58773
G1 X121.631 Y139.863 E92.71665
G1 X124.137 Y139.24 E92.83689
G1 X139.24 Y139.24 E93.54015
G1 X139.24 Y124.148 E94.2429
G1 X139.774 Y122.083 E94.34221
G1 X140.123 Y119.803 E94.44962
G1 X140.24 Y117.504 E94.55681
G1 X140.235 Y117.351 E94.56393
G1 X140.123 Y115.198 E94.66432
G1 X140.101 Y115.046 E94.67147
G1 X139.774 Y112.916 E94.77182
G1 X139.24 Y110.852 E94.87109
G1 X139.24 Y95.76 E95.57384
G1 X124.137 Y95.76 E96.2771
G1 X121.631 Y95.137 E96.39734
G1 X118.883 Y94.8 E96.52625
G1 X116.117 Y94.8 E96.65505
G1 X113.369 Y95.137 E96.78397
G1 X110.863 Y95.76 E96.90421
G1 X95.76 Y95.76 E97.60747
G1 X95.76 Y110.863 E98.31073
G1 X95.137 Y113.369 E98.43097
G1 X94.8 Y116.117 E98.55989
G1 X94.8 Y118.883 E98.68868
G1 X95.137 Y121.631 E98.8176
G1 X95.76 Y124.137 E98.93784
G1 X95.76 Y139.24 E99.6411
G1 F2700 E94.6411
G0 F6000 X96.04 Y138.99
G0 X95.98 Y136.923
G0 X97.415 Y136.923
G0 X95.954 Y148.165
G0 X95.954 Y146.69
G0 X89.215 Y146.79
G0 X89.215 Y146.349
G1 F2700 E99.6411
G1 F1200 X88.649 Y145.784 E99.67834
G0 F6000 X88.649 Y145.218
G1 F1200 X89.781 Y146.349 E99.75285
G0 F6000 X90.347 Y146.349
G1 F1200 X88.649 Y144.652 E99.86463
G0 F6000 X88.649 Y144.087
G1 F1200 X90.912 Y146.349 E100.01362
G0 F6000 X91.478 Y146.349
G1 F1200 X88.649 Y143.521 E100.19989
G0 F6000 X88.649 Y142.955
G1 F1200 X92.044 Y146.349 E100.42342
G0 F6000 X92.609 Y146.349
G1 F1200 X88.649 Y142.39 E100.68416
G0 F6000 X88.649 Y141.824
G1 F1200 X93.175 Y146.349 E100.98217
G0 F6000 X93.741 Y146.349
G1 F1200 X88.649 Y141.258 E101.31745
G0 F6000 X88.649 Y140.693
G1 F1200 X94.306 Y146.349 E101.68995
G0 F6000 X94.872 Y146.349
G1 F1200 X88.649 Y140.127 E102.09971
G0 F6000 X88.649 Y139.561
G1 F1200 X95.438 Y146.349 E102.54674
G0 F6000 X96.003 Y146.349
G1 F1200 X88.649 Y138.995 E103.03102
G0 F6000 X88.649 Y138.43
G1 F1200 X96.569 Y146.349 E103.55253
G0 F6000 X97.135 Y146.349
G1 F1200 X88.649 Y137.864 E104.11131
G0 F6000 X88.649 Y137.298
G1 F1200 X97.7 Y146.349 E104.70734
G0 F6000 X98.266 Y146.349
G1 F1200 X88.649 Y136.733 E105.3406
G0 F6000 X88.649 Y136.167
G1 F1200 X98.832 Y146.349 E106.01113
G0 F6000 X99.398 Y146.349
G1 F1200 X88.649 Y135.601 E106.71894
G0 F6000 X88.649 Y135.036
G1 F1200 X99.963 Y146.349 E107.46395
G0 F6000 X100.529 Y146.349
G1 F1200 X88.649 Y134.47 E108.24624
G0 F6000 X88.649 Y133.904
G1 F1200 X101.095 Y146.349 E109.0658
G0 F6000 X101.66 Y146.349
G1 F1200 X88.649 Y133.339 E109.92256
G0 F6000 X88.649 Y132.773
G1 F1200 X102.226 Y146.349 E110.8166
G0 F6000 X102.792 Y146.349
G1 F1200 X95.841 Y139.399 E111.2743
G0 F6000 X95.6 Y139.157
G1 F1200 X88.649 Y132.207 E111.732
G0 F6000 X88.649 Y131.642
G1 F1200 X95.6 Y138.592 E112.1897
G0 F6000 X95.6 Y138.026
G1 F1200 X88.649 Y131.076 E112.64741
G0 F6000 X88.649 Y130.51
G1 F1200 X95.6 Y137.46 E113.10511
G0 F6000 X95.6 Y136.895
G1 F1200 X88.649 Y129.945 E113.56281
G0 F6000 X88.649 Y129.379
G1 F1200 X95.6 Y136.329 E114.02051
G0 F6000 X95.6 Y135.763
G1 F1200 X88.649 Y128.813 E114.47822
G0 F6000 X88.649 Y128.247
G1 F1200 X95.6 Y135.198 E114.93595
G0 F6000 X95.6 Y134.632
G1 F1200 X88.649 Y127.682 E115.39365
G0 F6000 X88.649 Y127.116
G1 F1200 X95.6 Y134.066 E115.85135
G0 F6000 X95.6 Y133.501
G1 F1200 X88.649 Y126.55 E116.30909
G0 F6000 X88.649 Y125.985
G1 F1200 X95.6 Y132.935 E116.76679
G0 F6000 X95.6 Y132.369
G1 F1200 X88.649 Y125.419 E117.22449
G0 F6000 X88.649 Y124.853
G1 F1200 X95.6 Y131.803 E117.6822
G0 F6000 X95.6 Y131.238
G1 F1200 X88.649 Y124.288 E118.1399
G0 F6000 X88.649 Y123.722
G1 F1200 X95.6 Y130.672 E118.5976
G0 F6000 X95.6 Y130.106
G1 F1200 X88.649 Y123.156 E119.0553
G0 F6000 X88.649 Y122.591
G1 F1200 X95.6 Y129.541 E119.51301
G0 F6000 X95.6 Y128.975
G1 F1200 X88.649 Y122.025 E119.97071
G0 F6000 X88.649 Y121.459
G1 F1200 X95.6 Y128.409 E120.42841
G0 F6000 X95.6 Y127.844
G1 F1200 X88.649 Y120.894 E120.88611
G0 F6000 X88.649 Y120.328
G1 F1200 X95.6 Y127.278 E121.34382
G0 F6000 X95.6 Y126.712
G1 F1200 X88.649 Y119.762 E121.80152
G0 F6000 X88.649 Y119.196
G1 F1200 X95.6 Y126.147 E122.25925
G0 F6000 X95.6 Y125.581
G1 F1200 X88.649 Y118.631 E122.71696
G0 F6000 X88.649 Y118.065
G1 F1200 X95.6 Y125.015 E123.17466
G0 F6000 X95.6 Y124.45
G1 F1200 X88.649 Y117.499 E123.63239
G0 F6000 X88.649 Y116.934
G1 F1200 X95.51 Y123.794 E124.08417
G0 F6000 X95.322 Y123.041
G1 F1200 X88.649 Y116.368 E124.5236
G0 F6000 X88.649 Y115.802
G1 F1200 X95.136 Y122.289 E124.95078
G0 F6000 X94.966 Y121.553
G1 F1200 X88.649 Y115.237 E125.36673
G0 F6000 X88.649 Y114.671
G1 F1200 X94.887 Y120.908 E125.77748
G0 F6000 X94.808 Y120.264
G1 F1200 X88.649 Y114.105 E126.18306
G0 F6000 X88.649 Y113.54
