;FLAVOR:Marlin
;TIME:2674
;Filament used: 2.48695m
;Layer height: 0.28
;MINX:4.61
;MINY:18.827
;MINZ:0.28
;MAXX:86.61
;MAXY:100.827
;MAXZ:7
;Generated with Cura_SteamEngine 4.5.0
M140 S50
M105
M190 S50
M104 S200
M105
M109 S200
M82 ;absolute extrusion mode
; Ender 3 Custom Start G-code
G92 E0 ; Reset Extruder
G28 ; Home all axes
G1 Z2.0 F3000 ; Move Z Axis up little to prevent scratching of Heat Bed
G1 X0.1 Y20 Z0.3 F5000.0 ; Move to start position
G1 X0.1 Y200.0 Z0.3 F1500.0 E15 ; Draw the first line
G1 X0.4 Y200.0 Z0.3 F5000.0 ; Move to side a little
G1 X0.4 Y20 Z0.3 F1500.0 E30 ; Draw the second line
G92 E0 ; Reset Extruder
G1 Z2.0 F3000 ; Move Z Axis up little to prevent scratching of Heat Bed
G1 X5 Y20 Z0.3 F5000.0 ; Move over to prevent blob squish
G92 E0
G92 E0
G1 F2700 E-5
;LAYER_COUNT:25
;LAYER:0
M107
G0 F6000 X10.849 Y19.924 Z0.28
;TYPE:SKIRT
G1 F2700 E0
G1 F1200 X11.711 Y19.554 E0.04368
G1 X12.601 Y19.258 E0.08735
G1 X13.513 Y19.04 E0.13102
G1 X14.44 Y18.899 E0.17468
G1 X15.311 Y18.84 E0.21533
G1 X15.94 Y18.827 E0.24462
G1 X74.903 Y18.827 E2.99019
G1 X75.061 Y18.828 E2.99755
G1 X75.759 Y18.838 E3.03005
G1 X76.695 Y18.892 E3.07371
G1 X77.623 Y19.024 E3.11735
G1 X78.537 Y19.236 E3.16104
G1 X79.429 Y19.525 E3.2047
G1 X80.294 Y19.888 E3.24838
G1 X81.124 Y20.324 E3.29204
G1 X81.915 Y20.829 E3.33574
G1 X82.659 Y21.4 E3.37941
G1 X83.352 Y22.032 E3.42308
G1 X83.989 Y22.72 E3.46674
G1 X84.564 Y23.461 E3.51042
G1 X85.075 Y24.247 E3.55407
G1 X85.517 Y25.075 E3.59777
G1 X85.886 Y25.937 E3.64144
G1 X86.181 Y26.827 E3.6851
G1 X86.399 Y27.739 E3.72876
G1 X86.539 Y28.667 E3.77246
G1 X86.597 Y29.528 E3.81264
G1 X86.61 Y30.157 E3.84194
G1 X86.61 Y89.091 E6.58615
G1 X86.6 Y89.954 E6.62634
G1 X86.549 Y90.891 E6.67003
G1 X86.417 Y91.819 E6.71368
G1 X86.208 Y92.733 E6.75734
G1 X85.921 Y93.626 E6.80101
G1 X85.559 Y94.492 E6.84472
G1 X85.125 Y95.323 E6.88837
G1 X84.621 Y96.114 E6.93205
G1 X84.052 Y96.859 E6.9757
G1 X83.421 Y97.554 E7.01941
G1 X82.734 Y98.192 E7.06307
G1 X81.995 Y98.769 E7.10672
G1 X81.209 Y99.281 E7.1504
G1 X80.383 Y99.724 E7.19405
G1 X79.521 Y100.096 E7.23776
G1 X78.632 Y100.392 E7.28139
G1 X77.72 Y100.612 E7.32508
G1 X76.793 Y100.753 E7.36874
G1 X75.909 Y100.814 E7.41
G1 X75.28 Y100.827 E7.4393
G1 X16.317 Y100.827 E10.18486
G1 X15.477 Y100.817 E10.22398
G1 X14.541 Y100.765 E10.26763
G1 X13.612 Y100.633 E10.31132
G1 X12.698 Y100.423 E10.35499
G1 X11.805 Y100.136 E10.39867
G1 X10.94 Y99.773 E10.44235
G1 X10.109 Y99.339 E10.486
G1 X9.318 Y98.835 E10.52967
G1 X8.573 Y98.265 E10.57335
G1 X7.879 Y97.634 E10.61703
G1 X7.242 Y96.947 E10.66065
G1 X6.665 Y96.207 E10.70435
G1 X6.153 Y95.421 E10.74803
G1 X5.71 Y94.594 E10.79171
G1 X5.339 Y93.733 E10.83537
G1 X5.043 Y92.843 E10.87904
G1 X4.824 Y91.931 E10.92272
G1 X4.683 Y91.004 E10.96638
G1 X4.623 Y90.115 E11.00787
G1 X4.61 Y89.485 E11.03721
G1 X4.61 Y30.501 E13.78375
G1 X4.62 Y29.687 E13.82166
G1 X4.673 Y28.751 E13.86531
G1 X4.805 Y27.822 E13.909
G1 X5.016 Y26.908 E13.95268
G1 X5.304 Y26.016 E13.99633
G1 X5.667 Y25.151 E14.04001
G1 X6.102 Y24.32 E14.08369
G1 X6.606 Y23.53 E14.12732
G1 X7.176 Y22.785 E14.171
G1 X7.808 Y22.091 E14.21471
G1 X8.496 Y21.454 E14.25837
G1 X9.236 Y20.878 E14.30203
G1 X10.022 Y20.366 E14.34571
G1 X10.849 Y19.924 E14.38938
G0 F6000 X11.221 Y20.191
G1 F1200 X12.075 Y19.846 E14.43226
G1 X12.955 Y19.576 E14.47513
G1 X13.855 Y19.384 E14.51798
G1 X14.769 Y19.27 E14.56087
G1 X15.322 Y19.24 E14.58665
G1 X15.94 Y19.227 E14.61544
G1 X74.903 Y19.227 E17.361
G1 X75.055 Y19.228 E17.36808
G1 X75.753 Y19.238 E17.40058
G1 X76.672 Y19.291 E17.44345
G1 X77.583 Y19.424 E17.48632
G1 X78.479 Y19.635 E17.52918
G1 X79.353 Y19.923 E17.57203
G1 X80.2 Y20.286 E17.61494
G1 X81.011 Y20.721 E17.65779
G1 X81.781 Y21.225 E17.70064
G1 X82.505 Y21.794 E17.74352
G1 X83.177 Y22.424 E17.78641
G1 X83.792 Y23.109 E17.82928
G1 X84.345 Y23.845 E17.87215
G1 X84.832 Y24.626 E17.915
G1 X85.249 Y25.447 E17.95788
G1 X85.594 Y26.301 E18.00077
G1 X85.863 Y27.181 E18.04362
G1 X86.055 Y28.082 E18.08651
G1 X86.168 Y28.995 E18.12935
G1 X86.197 Y29.539 E18.15472
G1 X86.21 Y30.157 E18.1835
G1 X86.21 Y89.091 E20.92772
G1 X86.2 Y89.949 E20.96767
G1 X86.149 Y90.868 E21.01053
G1 X86.018 Y91.78 E21.05343
G1 X85.808 Y92.676 E21.09628
G1 X85.522 Y93.551 E21.13915
G1 X85.161 Y94.398 E21.18202
G1 X84.727 Y95.21 E21.22489
G1 X84.225 Y95.982 E21.26777
G1 X83.657 Y96.707 E21.31066
G1 X83.029 Y97.38 E21.35352
G1 X82.345 Y97.996 E21.39638
G1 X81.61 Y98.55 E21.43924
G1 X80.83 Y99.039 E21.48211
G1 X80.01 Y99.458 E21.52499
G1 X79.157 Y99.804 E21.56785
G1 X78.277 Y100.075 E21.61072
G1 X77.377 Y100.268 E21.65358
G1 X76.463 Y100.383 E21.69648
G1 X75.898 Y100.414 E21.72283
G1 X75.28 Y100.427 E21.75161
G1 X16.317 Y100.427 E24.49718
G1 X15.482 Y100.417 E24.53606
G1 X14.563 Y100.365 E24.57892
G1 X13.652 Y100.234 E24.62178
G1 X12.756 Y100.024 E24.66463
G1 X11.881 Y99.737 E24.70751
G1 X11.034 Y99.375 E24.7504
G1 X10.222 Y98.941 E24.79327
G1 X9.451 Y98.439 E24.83611
G1 X8.726 Y97.871 E24.879
G1 X8.053 Y97.242 E24.92189
G1 X7.438 Y96.558 E24.96472
G1 X6.884 Y95.823 E25.00758
G1 X6.396 Y95.042 E25.05046
G1 X5.977 Y94.222 E25.09334
G1 X5.631 Y93.369 E25.1362
G1 X5.361 Y92.489 E25.17906
G1 X5.168 Y91.588 E25.22197
G1 X5.054 Y90.675 E25.26481
G1 X5.023 Y90.104 E25.29144
G1 X5.01 Y89.485 E25.32027
G1 X5.01 Y30.501 E28.06681
G1 X5.02 Y29.693 E28.10444
G1 X5.072 Y28.773 E28.14735
G1 X5.204 Y27.862 E28.19021
G1 X5.415 Y26.966 E28.23307
G1 X5.702 Y26.091 E28.27595
G1 X6.065 Y25.245 E28.31882
G1 X6.499 Y24.433 E28.36169
G1 X7.002 Y23.662 E28.40456
G1 X7.571 Y22.938 E28.44743
G1 X8.199 Y22.266 E28.49026
G1 X8.884 Y21.65 E28.53316
G1 X9.62 Y21.097 E28.57603
G1 X10.401 Y20.609 E28.61891
G1 X11.221 Y20.191 E28.66177
G0 F6000 X11.592 Y20.465
G1 F1200 X12.437 Y20.145 E28.70384
G1 X13.306 Y19.902 E28.74586
G1 X14.194 Y19.736 E28.78792
G1 X15.333 Y19.64 E28.84115
G1 X15.94 Y19.627 E28.86942
G1 X74.903 Y19.627 E31.61498
G1 X75.049 Y19.628 E31.62178
G1 X75.747 Y19.638 E31.65428
G1 X76.649 Y19.691 E31.69636
G1 X77.542 Y19.823 E31.73839
G1 X78.42 Y20.034 E31.78044
G1 X79.276 Y20.322 E31.82249
G1 X80.103 Y20.684 E31.86453
G1 X80.895 Y21.119 E31.9066
G1 X81.646 Y21.621 E31.94867
G1 X82.349 Y22.188 E31.99072
G1 X82.999 Y22.815 E32.03278
G1 X83.591 Y23.497 E32.07483
G1 X84.121 Y24.228 E32.11687
G1 X84.583 Y25.004 E32.15892
G1 X84.976 Y25.817 E32.20097
G1 X85.294 Y26.662 E32.24301
G1 X85.537 Y27.532 E32.28507
G1 X85.702 Y28.42 E32.32713
G1 X85.797 Y29.55 E32.37993
G1 X85.81 Y30.157 E32.40821
G1 X85.81 Y89.091 E35.15242
G1 X85.8 Y89.944 E35.19214
G1 X85.749 Y90.846 E35.23421
G1 X85.618 Y91.74 E35.27628
G1 X85.409 Y92.618 E35.31831
G1 X85.123 Y93.475 E35.36038
G1 X84.762 Y94.303 E35.40244
G1 X84.33 Y95.095 E35.44445
G1 X83.829 Y95.847 E35.48652
G1 X83.263 Y96.551 E35.52858
G1 X82.638 Y97.202 E35.5706
G1 X81.957 Y97.796 E35.61268
G1 X81.226 Y98.327 E35.65475
G1 X80.452 Y98.791 E35.69677
G1 X79.639 Y99.185 E35.73884
G1 X78.795 Y99.505 E35.78087
G1 X77.925 Y99.75 E35.82296
G1 X77.038 Y99.916 E35.86498
G1 X75.887 Y100.014 E35.91877
G1 X75.28 Y100.027 E35.94704
G1 X16.317 Y100.027 E38.6926
G1 X15.487 Y100.017 E38.73125
G1 X14.586 Y99.966 E38.77328
G1 X13.692 Y99.834 E38.81536
G1 X12.814 Y99.625 E38.85738
G1 X11.957 Y99.338 E38.89947
G1 X11.13 Y98.977 E38.94148
G1 X10.337 Y98.544 E38.98355
G1 X9.586 Y98.043 E39.02559
G1 X8.882 Y97.477 E39.06765
G1 X8.231 Y96.851 E39.10971
G1 X7.638 Y96.17 E39.15175
G1 X7.108 Y95.439 E39.1938
G1 X6.644 Y94.664 E39.23586
G1 X6.25 Y93.851 E39.27793
G1 X5.93 Y93.007 E39.31996
G1 X5.686 Y92.137 E39.36203
G1 X5.52 Y91.249 E39.4041
G1 X5.423 Y90.094 E39.45807
G1 X5.41 Y89.485 E39.48643
G1 X5.41 Y30.501 E42.23297
G1 X5.42 Y29.698 E42.27037
G1 X5.472 Y28.796 E42.31244
G1 X5.604 Y27.903 E42.35447
G1 X5.814 Y27.025 E42.39651
G1 X6.101 Y26.168 E42.43859
G1 X6.463 Y25.341 E42.48063
G1 X6.896 Y24.549 E42.52266
G1 X7.398 Y23.798 E42.56472
G1 X7.965 Y23.094 E42.60681
G1 X8.591 Y22.444 E42.64883
G1 X9.272 Y21.851 E42.69088
G1 X10.004 Y21.321 E42.73296
G1 X10.779 Y20.858 E42.775
G1 X11.592 Y20.465 E42.81705
G1 F2700 E37.81705
;MESH:AdpatadorSerraV01.stl
G0 F6000 X33.729 Y43.367
G0 X32.705 Y42.308
G0 X32.898 Y42.635
G0 X26.144 Y49.166
G0 X24.906 Y51.865
G0 X24.106 Y54.352
G0 X23.591 Y57.069
G0 X23.42 Y59.825
G0 X23.532 Y62.045
G0 X23.864 Y64.242
G0 X24.456 Y66.509
G0 X25.177 Y68.48
G0 X26.17 Y70.532
G0 X35.84 Y79.752
G0 X38.279 Y80.765
G0 X40.631 Y81.445
G0 X42.911 Y81.853
G0 X45.357 Y82.015
G0 X47.937 Y81.888
G0 X50.225 Y81.532
G0 X51.566 Y81.169
G0 X55.019 Y80.106
;TYPE:WALL-INNER
G1 F2700 E42.81705
G1 F1200 X55.588 Y79.554 E42.85396
G1 X65.569 Y69.898 E43.50061
G1 X66.627 Y67.43 E43.62565
G1 X67.368 Y64.939 E43.74666
G1 X67.815 Y62.377 E43.86776
G1 X67.961 Y59.781 E43.98884
G1 X67.804 Y57.186 E44.10989
G1 X67.348 Y54.626 E44.23097
G1 X66.596 Y52.137 E44.35204
G1 X65.526 Y49.671 E44.47721
G1 X54.53 Y39.328 E45.18015
G1 X51.832 Y38.36 E45.31362
G1 X49.117 Y37.753 E45.44316
G1 X46.35 Y37.488 E45.57259
G1 X43.571 Y37.569 E45.70205
G1 X40.823 Y37.995 E45.83154
G1 X38.149 Y38.757 E45.96101
G1 X35.524 Y39.875 E46.09386
G1 X26.011 Y49.071 E46.70996
G1 X24.804 Y51.661 E46.84302
G1 X24.754 Y51.815 E46.85056
G1 X23.95 Y54.311 E46.97266
G1 X23.431 Y57.048 E47.10238
G1 X23.259 Y59.824 E47.23189
G1 X23.372 Y62.062 E47.33623
G1 X23.707 Y64.275 E47.44045
G1 X24.26 Y66.441 E47.54454
G1 X24.305 Y66.565 E47.55069
G1 X25.029 Y68.543 E47.64877
G1 X26.037 Y70.628 E47.7566
G1 X35.749 Y79.889 E48.38148
G1 X38.095 Y80.877 E48.50001
G1 X40.46 Y81.577 E48.61486
G1 X40.603 Y81.603 E48.62163
G1 X42.891 Y82.013 E48.72987
G1 X45.355 Y82.177 E48.84485
G1 X47.819 Y82.068 E48.9597
G1 X50.258 Y81.689 E49.07463
G1 X52.642 Y81.043 E49.18964
G1 X55.019 Y80.106 E49.30862
G0 F6000 X54.798 Y79.763
;TYPE:WALL-OUTER
G1 F1200 X55.31 Y79.267 E49.34181
G1 X65.233 Y69.667 E49.98471
G1 X66.25 Y67.294 E50.10493
G1 X66.978 Y64.847 E50.22381
G1 X67.417 Y62.331 E50.34273
G1 X67.56 Y59.782 E50.46161
G1 X67.406 Y57.233 E50.58052
G1 X66.958 Y54.719 E50.69942
G1 X66.22 Y52.275 E50.8183
G1 X65.192 Y49.906 E50.93855
G1 X54.317 Y39.676 E51.63378
G1 X51.72 Y38.745 E51.76224
G1 X49.054 Y38.149 E51.88944
G1 X46.337 Y37.889 E52.01654
G1 X43.608 Y37.968 E52.14366
G1 X40.909 Y38.386 E52.27084
G1 X38.283 Y39.135 E52.39799
G1 X35.749 Y40.214 E52.52624
G1 X26.342 Y49.307 E53.13545
G1 X25.177 Y51.808 E53.26393
G1 X25.134 Y51.939 E53.27035
G1 X24.338 Y54.41 E53.39123
G1 X23.829 Y57.098 E53.51862
G1 X23.66 Y59.826 E53.64589
G1 X23.77 Y62.022 E53.74827
G1 X24.099 Y64.195 E53.85061
G1 X24.643 Y66.323 E53.95288
G1 X24.681 Y66.428 E53.95808
G1 X25.398 Y68.387 E54.05522
G1 X26.366 Y70.389 E54.15877
G1 X35.972 Y79.549 E54.77683
G1 X38.23 Y80.5 E54.89091
G1 X38.347 Y80.535 E54.8966
G1 X40.553 Y81.187 E55.00371
G1 X40.674 Y81.209 E55.00944
G1 X42.94 Y81.615 E55.11664
G1 X45.359 Y81.776 E55.22952
G1 X47.781 Y81.669 E55.34241
G1 X47.902 Y81.651 E55.34811
G1 X50.175 Y81.297 E55.45522
G1 X52.516 Y80.663 E55.56816
G1 X54.798 Y79.763 E55.68238
G0 F6000 X55.036 Y80.132
G1 F2700 E50.68238
G0 F6000 X55.721 Y79.691
G0 X54.709 Y78.646
G0 X55.721 Y90.492
G0 X55.721 Y89.017
G0 X75.01 Y89.227
;TYPE:WALL-INNER
G1 F2700 E55.68238
G1 F1200 X16.21 Y89.227 E58.42036
G1 X16.21 Y30.427 E61.15833
G1 X75.01 Y30.427 E63.89631
G1 X75.01 Y89.227 E66.63428
G0 F6000 X75.41 Y89.627
;TYPE:WALL-OUTER
G1 F1200 X15.81 Y89.627 E69.40951
G1 X15.81 Y30.027 E72.18473
G1 X75.41 Y30.027 E74.95996
G1 X75.41 Y89.627 E77.73518
G0 F6000 X75.14 Y89.357
G0 X74.9 Y88.837
G0 X74.62 Y88.837
;TYPE:SKIN
G1 F1200 X16.6 Y88.837 E80.43684
G1 X16.6 Y30.817 E83.13849
G1 X74.62 Y30.817 E85.84015
G1 X74.62 Y88.837 E88.5418
G1 F2700 E83.5418
G0 F6000 X74.9 Y88.837
G0 X74.8 Y69.961
G0 X76.275 Y69.961
G0 X65.435 Y67.003
G0 X66.807 Y67.496
G0 X65.662 Y69.961
G0 X65.897 Y70.124
G1 F2700 E88.5418
G1 F1200 X66.994 Y67.563 E88.67153
G1 X67.748 Y65.029 E88.79464
G1 X68.203 Y62.422 E88.91786
G1 X68.351 Y59.781 E89.04103
G1 X68.192 Y57.14 E89.16423
G1 X67.728 Y54.535 E89.28744
G1 X66.963 Y52.002 E89.41065
G1 X65.852 Y49.442 E89.5406
G1 X54.738 Y38.989 E90.25104
G1 X51.941 Y37.985 E90.38942
G1 X49.178 Y37.367 E90.52125
G1 X46.363 Y37.098 E90.65293
G1 X43.536 Y37.179 E90.78462
G1 X40.739 Y37.613 E90.91642
G1 X38.018 Y38.389 E91.04817
G1 X35.305 Y39.544 E91.18547
G1 X25.688 Y48.841 E91.80832
G1 X24.441 Y51.518 E91.94583
G1 X24.383 Y51.694 E91.95446
G1 X23.572 Y54.214 E92.07773
G1 X23.043 Y56.999 E92.20973
G1 X22.869 Y59.822 E92.34143
G1 X22.984 Y62.101 E92.44769
G1 X23.325 Y64.353 E92.55374
G1 X23.887 Y66.556 E92.65961
G1 X23.938 Y66.697 E92.66659
G1 X24.669 Y68.695 E92.76566
G1 X25.717 Y70.862 E92.87774
G1 X35.532 Y80.221 E93.50924
G1 X37.964 Y81.245 E93.63212
G1 X40.37 Y81.957 E93.74895
G1 X40.533 Y81.987 E93.75667
G1 X42.843 Y82.401 E93.86595
G1 X45.351 Y82.567 E93.98298
G1 X47.858 Y82.456 E94.09984
G1 X50.34 Y82.071 E94.21679
G1 X52.765 Y81.414 E94.33378
G1 X55.235 Y80.44 E94.45741
G1 X55.859 Y79.834 E94.49791
G1 X65.897 Y70.124 E95.14822
G1 F2700 E90.14822
G0 F6000 X65.662 Y69.961
G0 X67.211 Y64.902
G0 X67.655 Y62.358
G0 X67.785 Y60.04
G0 X67.534 Y54.581
G0 X66.116 Y54.921
G0 X76.275 Y54.581
G0 X74.8 Y54.581
G0 X74.9 Y31.468
G0 X74.46 Y31.468
G1 F2700 E95.14822
G1 F1200 X73.969 Y30.976 E95.18059
G0 F6000 X73.403 Y30.976
G1 F1200 X74.46 Y32.034 E95.25023
G0 F6000 X74.46 Y32.599
G1 F1200 X72.837 Y30.976 E95.35711
G0 F6000 X72.271 Y30.976
G1 F1200 X74.46 Y33.165 E95.50126
G0 F6000 X74.46 Y33.731
G1 F1200 X71.706 Y30.976 E95.68264
G0 F6000 X71.14 Y30.976
G1 F1200 X74.46 Y34.296 E95.90127
G0 F6000 X74.46 Y34.862
G1 F1200 X70.574 Y30.976 E96.15717
G0 F6000 X70.009 Y30.976
G1 F1200 X74.46 Y35.428 E96.45031
G0 F6000 X74.46 Y35.993
G1 F1200 X69.443 Y30.976 E96.78069
G0 F6000 X68.877 Y30.976
G1 F1200 X74.46 Y36.559 E97.14834
G0 F6000 X74.46 Y37.125
G1 F1200 X68.312 Y30.976 E97.55323
G0 F6000 X67.746 Y30.976
G1 F1200 X74.46 Y37.69 E97.99536
G0 F6000 X74.46 Y38.256
G1 F1200 X67.18 Y30.976 E98.47476
G0 F6000 X66.615 Y30.976
G1 F1200 X74.46 Y38.822 E98.9914
G0 F6000 X74.46 Y39.387
G1 F1200 X66.049 Y30.976 E99.54527
G0 F6000 X65.483 Y30.976
G1 F1200 X74.46 Y39.953 E100.13643
G0 F6000 X74.46 Y40.519
G1 F1200 X64.918 Y30.976 E100.76482
G0 F6000 X64.352 Y30.976
G1 F1200 X74.46 Y41.085 E101.43048
G0 F6000 X74.46 Y41.65
G1 F1200 X63.786 Y30.976 E102.13338
G0 F6000 X63.221 Y30.976
G1 F1200 X74.46 Y42.216 E102.87352
G0 F6000 X74.46 Y42.782
G1 F1200 X62.655 Y30.976 E103.65093
G0 F6000 X62.089 Y30.976
G1 F1200 X74.46 Y43.347 E104.46558
G0 F6000 X74.46 Y43.913
G1 F1200 X61.523 Y30.976 E105.31751
G0 F6000 X60.958 Y30.976
G1 F1200 X74.46 Y44.479 E106.20667
G0 F6000 X74.46 Y45.044
G1 F1200 X60.392 Y30.976 E107.13307
G0 F6000 X59.826 Y30.976
G1 F1200 X74.46 Y45.61 E108.09674
G0 F6000 X74.46 Y46.176
G1 F1200 X59.261 Y30.976 E109.09766
G0 F6000 X58.695 Y30.976
G1 F1200 X74.46 Y46.741 E110.13581
G0 F6000 X74.46 Y47.307
G1 F1200 X58.129 Y30.976 E111.21123
G0 F6000 X57.564 Y30.976
G1 F1200 X74.46 Y47.873 E112.3239
G0 F6000 X74.46 Y48.438
G1 F1200 X56.998 Y30.976 E113.4738
G0 F6000 X56.432 Y30.976
G1 F1200 X74.46 Y49.004 E114.66097
G0 F6000 X74.46 Y49.57
G1 F1200 X55.867 Y30.976 E115.88539
G0 F6000 X55.301 Y30.976
G1 F1200 X74.46 Y50.135 E117.14704
G0 F6000 X74.46 Y50.701
G1 F1200 X54.735 Y30.976 E118.44597
G0 F6000 X54.17 Y30.976
G1 F1200 X74.46 Y51.267 E119.78213
G0 F6000 X74.46 Y51.833
G1 F1200 X53.604 Y30.976 E121.15557
G0 F6000 X53.038 Y30.976
G1 F1200 X74.46 Y52.398 E122.56624
G0 F6000 X74.46 Y52.964
G1 F1200 X52.472 Y30.976 E124.01419
G0 F6000 X51.907 Y30.976
G1 F1200 X74.46 Y53.53 E125.49938
G0 F6000 X74.46 Y54.095
G1 F1200 X51.341 Y30.976 E127.0218
G0 F6000 X50.775 Y30.976
G1 F1200 X74.46 Y54.661 E128.5815
G0 F6000 X74.46 Y55.227
G1 F1200 X50.21 Y30.976 E130.17844
G0 F6000 X49.644 Y30.976
G1 F1200 X74.46 Y55.792 E131.81261
G0 F6000 X74.46 Y56.358
G1 F1200 X49.078 Y30.976 E133.48406
G0 F6000 X48.513 Y30.976
G1 F1200 X74.46 Y56.924 E135.19275
G0 F6000 X74.46 Y57.489
G1 F1200 X47.947 Y30.976 E136.93867
G0 F6000 X47.381 Y30.976
G1 F1200 X62.081 Y45.676 E137.90669
G0 F6000 X61.78 Y45.995
